( pcb2gcode 1.1.4 )

G94     ( Inches per minute feed rate. )
G20     ( Units == INCHES.             )
G90     ( Absolute coordinates.        )
S10000  ( RPM spindle speed.           )
M3      ( Spindle on clockwise.        )

G64 P0.00500 ( set maximum deviation from commanded toolpath )

G04 P0 ( dwell for no time -- G64 should not smooth over this point )
G00 Z0.19685 ( retract )

G00 X0.01916 Y0.71714 ( rapid move to begin. )
G01 Z-0.01969 F1.96850 ( plunge. )
G04 P0 ( dwell for no time -- G64 should not smooth over this point )
X0.01916 Y0.71714
X0.01816 Y0.71714
X0.01816 Y0.71614
X0.01716 Y0.71614
X0.01716 Y0.02014
X0.01816 Y0.02014
X0.01816 Y0.01914
X0.01916 Y0.01914
X0.01916 Y0.01814
X1.68516 Y0.01814
X1.68516 Y0.01914
X1.68616 Y0.01914
X1.68616 Y0.02014
X1.68716 Y0.02014
X1.68716 Y0.71614
X1.68616 Y0.71614
X1.68616 Y0.71714
X1.68516 Y0.71714
X1.68516 Y0.71814
X0.01916 Y0.71814
X0.01916 Y0.71714
G04 P0 ( dwell for no time -- G64 should not smooth over this point )
G00 Z0.19685 ( retract )

G00 X1.47616 Y0.58314 ( rapid move to begin. )
G01 Z-0.01969 F1.96850 ( plunge. )
G04 P0 ( dwell for no time -- G64 should not smooth over this point )
X1.47616 Y0.58314
X1.47516 Y0.58314
X1.47516 Y0.58214
X1.47416 Y0.58214
X1.47416 Y0.58114
X1.47316 Y0.58114
X1.47316 Y0.58014
X1.47216 Y0.58014
X1.47216 Y0.57914
X1.47116 Y0.57914
X1.47116 Y0.57814
X1.47016 Y0.57814
X1.47016 Y0.57714
X1.46916 Y0.57714
X1.46916 Y0.57614
X1.46816 Y0.57614
X1.46816 Y0.57514
X1.46716 Y0.57514
X1.46716 Y0.57414
X1.46616 Y0.57414
X1.46616 Y0.57314
X1.46516 Y0.57314
X1.46516 Y0.57214
X1.46416 Y0.57214
X1.46416 Y0.57114
X1.46316 Y0.57114
X1.46316 Y0.57014
X1.46216 Y0.57014
X1.46216 Y0.56914
X1.46116 Y0.56914
X1.46116 Y0.56814
X1.46016 Y0.56814
X1.46016 Y0.56614
X1.45916 Y0.56614
X1.45916 Y0.56514
X1.45816 Y0.56514
X1.45816 Y0.56214
X1.45716 Y0.56214
X1.45716 Y0.51914
X1.45616 Y0.51914
X1.45616 Y0.51814
X1.39316 Y0.51814
X1.39316 Y0.51714
X1.38316 Y0.51714
X1.38316 Y0.51614
X1.37616 Y0.51614
X1.37616 Y0.51714
X1.36616 Y0.51714
X1.36616 Y0.51814
X1.16916 Y0.51814
X1.16916 Y0.51914
X1.16816 Y0.51914
X1.16816 Y0.52014
X1.16716 Y0.52014
X1.16716 Y0.52114
X1.16616 Y0.52114
X1.16616 Y0.52214
X1.16516 Y0.52214
X1.16516 Y0.52314
X1.16416 Y0.52314
X1.16416 Y0.52414
X1.16316 Y0.52414
X1.16316 Y0.52614
X1.16416 Y0.52614
X1.16416 Y0.52814
X1.16516 Y0.52814
X1.16516 Y0.53214
X1.16616 Y0.53214
X1.16616 Y0.53814
X1.16716 Y0.53814
X1.16716 Y0.54314
X1.16616 Y0.54314
X1.16616 Y0.54914
X1.16516 Y0.54914
X1.16516 Y0.55314
X1.16416 Y0.55314
X1.16416 Y0.55614
X1.16316 Y0.55614
X1.16316 Y0.55814
X1.16216 Y0.55814
X1.16216 Y0.56014
X1.16116 Y0.56014
X1.16116 Y0.56114
X1.16016 Y0.56114
X1.16016 Y0.56214
X1.15916 Y0.56214
X1.15916 Y0.56314
X1.15816 Y0.56314
X1.15816 Y0.56414
X1.15716 Y0.56414
X1.15716 Y0.56514
X1.15616 Y0.56514
X1.15616 Y0.56614
X1.15516 Y0.56614
X1.15516 Y0.56714
X1.15416 Y0.56714
X1.15416 Y0.56814
X1.15316 Y0.56814
X1.15316 Y0.56914
X1.15216 Y0.56914
X1.15216 Y0.57014
X1.15016 Y0.57014
X1.15016 Y0.57114
X1.14816 Y0.57114
X1.14816 Y0.57214
X1.14716 Y0.57214
X1.14716 Y0.57314
X1.14516 Y0.57314
X1.14516 Y0.57414
X1.14316 Y0.57414
X1.14316 Y0.57514
X1.14216 Y0.57514
X1.14216 Y0.57614
X1.13816 Y0.57614
X1.13816 Y0.57714
X1.12216 Y0.57714
X1.12216 Y0.57614
X1.11816 Y0.57614
X1.11816 Y0.57514
X1.11616 Y0.57514
X1.11616 Y0.57414
X1.11416 Y0.57414
X1.11416 Y0.57314
X1.11216 Y0.57314
X1.11216 Y0.57214
X1.11116 Y0.57214
X1.11116 Y0.57114
X1.10916 Y0.57114
X1.10916 Y0.57014
X1.10816 Y0.57014
X1.10816 Y0.56914
X1.10716 Y0.56914
X1.10716 Y0.56814
X1.10616 Y0.56814
X1.10616 Y0.56714
X1.10516 Y0.56714
X1.10516 Y0.56614
X1.10416 Y0.56614
X1.10416 Y0.56514
X1.10316 Y0.56514
X1.10316 Y0.56414
X1.10216 Y0.56414
X1.10216 Y0.56314
X1.10116 Y0.56314
X1.10116 Y0.56214
X1.10016 Y0.56214
X1.10016 Y0.56114
X1.09916 Y0.56114
X1.09916 Y0.55914
X1.09816 Y0.55914
X1.09816 Y0.55814
X1.09716 Y0.55814
X1.09716 Y0.55614
X1.09616 Y0.55614
X1.09616 Y0.55414
X1.09516 Y0.55414
X1.09516 Y0.55314
X0.98716 Y0.55314
X0.98716 Y0.55414
X0.98116 Y0.55414
X0.98116 Y0.55014
X0.95916 Y0.55014
X0.95916 Y0.55214
X0.95816 Y0.55214
X0.95816 Y0.55314
X0.95716 Y0.55314
X0.95716 Y0.55414
X0.95616 Y0.55414
X0.95616 Y0.55514
X0.95216 Y0.55514
X0.95216 Y0.55414
X0.95116 Y0.55414
X0.95116 Y0.55314
X0.95016 Y0.55314
X0.95016 Y0.55214
X0.94816 Y0.55214
X0.94816 Y0.55114
X0.94516 Y0.55114
X0.94516 Y0.55214
X0.94316 Y0.55214
X0.94316 Y0.55314
X0.94216 Y0.55314
X0.94216 Y0.55414
X0.93916 Y0.55414
X0.93916 Y0.55314
X0.93816 Y0.55314
X0.93816 Y0.55214
X0.93616 Y0.55214
X0.93616 Y0.55114
X0.93316 Y0.55114
X0.93316 Y0.55214
X0.93116 Y0.55214
X0.93116 Y0.55314
X0.93016 Y0.55314
X0.93016 Y0.55414
X0.92916 Y0.55414
X0.92916 Y0.55514
X0.92516 Y0.55514
X0.92516 Y0.55414
X0.92416 Y0.55414
X0.92416 Y0.55314
X0.92316 Y0.55314
X0.92316 Y0.55214
X0.92216 Y0.55214
X0.92216 Y0.55014
X0.91016 Y0.55014
X0.91016 Y0.55914
X0.90916 Y0.55914
X0.90916 Y0.56014
X0.90616 Y0.56014
X0.90616 Y0.55914
X0.90516 Y0.55914
X0.90516 Y0.55714
X0.90216 Y0.55714
X0.90216 Y0.55814
X0.90116 Y0.55814
X0.90116 Y0.55914
X0.90016 Y0.55914
X0.90016 Y0.56014
X0.89816 Y0.56014
X0.89816 Y0.56114
X0.89716 Y0.56114
X0.89716 Y0.56214
X0.89616 Y0.56214
X0.89616 Y0.56314
X0.89416 Y0.56314
X0.89416 Y0.56414
X0.89016 Y0.56414
X0.89016 Y0.56514
X0.73416 Y0.56514
X0.73416 Y0.56414
X0.73116 Y0.56414
X0.73116 Y0.56314
X0.72816 Y0.56314
X0.72816 Y0.56214
X0.72716 Y0.56214
X0.72716 Y0.56114
X0.72616 Y0.56114
X0.72616 Y0.56014
X0.72416 Y0.56014
X0.72416 Y0.55914
X0.72316 Y0.55914
X0.72316 Y0.55814
X0.72216 Y0.55814
X0.72216 Y0.55714
X0.72116 Y0.55714
X0.72116 Y0.55614
X0.72016 Y0.55614
X0.72016 Y0.55414
X0.71916 Y0.55414
X0.71916 Y0.55314
X0.61516 Y0.55314
X0.61516 Y0.55414
X0.61416 Y0.55414
X0.61416 Y0.55614
X0.61316 Y0.55614
X0.61316 Y0.55814
X0.61216 Y0.55814
X0.61216 Y0.56014
X0.61116 Y0.56014
X0.61116 Y0.56114
X0.61016 Y0.56114
X0.61016 Y0.56214
X0.60916 Y0.56214
X0.60916 Y0.56314
X0.60816 Y0.56314
X0.60816 Y0.56414
X0.60716 Y0.56414
X0.60716 Y0.56514
X0.60616 Y0.56514
X0.60616 Y0.56614
X0.60516 Y0.56614
X0.60516 Y0.56714
X0.60416 Y0.56714
X0.60416 Y0.56814
X0.60316 Y0.56814
X0.60316 Y0.56914
X0.60216 Y0.56914
X0.60216 Y0.57014
X0.60016 Y0.57014
X0.60016 Y0.57114
X0.59816 Y0.57114
X0.59816 Y0.57214
X0.59716 Y0.57214
X0.59716 Y0.57314
X0.59516 Y0.57314
X0.59516 Y0.57414
X0.59316 Y0.57414
X0.59316 Y0.57514
X0.59216 Y0.57514
X0.59216 Y0.57614
X0.58816 Y0.57614
X0.58816 Y0.57714
X0.57216 Y0.57714
X0.57216 Y0.57614
X0.56816 Y0.57614
X0.56816 Y0.57514
X0.56616 Y0.57514
X0.56616 Y0.57414
X0.56416 Y0.57414
X0.56416 Y0.57314
X0.56216 Y0.57314
X0.56216 Y0.57214
X0.56116 Y0.57214
X0.56116 Y0.57114
X0.55916 Y0.57114
X0.55916 Y0.57014
X0.55816 Y0.57014
X0.55816 Y0.56914
X0.55716 Y0.56914
X0.55716 Y0.56814
X0.55616 Y0.56814
X0.55616 Y0.56714
X0.55516 Y0.56714
X0.55516 Y0.56614
X0.55416 Y0.56614
X0.55416 Y0.56514
X0.55316 Y0.56514
X0.55316 Y0.56414
X0.55216 Y0.56414
X0.55216 Y0.56314
X0.55116 Y0.56314
X0.55116 Y0.56214
X0.55016 Y0.56214
X0.55016 Y0.56114
X0.54916 Y0.56114
X0.54916 Y0.55914
X0.54816 Y0.55914
X0.54816 Y0.55814
X0.54716 Y0.55814
X0.54716 Y0.55614
X0.54616 Y0.55614
X0.54616 Y0.55414
X0.54516 Y0.55414
X0.54516 Y0.55214
X0.54416 Y0.55214
X0.54416 Y0.54814
X0.54316 Y0.54814
X0.54316 Y0.53214
X0.54416 Y0.53214
X0.54416 Y0.52814
X0.54516 Y0.52814
X0.54516 Y0.52714
X0.54616 Y0.52714
X0.54616 Y0.52514
X0.54716 Y0.52514
X0.54716 Y0.52314
X0.54816 Y0.52314
X0.54816 Y0.52214
X0.54916 Y0.52214
X0.54916 Y0.52014
X0.55016 Y0.52014
X0.55016 Y0.51814
X0.55116 Y0.51814
X0.55116 Y0.51714
X0.55216 Y0.51714
X0.55216 Y0.51614
X0.55316 Y0.51614
X0.55316 Y0.51514
X0.55416 Y0.51514
X0.55416 Y0.51314
X0.55516 Y0.51314
X0.55516 Y0.51214
X0.55616 Y0.51214
X0.55616 Y0.51114
X0.55716 Y0.51114
X0.55716 Y0.51014
X0.55916 Y0.51014
X0.55916 Y0.50914
X0.56016 Y0.50914
X0.56016 Y0.50814
X0.56216 Y0.50814
X0.56216 Y0.50714
X0.56416 Y0.50714
X0.56416 Y0.50614
X0.56716 Y0.50614
X0.56716 Y0.50514
X0.57116 Y0.50514
X0.57116 Y0.50414
X0.57716 Y0.50414
X0.57716 Y0.50314
X0.58216 Y0.50314
X0.58216 Y0.50414
X0.58816 Y0.50414
X0.58816 Y0.50514
X0.59216 Y0.50514
X0.59216 Y0.50614
X0.59516 Y0.50614
X0.59516 Y0.50714
X0.59716 Y0.50714
X0.59716 Y0.50814
X0.59916 Y0.50814
X0.59916 Y0.50914
X0.60016 Y0.50914
X0.60016 Y0.51014
X0.60216 Y0.51014
X0.60216 Y0.51114
X0.60316 Y0.51114
X0.60316 Y0.51214
X0.60416 Y0.51214
X0.60416 Y0.51314
X0.60516 Y0.51314
X0.60516 Y0.51414
X0.60616 Y0.51414
X0.60616 Y0.51514
X0.60716 Y0.51514
X0.60716 Y0.51614
X0.60816 Y0.51614
X0.60816 Y0.51714
X0.60916 Y0.51714
X0.60916 Y0.51814
X0.61016 Y0.51814
X0.61016 Y0.52014
X0.61116 Y0.52014
X0.61116 Y0.52114
X0.61216 Y0.52114
X0.61216 Y0.52314
X0.61316 Y0.52314
X0.61316 Y0.52514
X0.61416 Y0.52514
X0.61416 Y0.52714
X0.61516 Y0.52714
X0.61516 Y0.52814
X0.67116 Y0.52814
X0.67116 Y0.52714
X0.68016 Y0.52714
X0.68016 Y0.52914
X0.68116 Y0.52914
X0.68116 Y0.53014
X0.68216 Y0.53014
X0.68216 Y0.53114
X0.68316 Y0.53114
X0.68316 Y0.53214
X0.71816 Y0.53214
X0.71816 Y0.53114
X0.71916 Y0.53114
X0.71916 Y0.53014
X0.72016 Y0.53014
X0.72016 Y0.52914
X0.72116 Y0.52914
X0.72116 Y0.52814
X0.72216 Y0.52814
X0.72216 Y0.52714
X0.72316 Y0.52714
X0.72316 Y0.52614
X0.72416 Y0.52614
X0.72416 Y0.52414
X0.72516 Y0.52414
X0.72516 Y0.52314
X0.72616 Y0.52314
X0.72616 Y0.52214
X0.72816 Y0.52214
X0.72816 Y0.52114
X0.73016 Y0.52114
X0.73016 Y0.52014
X0.73216 Y0.52014
X0.73216 Y0.51914
X0.73716 Y0.51914
X0.73716 Y0.51814
X0.73816 Y0.51814
X0.73816 Y0.51714
X0.73916 Y0.51714
X0.73916 Y0.51614
X0.74016 Y0.51614
X0.74016 Y0.51514
X0.88416 Y0.51514
X0.88416 Y0.51614
X0.88516 Y0.51614
X0.88516 Y0.51714
X0.88616 Y0.51714
X0.88616 Y0.51814
X0.88716 Y0.51814
X0.88716 Y0.51914
X0.89116 Y0.51914
X0.89116 Y0.52014
X0.89416 Y0.52014
X0.89416 Y0.52114
X0.89616 Y0.52114
X0.89616 Y0.52214
X0.89816 Y0.52214
X0.89816 Y0.52314
X0.89916 Y0.52314
X0.89916 Y0.52414
X0.90016 Y0.52414
X0.90016 Y0.52514
X0.90116 Y0.52514
X0.90116 Y0.52614
X0.90216 Y0.52614
X0.90216 Y0.52814
X0.90316 Y0.52814
X0.90316 Y0.53014
X0.90416 Y0.53014
X0.90416 Y0.53114
X0.90516 Y0.53114
X0.90516 Y0.53214
X0.91416 Y0.53214
X0.91416 Y0.53114
X0.91716 Y0.53114
X0.91716 Y0.53014
X0.92016 Y0.53014
X0.92016 Y0.52914
X0.92216 Y0.52914
X0.92216 Y0.52814
X0.95816 Y0.52814
X0.95816 Y0.52914
X0.96016 Y0.52914
X0.96016 Y0.53014
X0.96116 Y0.53014
X0.96116 Y0.53114
X0.96216 Y0.53114
X0.96216 Y0.53214
X0.96316 Y0.53214
X0.96316 Y0.53314
X0.96616 Y0.53314
X0.96616 Y0.53414
X0.97316 Y0.53414
X0.97316 Y0.53314
X0.97916 Y0.53314
X0.97916 Y0.53214
X1.02616 Y0.53214
X1.02616 Y0.53114
X1.02716 Y0.53114
X1.02716 Y0.53014
X1.02816 Y0.53014
X1.02816 Y0.52914
X1.03116 Y0.52914
X1.03116 Y0.53014
X1.03216 Y0.53014
X1.03216 Y0.53114
X1.03316 Y0.53114
X1.03316 Y0.53214
X1.09816 Y0.53214
X1.09816 Y0.53114
X1.09916 Y0.53114
X1.09916 Y0.52814
X1.10016 Y0.52814
X1.10016 Y0.52614
X1.10116 Y0.52614
X1.10116 Y0.52414
X1.10216 Y0.52414
X1.10216 Y0.52314
X1.10316 Y0.52314
X1.10316 Y0.52114
X1.10416 Y0.52114
X1.10416 Y0.52014
X1.10516 Y0.52014
X1.10516 Y0.51814
X1.10616 Y0.51814
X1.10616 Y0.51714
X1.10716 Y0.51714
X1.10716 Y0.51614
X1.10816 Y0.51614
X1.10816 Y0.51514
X1.10916 Y0.51514
X1.10916 Y0.51414
X1.11016 Y0.51414
X1.11016 Y0.51314
X1.11216 Y0.51314
X1.11216 Y0.51214
X1.11316 Y0.51214
X1.11316 Y0.51114
X1.11516 Y0.51114
X1.11516 Y0.51014
X1.11916 Y0.51014
X1.11916 Y0.50914
X1.12516 Y0.50914
X1.12516 Y0.50814
X1.12616 Y0.50814
X1.12616 Y0.50714
X1.12716 Y0.50714
X1.12716 Y0.50614
X1.12816 Y0.50614
X1.12816 Y0.50514
X1.12916 Y0.50514
X1.12916 Y0.50314
X1.13116 Y0.50314
X1.13116 Y0.50514
X1.13216 Y0.50514
X1.13216 Y0.50614
X1.13316 Y0.50614
X1.13316 Y0.50714
X1.13416 Y0.50714
X1.13416 Y0.50814
X1.13516 Y0.50814
X1.13516 Y0.50914
X1.14016 Y0.50914
X1.14016 Y0.51014
X1.14916 Y0.51014
X1.14916 Y0.50914
X1.15016 Y0.50914
X1.15016 Y0.50814
X1.15116 Y0.50814
X1.15116 Y0.50514
X1.15216 Y0.50514
X1.15216 Y0.50214
X1.15316 Y0.50214
X1.15316 Y0.49914
X1.15616 Y0.49914
X1.15616 Y0.49814
X1.46116 Y0.49814
X1.46116 Y0.49914
X1.46416 Y0.49914
X1.46416 Y0.50014
X1.46516 Y0.50014
X1.46516 Y0.50114
X1.46616 Y0.50114
X1.46616 Y0.50214
X1.46716 Y0.50214
X1.46716 Y0.50314
X1.46816 Y0.50314
X1.46816 Y0.50414
X1.46916 Y0.50414
X1.46916 Y0.50514
X1.47016 Y0.50514
X1.47016 Y0.50614
X1.47116 Y0.50614
X1.47116 Y0.50714
X1.47216 Y0.50714
X1.47216 Y0.50814
X1.47316 Y0.50814
X1.47316 Y0.50914
X1.47416 Y0.50914
X1.47416 Y0.51014
X1.47516 Y0.51014
X1.47516 Y0.51114
X1.47616 Y0.51114
X1.47616 Y0.51414
X1.47716 Y0.51414
X1.47716 Y0.51714
X1.47816 Y0.51714
X1.47816 Y0.52014
X1.47916 Y0.52014
X1.47916 Y0.52314
X1.48016 Y0.52314
X1.48016 Y0.52614
X1.47916 Y0.52614
X1.47916 Y0.55314
X1.48016 Y0.55314
X1.48016 Y0.55414
X1.48116 Y0.55414
X1.48116 Y0.55714
X1.48216 Y0.55714
X1.48216 Y0.55814
X1.48316 Y0.55814
X1.48316 Y0.55914
X1.48416 Y0.55914
X1.48416 Y0.56114
X1.48516 Y0.56114
X1.48516 Y0.56214
X1.48616 Y0.56214
X1.48616 Y0.56414
X1.48716 Y0.56414
X1.48716 Y0.56514
X1.48816 Y0.56514
X1.48816 Y0.56614
X1.48916 Y0.56614
X1.48916 Y0.56714
X1.49016 Y0.56714
X1.49016 Y0.56814
X1.49116 Y0.56814
X1.49116 Y0.56914
X1.49316 Y0.56914
X1.49316 Y0.57014
X1.49516 Y0.57014
X1.49516 Y0.57114
X1.49616 Y0.57114
X1.49616 Y0.57214
X1.49816 Y0.57214
X1.49816 Y0.57314
X1.50816 Y0.57314
X1.50816 Y0.57414
X1.52116 Y0.57414
X1.52116 Y0.57314
X1.53116 Y0.57314
X1.53116 Y0.57214
X1.53516 Y0.57214
X1.53516 Y0.57114
X1.54016 Y0.57114
X1.54016 Y0.57014
X1.54316 Y0.57014
X1.54316 Y0.56914
X1.54616 Y0.56914
X1.54616 Y0.56814
X1.54816 Y0.56814
X1.54816 Y0.56714
X1.55016 Y0.56714
X1.55016 Y0.56814
X1.57016 Y0.56814
X1.57016 Y0.55914
X1.57116 Y0.55914
X1.57116 Y0.55814
X1.57216 Y0.55814
X1.57216 Y0.55714
X1.57316 Y0.55714
X1.57316 Y0.55614
X1.57416 Y0.55614
X1.57416 Y0.50014
X1.65516 Y0.50014
X1.65516 Y0.58014
X1.65416 Y0.58014
X1.65416 Y0.58114
X1.59916 Y0.58114
X1.59916 Y0.58214
X1.59816 Y0.58214
X1.59816 Y0.58314
X1.59716 Y0.58314
X1.59716 Y0.58414
X1.59616 Y0.58414
X1.59616 Y0.58514
X1.58716 Y0.58514
X1.58716 Y0.58614
X1.58616 Y0.58614
X1.58616 Y0.58714
X1.58516 Y0.58714
X1.58516 Y0.58814
X1.58416 Y0.58814
X1.58416 Y0.58914
X1.58216 Y0.58914
X1.58216 Y0.59014
X1.58116 Y0.59014
X1.58116 Y0.59114
X1.57916 Y0.59114
X1.57916 Y0.59214
X1.57716 Y0.59214
X1.57716 Y0.59314
X1.48816 Y0.59314
X1.48816 Y0.59214
X1.48516 Y0.59214
X1.48516 Y0.59114
X1.48416 Y0.59114
X1.48416 Y0.59014
X1.48216 Y0.59014
X1.48216 Y0.58914
X1.48116 Y0.58914
X1.48116 Y0.58814
X1.48016 Y0.58814
X1.48016 Y0.58714
X1.47916 Y0.58714
X1.47916 Y0.58614
X1.47816 Y0.58614
X1.47816 Y0.58514
X1.47716 Y0.58514
X1.47716 Y0.58414
X1.47616 Y0.58414
X1.47616 Y0.58314
G04 P0 ( dwell for no time -- G64 should not smooth over this point )
G00 Z0.19685 ( retract )

G00 X1.49516 Y0.57014 ( rapid move to begin. )
G01 Z-0.01969 F1.96850 ( plunge. )
G04 P0 ( dwell for no time -- G64 should not smooth over this point )
X1.49516 Y0.57014
X1.49316 Y0.57014
X1.49316 Y0.56914
X1.49116 Y0.56914
X1.49116 Y0.56814
X1.49016 Y0.56814
X1.49016 Y0.56714
X1.48916 Y0.56714
X1.48916 Y0.56614
X1.48816 Y0.56614
X1.48816 Y0.56514
X1.48716 Y0.56514
X1.48716 Y0.56414
X1.48616 Y0.56414
X1.48616 Y0.56214
X1.48516 Y0.56214
X1.48516 Y0.56114
X1.48416 Y0.56114
X1.48416 Y0.55914
X1.48316 Y0.55914
X1.48316 Y0.55814
X1.48216 Y0.55814
X1.48216 Y0.55714
X1.48116 Y0.55714
X1.48116 Y0.55414
X1.48016 Y0.55414
X1.48016 Y0.55314
X1.47916 Y0.55314
X1.47916 Y0.52614
X1.48016 Y0.52614
X1.48016 Y0.52314
X1.47916 Y0.52314
X1.47916 Y0.52014
X1.47816 Y0.52014
X1.47816 Y0.51714
X1.47716 Y0.51714
X1.47716 Y0.51414
X1.47616 Y0.51414
X1.47616 Y0.51114
X1.47516 Y0.51114
X1.47516 Y0.51014
X1.47416 Y0.51014
X1.47416 Y0.50914
X1.47316 Y0.50914
X1.47316 Y0.50814
X1.47216 Y0.50814
X1.47216 Y0.50714
X1.47116 Y0.50714
X1.47116 Y0.50614
X1.47016 Y0.50614
X1.47016 Y0.50514
X1.46916 Y0.50514
X1.46916 Y0.50414
X1.46816 Y0.50414
X1.46816 Y0.50314
X1.46716 Y0.50314
X1.46716 Y0.50214
X1.46616 Y0.50214
X1.46616 Y0.50114
X1.46516 Y0.50114
X1.46516 Y0.50014
X1.46416 Y0.50014
X1.46416 Y0.49914
X1.46116 Y0.49914
X1.46116 Y0.49814
X1.15616 Y0.49814
X1.15616 Y0.49914
X1.13416 Y0.49914
X1.13416 Y0.50014
X1.13316 Y0.50014
X1.13316 Y0.50114
X1.13216 Y0.50114
X1.13216 Y0.50214
X1.13116 Y0.50214
X1.13116 Y0.50314
X1.12916 Y0.50314
X1.12916 Y0.50214
X1.12816 Y0.50214
X1.12816 Y0.50114
X1.12716 Y0.50114
X1.12716 Y0.50014
X1.12616 Y0.50014
X1.12616 Y0.49914
X1.06116 Y0.49914
X1.06116 Y0.50014
X1.06016 Y0.50014
X1.06016 Y0.50514
X1.05916 Y0.50514
X1.05916 Y0.50714
X1.05816 Y0.50714
X1.05816 Y0.50814
X1.05716 Y0.50814
X1.05716 Y0.50914
X1.05616 Y0.50914
X1.05616 Y0.51014
X1.05516 Y0.51014
X1.05516 Y0.51114
X1.05416 Y0.51114
X1.05416 Y0.51314
X1.05316 Y0.51314
X1.05316 Y0.51414
X1.05216 Y0.51414
X1.05216 Y0.51514
X1.05116 Y0.51514
X1.05116 Y0.51614
X1.04916 Y0.51614
X1.04916 Y0.51714
X1.04716 Y0.51714
X1.04716 Y0.51814
X1.04516 Y0.51814
X1.04516 Y0.51914
X1.04416 Y0.51914
X1.04416 Y0.52014
X1.04216 Y0.52014
X1.04216 Y0.52114
X1.04016 Y0.52114
X1.04016 Y0.52214
X1.03416 Y0.52214
X1.03416 Y0.52314
X1.03316 Y0.52314
X1.03316 Y0.52414
X1.03216 Y0.52414
X1.03216 Y0.52514
X1.03116 Y0.52514
X1.03116 Y0.52614
X1.02816 Y0.52614
X1.02816 Y0.52514
X1.02716 Y0.52514
X1.02716 Y0.52414
X1.02616 Y0.52414
X1.02616 Y0.52314
X1.02516 Y0.52314
X1.02516 Y0.52214
X1.01916 Y0.52214
X1.01916 Y0.52114
X1.01716 Y0.52114
X1.01716 Y0.52014
X1.01516 Y0.52014
X1.01516 Y0.51914
X1.01416 Y0.51914
X1.01416 Y0.51814
X1.01216 Y0.51814
X1.01216 Y0.51714
X1.01016 Y0.51714
X1.01016 Y0.51614
X1.00816 Y0.51614
X1.00816 Y0.51514
X1.00716 Y0.51514
X1.00716 Y0.51414
X1.00616 Y0.51414
X1.00616 Y0.51314
X1.00516 Y0.51314
X1.00516 Y0.51114
X1.00416 Y0.51114
X1.00416 Y0.51014
X1.00316 Y0.51014
X1.00316 Y0.50814
X1.00216 Y0.50814
X1.00216 Y0.50714
X1.00116 Y0.50714
X1.00116 Y0.50514
X1.00016 Y0.50514
X1.00016 Y0.50314
X0.99916 Y0.50314
X0.99916 Y0.50014
X0.99816 Y0.50014
X0.99816 Y0.49914
X0.98516 Y0.49914
X0.98516 Y0.49814
X0.98416 Y0.49814
X0.98416 Y0.49714
X0.95616 Y0.49714
X0.95616 Y0.49814
X0.92616 Y0.49814
X0.92616 Y0.49714
X0.90716 Y0.49714
X0.90716 Y0.49814
X0.90616 Y0.49814
X0.90616 Y0.50214
X0.90516 Y0.50214
X0.90516 Y0.50314
X0.90316 Y0.50314
X0.90316 Y0.50414
X0.90116 Y0.50414
X0.90116 Y0.50514
X0.90016 Y0.50514
X0.90016 Y0.50614
X0.89916 Y0.50614
X0.89916 Y0.50714
X0.89816 Y0.50714
X0.89816 Y0.50814
X0.89616 Y0.50814
X0.89616 Y0.50914
X0.89416 Y0.50914
X0.89416 Y0.51014
X0.89116 Y0.51014
X0.89116 Y0.51114
X0.88716 Y0.51114
X0.88716 Y0.51214
X0.88616 Y0.51214
X0.88616 Y0.51314
X0.88516 Y0.51314
X0.88516 Y0.51414
X0.88416 Y0.51414
X0.88416 Y0.51514
X0.74016 Y0.51514
X0.74016 Y0.51414
X0.73916 Y0.51414
X0.73916 Y0.51314
X0.73816 Y0.51314
X0.73816 Y0.51214
X0.73716 Y0.51214
X0.73716 Y0.51114
X0.73216 Y0.51114
X0.73216 Y0.51014
X0.72916 Y0.51014
X0.72916 Y0.50914
X0.72816 Y0.50914
X0.72816 Y0.50814
X0.72616 Y0.50814
X0.72616 Y0.50714
X0.72516 Y0.50714
X0.72516 Y0.50614
X0.72416 Y0.50614
X0.72416 Y0.50514
X0.72316 Y0.50514
X0.72316 Y0.50414
X0.72216 Y0.50414
X0.72216 Y0.50214
X0.72116 Y0.50214
X0.72116 Y0.50114
X0.72016 Y0.50114
X0.72016 Y0.50014
X0.71816 Y0.50014
X0.71816 Y0.49914
X0.71116 Y0.49914
X0.71116 Y0.50014
X0.71016 Y0.50014
X0.71016 Y0.50514
X0.70916 Y0.50514
X0.70916 Y0.50714
X0.70816 Y0.50714
X0.70816 Y0.50814
X0.70716 Y0.50814
X0.70716 Y0.50914
X0.70616 Y0.50914
X0.70616 Y0.51014
X0.70516 Y0.51014
X0.70516 Y0.51114
X0.70416 Y0.51114
X0.70416 Y0.51314
X0.70316 Y0.51314
X0.70316 Y0.51414
X0.70216 Y0.51414
X0.70216 Y0.51514
X0.70116 Y0.51514
X0.70116 Y0.51614
X0.69916 Y0.51614
X0.69916 Y0.51714
X0.69716 Y0.51714
X0.69716 Y0.51814
X0.69516 Y0.51814
X0.69516 Y0.51914
X0.69416 Y0.51914
X0.69416 Y0.52014
X0.69216 Y0.52014
X0.69216 Y0.52114
X0.69016 Y0.52114
X0.69016 Y0.52214
X0.68416 Y0.52214
X0.68416 Y0.52314
X0.68316 Y0.52314
X0.68316 Y0.52414
X0.68216 Y0.52414
X0.68216 Y0.52514
X0.68116 Y0.52514
X0.68116 Y0.52614
X0.68016 Y0.52614
X0.68016 Y0.52714
X0.67116 Y0.52714
X0.67116 Y0.52614
X0.66816 Y0.52614
X0.66816 Y0.52514
X0.66616 Y0.52514
X0.66616 Y0.52414
X0.66416 Y0.52414
X0.66416 Y0.52314
X0.66216 Y0.52314
X0.66216 Y0.52214
X0.66116 Y0.52214
X0.66116 Y0.52114
X0.65916 Y0.52114
X0.65916 Y0.52014
X0.65816 Y0.52014
X0.65816 Y0.51914
X0.65716 Y0.51914
X0.65716 Y0.51814
X0.65616 Y0.51814
X0.65616 Y0.51714
X0.65516 Y0.51714
X0.65516 Y0.51614
X0.65416 Y0.51614
X0.65416 Y0.51514
X0.65316 Y0.51514
X0.65316 Y0.51414
X0.65216 Y0.51414
X0.65216 Y0.51314
X0.65116 Y0.51314
X0.65116 Y0.51214
X0.65016 Y0.51214
X0.65016 Y0.51114
X0.64916 Y0.51114
X0.64916 Y0.50914
X0.64816 Y0.50914
X0.64816 Y0.50814
X0.64716 Y0.50814
X0.64716 Y0.50614
X0.64616 Y0.50614
X0.64616 Y0.50414
X0.64516 Y0.50414
X0.64516 Y0.50214
X0.64416 Y0.50214
X0.64416 Y0.49814
X0.64316 Y0.49814
X0.64316 Y0.48214
X0.64416 Y0.48214
X0.64416 Y0.47814
X0.64516 Y0.47814
X0.64516 Y0.47714
X0.64616 Y0.47714
X0.64616 Y0.47514
X0.64716 Y0.47514
X0.64716 Y0.47314
X0.64816 Y0.47314
X0.64816 Y0.47214
X0.64916 Y0.47214
X0.64916 Y0.47014
X0.65016 Y0.47014
X0.65016 Y0.46814
X0.65116 Y0.46814
X0.65116 Y0.46714
X0.65216 Y0.46714
X0.65216 Y0.46614
X0.65316 Y0.46614
X0.65316 Y0.46514
X0.65416 Y0.46514
X0.65416 Y0.46314
X0.65516 Y0.46314
X0.65516 Y0.46214
X0.65616 Y0.46214
X0.65616 Y0.46114
X0.65716 Y0.46114
X0.65716 Y0.46014
X0.65916 Y0.46014
X0.65916 Y0.45914
X0.66016 Y0.45914
X0.66016 Y0.45814
X0.66216 Y0.45814
X0.66216 Y0.45714
X0.66416 Y0.45714
X0.66416 Y0.45614
X0.66716 Y0.45614
X0.66716 Y0.45514
X0.67116 Y0.45514
X0.67116 Y0.45314
X0.68116 Y0.45314
X0.68116 Y0.45514
X0.68216 Y0.45514
X0.68216 Y0.45614
X0.68316 Y0.45614
X0.68316 Y0.45714
X0.68416 Y0.45714
X0.68416 Y0.45814
X0.68516 Y0.45814
X0.68516 Y0.45914
X0.69016 Y0.45914
X0.69016 Y0.46014
X0.69416 Y0.46014
X0.69416 Y0.46114
X0.69616 Y0.46114
X0.69616 Y0.46214
X0.69716 Y0.46214
X0.69716 Y0.46314
X0.69916 Y0.46314
X0.69916 Y0.46414
X0.70016 Y0.46414
X0.70016 Y0.46514
X0.70116 Y0.46514
X0.70116 Y0.46614
X0.70216 Y0.46614
X0.70216 Y0.46714
X0.70316 Y0.46714
X0.70316 Y0.46814
X0.70416 Y0.46814
X0.70416 Y0.46914
X0.70516 Y0.46914
X0.70516 Y0.47014
X0.70616 Y0.47014
X0.70616 Y0.47114
X0.70716 Y0.47114
X0.70716 Y0.47314
X0.70816 Y0.47314
X0.70816 Y0.47414
X0.70916 Y0.47414
X0.70916 Y0.47614
X0.71016 Y0.47614
X0.71016 Y0.48114
X0.71116 Y0.48114
X0.71116 Y0.48214
X0.71816 Y0.48214
X0.71816 Y0.48114
X0.71916 Y0.48114
X0.71916 Y0.48014
X0.72016 Y0.48014
X0.72016 Y0.47914
X0.72116 Y0.47914
X0.72116 Y0.47814
X0.72216 Y0.47814
X0.72216 Y0.47714
X0.72316 Y0.47714
X0.72316 Y0.47614
X0.72416 Y0.47614
X0.72416 Y0.47414
X0.72516 Y0.47414
X0.72516 Y0.47314
X0.72616 Y0.47314
X0.72616 Y0.47214
X0.72816 Y0.47214
X0.72816 Y0.47114
X0.73016 Y0.47114
X0.73016 Y0.47014
X0.73216 Y0.47014
X0.73216 Y0.46914
X0.73716 Y0.46914
X0.73716 Y0.46814
X0.73816 Y0.46814
X0.73816 Y0.46714
X0.73916 Y0.46714
X0.73916 Y0.46614
X0.74016 Y0.46614
X0.74016 Y0.46514
X0.88416 Y0.46514
X0.88416 Y0.46614
X0.88516 Y0.46614
X0.88516 Y0.46714
X0.88616 Y0.46714
X0.88616 Y0.46814
X0.88716 Y0.46814
X0.88716 Y0.46914
X0.89116 Y0.46914
X0.89116 Y0.47014
X0.89416 Y0.47014
X0.89416 Y0.47114
X0.89616 Y0.47114
X0.89616 Y0.47214
X0.89816 Y0.47214
X0.89816 Y0.47314
X0.89916 Y0.47314
X0.89916 Y0.47414
X0.90016 Y0.47414
X0.90016 Y0.47514
X0.90116 Y0.47514
X0.90116 Y0.47614
X0.90216 Y0.47614
X0.90216 Y0.47814
X0.90316 Y0.47814
X0.90316 Y0.48014
X0.90416 Y0.48014
X0.90416 Y0.48114
X0.90516 Y0.48114
X0.90516 Y0.48214
X0.91416 Y0.48214
X0.91416 Y0.48114
X0.91716 Y0.48114
X0.91716 Y0.48014
X0.92016 Y0.48014
X0.92016 Y0.47914
X0.92216 Y0.47914
X0.92216 Y0.47814
X0.95816 Y0.47814
X0.95816 Y0.47914
X0.96016 Y0.47914
X0.96016 Y0.48014
X0.96116 Y0.48014
X0.96116 Y0.48114
X0.96216 Y0.48114
X0.96216 Y0.48214
X0.96316 Y0.48214
X0.96316 Y0.48314
X0.96616 Y0.48314
X0.96616 Y0.48414
X0.97316 Y0.48414
X0.97316 Y0.48314
X0.97916 Y0.48314
X0.97916 Y0.48214
X0.99816 Y0.48214
X0.99816 Y0.48114
X0.99916 Y0.48114
X0.99916 Y0.47814
X1.00016 Y0.47814
X1.00016 Y0.47614
X1.00116 Y0.47614
X1.00116 Y0.47414
X1.00216 Y0.47414
X1.00216 Y0.47314
X1.00316 Y0.47314
X1.00316 Y0.47114
X1.00416 Y0.47114
X1.00416 Y0.47014
X1.00516 Y0.47014
X1.00516 Y0.46814
X1.00616 Y0.46814
X1.00616 Y0.46714
X1.00716 Y0.46714
X1.00716 Y0.46614
X1.00816 Y0.46614
X1.00816 Y0.46514
X1.00916 Y0.46514
X1.00916 Y0.46414
X1.01016 Y0.46414
X1.01016 Y0.46314
X1.01216 Y0.46314
X1.01216 Y0.46214
X1.01316 Y0.46214
X1.01316 Y0.46114
X1.01516 Y0.46114
X1.01516 Y0.46014
X1.01916 Y0.46014
X1.01916 Y0.45914
X1.02516 Y0.45914
X1.02516 Y0.45814
X1.02616 Y0.45814
X1.02616 Y0.45714
X1.02716 Y0.45714
X1.02716 Y0.45614
X1.02816 Y0.45614
X1.02816 Y0.45514
X1.02916 Y0.45514
X1.02916 Y0.45314
X1.03116 Y0.45314
X1.03116 Y0.45514
X1.03216 Y0.45514
X1.03216 Y0.45614
X1.03316 Y0.45614
X1.03316 Y0.45714
X1.03416 Y0.45714
X1.03416 Y0.45814
X1.03516 Y0.45814
X1.03516 Y0.45914
X1.04016 Y0.45914
X1.04016 Y0.46014
X1.04416 Y0.46014
X1.04416 Y0.46114
X1.04616 Y0.46114
X1.04616 Y0.46214
X1.04716 Y0.46214
X1.04716 Y0.46314
X1.04916 Y0.46314
X1.04916 Y0.46414
X1.05016 Y0.46414
X1.05016 Y0.46514
X1.05116 Y0.46514
X1.05116 Y0.46614
X1.05216 Y0.46614
X1.05216 Y0.46714
X1.05316 Y0.46714
X1.05316 Y0.46814
X1.05416 Y0.46814
X1.05416 Y0.46914
X1.05516 Y0.46914
X1.05516 Y0.47014
X1.05616 Y0.47014
X1.05616 Y0.47114
X1.05716 Y0.47114
X1.05716 Y0.47314
X1.05816 Y0.47314
X1.05816 Y0.47414
X1.05916 Y0.47414
X1.05916 Y0.47614
X1.06016 Y0.47614
X1.06016 Y0.48114
X1.06116 Y0.48114
X1.06116 Y0.48214
X1.12616 Y0.48214
X1.12616 Y0.48114
X1.12716 Y0.48114
X1.12716 Y0.48014
X1.12816 Y0.48014
X1.12816 Y0.47914
X1.12916 Y0.47914
X1.12916 Y0.47714
X1.13816 Y0.47714
X1.13816 Y0.47814
X1.46916 Y0.47814
X1.46916 Y0.47914
X1.47116 Y0.47914
X1.47116 Y0.48014
X1.47216 Y0.48014
X1.47216 Y0.48114
X1.47316 Y0.48114
X1.47316 Y0.48214
X1.47516 Y0.48214
X1.47516 Y0.48314
X1.47616 Y0.48314
X1.47616 Y0.48414
X1.47716 Y0.48414
X1.47716 Y0.48514
X1.47816 Y0.48514
X1.47816 Y0.48614
X1.47916 Y0.48614
X1.47916 Y0.48714
X1.48016 Y0.48714
X1.48016 Y0.48814
X1.48116 Y0.48814
X1.48116 Y0.48914
X1.48216 Y0.48914
X1.48216 Y0.49014
X1.48316 Y0.49014
X1.48316 Y0.49114
X1.48416 Y0.49114
X1.48416 Y0.49214
X1.48516 Y0.49214
X1.48516 Y0.49314
X1.48616 Y0.49314
X1.48616 Y0.49414
X1.48716 Y0.49414
X1.48716 Y0.49514
X1.48816 Y0.49514
X1.48816 Y0.49614
X1.48916 Y0.49614
X1.48916 Y0.49714
X1.49016 Y0.49714
X1.49016 Y0.49814
X1.49116 Y0.49814
X1.49116 Y0.49914
X1.49216 Y0.49914
X1.49216 Y0.50014
X1.49316 Y0.50014
X1.49316 Y0.50114
X1.49616 Y0.50114
X1.49616 Y0.50014
X1.50016 Y0.50014
X1.50016 Y0.50114
X1.50116 Y0.50114
X1.50116 Y0.50014
X1.52816 Y0.50014
X1.52816 Y0.50114
X1.53416 Y0.50114
X1.53416 Y0.50214
X1.53716 Y0.50214
X1.53716 Y0.50314
X1.53916 Y0.50314
X1.53916 Y0.50414
X1.54116 Y0.50414
X1.54116 Y0.50514
X1.54216 Y0.50514
X1.54216 Y0.50614
X1.54416 Y0.50614
X1.54416 Y0.50714
X1.54516 Y0.50714
X1.54516 Y0.50814
X1.54616 Y0.50814
X1.54616 Y0.50914
X1.54716 Y0.50914
X1.54716 Y0.51014
X1.54816 Y0.51014
X1.54816 Y0.51114
X1.54916 Y0.51114
X1.54916 Y0.51314
X1.55016 Y0.51314
X1.55016 Y0.51414
X1.55116 Y0.51414
X1.55116 Y0.51614
X1.55216 Y0.51614
X1.55216 Y0.51714
X1.55316 Y0.51714
X1.55316 Y0.52214
X1.55416 Y0.52214
X1.55416 Y0.52714
X1.55516 Y0.52714
X1.55516 Y0.55414
X1.55416 Y0.55414
X1.55416 Y0.55914
X1.55316 Y0.55914
X1.55316 Y0.56314
X1.55216 Y0.56314
X1.55216 Y0.56514
X1.55116 Y0.56514
X1.55116 Y0.56614
X1.55016 Y0.56614
X1.55016 Y0.56714
X1.54816 Y0.56714
X1.54816 Y0.56814
X1.54616 Y0.56814
X1.54616 Y0.56914
X1.54316 Y0.56914
X1.54316 Y0.57014
X1.54016 Y0.57014
X1.54016 Y0.57114
X1.53516 Y0.57114
X1.53516 Y0.57214
X1.53116 Y0.57214
X1.53116 Y0.57314
X1.52116 Y0.57314
X1.52116 Y0.57414
X1.50816 Y0.57414
X1.50816 Y0.57314
X1.49816 Y0.57314
X1.49816 Y0.57214
X1.49616 Y0.57214
X1.49616 Y0.57114
X1.49516 Y0.57114
X1.49516 Y0.57014
G04 P0 ( dwell for no time -- G64 should not smooth over this point )
G00 Z0.19685 ( retract )

G00 X0.96116 Y0.53014 ( rapid move to begin. )
G01 Z-0.01969 F1.96850 ( plunge. )
G04 P0 ( dwell for no time -- G64 should not smooth over this point )
X0.96116 Y0.53014
X0.96016 Y0.53014
X0.96016 Y0.52914
X0.95816 Y0.52914
X0.95816 Y0.52814
X0.92216 Y0.52814
X0.92216 Y0.52914
X0.92016 Y0.52914
X0.92016 Y0.53014
X0.91716 Y0.53014
X0.91716 Y0.53114
X0.91416 Y0.53114
X0.91416 Y0.53214
X0.90516 Y0.53214
X0.90516 Y0.53114
X0.90416 Y0.53114
X0.90416 Y0.53014
X0.90316 Y0.53014
X0.90316 Y0.52814
X0.90216 Y0.52814
X0.90216 Y0.52614
X0.90116 Y0.52614
X0.90116 Y0.52514
X0.90016 Y0.52514
X0.90016 Y0.52414
X0.89916 Y0.52414
X0.89916 Y0.52314
X0.89816 Y0.52314
X0.89816 Y0.52214
X0.89616 Y0.52214
X0.89616 Y0.52114
X0.89416 Y0.52114
X0.89416 Y0.52014
X0.89116 Y0.52014
X0.89116 Y0.51914
X0.88716 Y0.51914
X0.88716 Y0.51814
X0.88616 Y0.51814
X0.88616 Y0.51714
X0.88516 Y0.51714
X0.88516 Y0.51614
X0.88416 Y0.51614
X0.88416 Y0.51414
X0.88516 Y0.51414
X0.88516 Y0.51314
X0.88616 Y0.51314
X0.88616 Y0.51214
X0.88716 Y0.51214
X0.88716 Y0.51114
X0.89116 Y0.51114
X0.89116 Y0.51014
X0.89416 Y0.51014
X0.89416 Y0.50914
X0.89616 Y0.50914
X0.89616 Y0.50814
X0.89816 Y0.50814
X0.89816 Y0.50714
X0.89916 Y0.50714
X0.89916 Y0.50614
X0.90016 Y0.50614
X0.90016 Y0.50514
X0.90116 Y0.50514
X0.90116 Y0.50414
X0.90316 Y0.50414
X0.90316 Y0.50314
X0.90516 Y0.50314
X0.90516 Y0.50214
X0.90616 Y0.50214
X0.90616 Y0.49814
X0.90716 Y0.49814
X0.90716 Y0.49714
X0.92616 Y0.49714
X0.92616 Y0.49814
X0.95616 Y0.49814
X0.95616 Y0.49714
X0.98416 Y0.49714
X0.98416 Y0.49814
X0.98516 Y0.49814
X0.98516 Y0.49914
X0.99816 Y0.49914
X0.99816 Y0.50014
X0.99916 Y0.50014
X0.99916 Y0.50314
X1.00016 Y0.50314
X1.00016 Y0.50514
X1.00116 Y0.50514
X1.00116 Y0.50714
X1.00216 Y0.50714
X1.00216 Y0.50814
X1.00316 Y0.50814
X1.00316 Y0.51014
X1.00416 Y0.51014
X1.00416 Y0.51114
X1.00516 Y0.51114
X1.00516 Y0.51314
X1.00616 Y0.51314
X1.00616 Y0.51414
X1.00716 Y0.51414
X1.00716 Y0.51514
X1.00816 Y0.51514
X1.00816 Y0.51614
X1.01016 Y0.51614
X1.01016 Y0.51714
X1.01216 Y0.51714
X1.01216 Y0.51814
X1.01416 Y0.51814
X1.01416 Y0.51914
X1.01516 Y0.51914
X1.01516 Y0.52014
X1.01716 Y0.52014
X1.01716 Y0.52114
X1.01916 Y0.52114
X1.01916 Y0.52214
X1.02516 Y0.52214
X1.02516 Y0.52314
X1.02616 Y0.52314
X1.02616 Y0.52414
X1.02716 Y0.52414
X1.02716 Y0.52514
X1.02816 Y0.52514
X1.02816 Y0.52614
X1.03016 Y0.52614
X1.03016 Y0.52914
X1.02816 Y0.52914
X1.02816 Y0.53014
X1.02716 Y0.53014
X1.02716 Y0.53114
X1.02616 Y0.53114
X1.02616 Y0.53214
X0.97916 Y0.53214
X0.97916 Y0.53314
X0.97316 Y0.53314
X0.97316 Y0.53414
X0.96616 Y0.53414
X0.96616 Y0.53314
X0.96316 Y0.53314
X0.96316 Y0.53214
X0.96216 Y0.53214
X0.96216 Y0.53114
X0.96116 Y0.53114
X0.96116 Y0.53014
G04 P0 ( dwell for no time -- G64 should not smooth over this point )
G00 Z0.19685 ( retract )

G00 X1.03016 Y0.52714 ( rapid move to begin. )
G01 Z-0.01969 F1.96850 ( plunge. )
G04 P0 ( dwell for no time -- G64 should not smooth over this point )
X1.03016 Y0.52714
X1.03016 Y0.52614
X1.03116 Y0.52614
X1.03116 Y0.52514
X1.03216 Y0.52514
X1.03216 Y0.52414
X1.03316 Y0.52414
X1.03316 Y0.52314
X1.03416 Y0.52314
X1.03416 Y0.52214
X1.04016 Y0.52214
X1.04016 Y0.52114
X1.04216 Y0.52114
X1.04216 Y0.52014
X1.04416 Y0.52014
X1.04416 Y0.51914
X1.04516 Y0.51914
X1.04516 Y0.51814
X1.04716 Y0.51814
X1.04716 Y0.51714
X1.04916 Y0.51714
X1.04916 Y0.51614
X1.05116 Y0.51614
X1.05116 Y0.51514
X1.05216 Y0.51514
X1.05216 Y0.51414
X1.05316 Y0.51414
X1.05316 Y0.51314
X1.05416 Y0.51314
X1.05416 Y0.51114
X1.05516 Y0.51114
X1.05516 Y0.51014
X1.05616 Y0.51014
X1.05616 Y0.50914
X1.05716 Y0.50914
X1.05716 Y0.50814
X1.05816 Y0.50814
X1.05816 Y0.50714
X1.05916 Y0.50714
X1.05916 Y0.50514
X1.06016 Y0.50514
X1.06016 Y0.50014
X1.06116 Y0.50014
X1.06116 Y0.49914
X1.12616 Y0.49914
X1.12616 Y0.50014
X1.12716 Y0.50014
X1.12716 Y0.50114
X1.12816 Y0.50114
X1.12816 Y0.50214
X1.12916 Y0.50214
X1.12916 Y0.50514
X1.12816 Y0.50514
X1.12816 Y0.50614
X1.12716 Y0.50614
X1.12716 Y0.50714
X1.12616 Y0.50714
X1.12616 Y0.50814
X1.12516 Y0.50814
X1.12516 Y0.50914
X1.11916 Y0.50914
X1.11916 Y0.51014
X1.11516 Y0.51014
X1.11516 Y0.51114
X1.11316 Y0.51114
X1.11316 Y0.51214
X1.11216 Y0.51214
X1.11216 Y0.51314
X1.11016 Y0.51314
X1.11016 Y0.51414
X1.10916 Y0.51414
X1.10916 Y0.51514
X1.10816 Y0.51514
X1.10816 Y0.51614
X1.10716 Y0.51614
X1.10716 Y0.51714
X1.10616 Y0.51714
X1.10616 Y0.51814
X1.10516 Y0.51814
X1.10516 Y0.52014
X1.10416 Y0.52014
X1.10416 Y0.52114
X1.10316 Y0.52114
X1.10316 Y0.52314
X1.10216 Y0.52314
X1.10216 Y0.52414
X1.10116 Y0.52414
X1.10116 Y0.52614
X1.10016 Y0.52614
X1.10016 Y0.52814
X1.09916 Y0.52814
X1.09916 Y0.53114
X1.09816 Y0.53114
X1.09816 Y0.53214
X1.03316 Y0.53214
X1.03316 Y0.53114
X1.03216 Y0.53114
X1.03216 Y0.53014
X1.03116 Y0.53014
X1.03116 Y0.52914
X1.03016 Y0.52914
X1.03016 Y0.52714
G04 P0 ( dwell for no time -- G64 should not smooth over this point )
G00 Z0.19685 ( retract )

G00 X0.68016 Y0.52714 ( rapid move to begin. )
G01 Z-0.01969 F1.96850 ( plunge. )
G04 P0 ( dwell for no time -- G64 should not smooth over this point )
X0.68016 Y0.52714
X0.68016 Y0.52614
X0.68116 Y0.52614
X0.68116 Y0.52514
X0.68216 Y0.52514
X0.68216 Y0.52414
X0.68316 Y0.52414
X0.68316 Y0.52314
X0.68416 Y0.52314
X0.68416 Y0.52214
X0.69016 Y0.52214
X0.69016 Y0.52114
X0.69216 Y0.52114
X0.69216 Y0.52014
X0.69416 Y0.52014
X0.69416 Y0.51914
X0.69516 Y0.51914
X0.69516 Y0.51814
X0.69716 Y0.51814
X0.69716 Y0.51714
X0.69916 Y0.51714
X0.69916 Y0.51614
X0.70116 Y0.51614
X0.70116 Y0.51514
X0.70216 Y0.51514
X0.70216 Y0.51414
X0.70316 Y0.51414
X0.70316 Y0.51314
X0.70416 Y0.51314
X0.70416 Y0.51114
X0.70516 Y0.51114
X0.70516 Y0.51014
X0.70616 Y0.51014
X0.70616 Y0.50914
X0.70716 Y0.50914
X0.70716 Y0.50814
X0.70816 Y0.50814
X0.70816 Y0.50714
X0.70916 Y0.50714
X0.70916 Y0.50514
X0.71016 Y0.50514
X0.71016 Y0.50014
X0.71116 Y0.50014
X0.71116 Y0.49914
X0.71816 Y0.49914
X0.71816 Y0.50014
X0.72016 Y0.50014
X0.72016 Y0.50114
X0.72116 Y0.50114
X0.72116 Y0.50214
X0.72216 Y0.50214
X0.72216 Y0.50414
X0.72316 Y0.50414
X0.72316 Y0.50514
X0.72416 Y0.50514
X0.72416 Y0.50614
X0.72516 Y0.50614
X0.72516 Y0.50714
X0.72616 Y0.50714
X0.72616 Y0.50814
X0.72816 Y0.50814
X0.72816 Y0.50914
X0.72916 Y0.50914
X0.72916 Y0.51014
X0.73216 Y0.51014
X0.73216 Y0.51114
X0.73716 Y0.51114
X0.73716 Y0.51214
X0.73816 Y0.51214
X0.73816 Y0.51314
X0.73916 Y0.51314
X0.73916 Y0.51414
X0.74016 Y0.51414
X0.74016 Y0.51614
X0.73916 Y0.51614
X0.73916 Y0.51714
X0.73816 Y0.51714
X0.73816 Y0.51814
X0.73716 Y0.51814
X0.73716 Y0.51914
X0.73216 Y0.51914
X0.73216 Y0.52014
X0.73016 Y0.52014
X0.73016 Y0.52114
X0.72816 Y0.52114
X0.72816 Y0.52214
X0.72616 Y0.52214
X0.72616 Y0.52314
X0.72516 Y0.52314
X0.72516 Y0.52414
X0.72416 Y0.52414
X0.72416 Y0.52614
X0.72316 Y0.52614
X0.72316 Y0.52714
X0.72216 Y0.52714
X0.72216 Y0.52814
X0.72116 Y0.52814
X0.72116 Y0.52914
X0.72016 Y0.52914
X0.72016 Y0.53014
X0.71916 Y0.53014
X0.71916 Y0.53114
X0.71816 Y0.53114
X0.71816 Y0.53214
X0.68316 Y0.53214
X0.68316 Y0.53114
X0.68216 Y0.53114
X0.68216 Y0.53014
X0.68116 Y0.53014
X0.68116 Y0.52914
X0.68016 Y0.52914
X0.68016 Y0.52714
G04 P0 ( dwell for no time -- G64 should not smooth over this point )
G00 Z0.19685 ( retract )

G00 X1.13316 Y0.50614 ( rapid move to begin. )
G01 Z-0.01969 F1.96850 ( plunge. )
G04 P0 ( dwell for no time -- G64 should not smooth over this point )
X1.13316 Y0.50614
X1.13216 Y0.50614
X1.13216 Y0.50514
X1.13116 Y0.50514
X1.13116 Y0.50214
X1.13216 Y0.50214
X1.13216 Y0.50114
X1.13316 Y0.50114
X1.13316 Y0.50014
X1.13416 Y0.50014
X1.13416 Y0.49914
X1.15316 Y0.49914
X1.15316 Y0.50214
X1.15216 Y0.50214
X1.15216 Y0.50514
X1.15116 Y0.50514
X1.15116 Y0.50814
X1.15016 Y0.50814
X1.15016 Y0.50914
X1.14916 Y0.50914
X1.14916 Y0.51014
X1.14016 Y0.51014
X1.14016 Y0.50914
X1.13516 Y0.50914
X1.13516 Y0.50814
X1.13416 Y0.50814
X1.13416 Y0.50714
X1.13316 Y0.50714
X1.13316 Y0.50614
G04 P0 ( dwell for no time -- G64 should not smooth over this point )
G00 Z0.19685 ( retract )

G00 X1.48116 Y0.48314 ( rapid move to begin. )
G01 Z-0.01969 F1.96850 ( plunge. )
G04 P0 ( dwell for no time -- G64 should not smooth over this point )
X1.48116 Y0.48314
X1.48016 Y0.48314
X1.48016 Y0.48214
X1.47916 Y0.48214
X1.47916 Y0.48114
X1.47816 Y0.48114
X1.47816 Y0.48014
X1.47716 Y0.48014
X1.47716 Y0.47914
X1.47616 Y0.47914
X1.47616 Y0.47814
X1.47516 Y0.47814
X1.47516 Y0.47714
X1.47416 Y0.47714
X1.47416 Y0.47614
X1.47316 Y0.47614
X1.47316 Y0.47514
X1.47216 Y0.47514
X1.47216 Y0.47414
X1.47116 Y0.47414
X1.47116 Y0.47314
X1.47016 Y0.47314
X1.47016 Y0.47214
X1.46916 Y0.47214
X1.46916 Y0.47114
X1.46816 Y0.47114
X1.46816 Y0.47014
X1.46716 Y0.47014
X1.46716 Y0.46914
X1.46616 Y0.46914
X1.46616 Y0.46814
X1.46516 Y0.46814
X1.46516 Y0.46714
X1.46416 Y0.46714
X1.46416 Y0.46614
X1.46316 Y0.46614
X1.46316 Y0.46514
X1.46216 Y0.46514
X1.46216 Y0.46414
X1.46116 Y0.46414
X1.46116 Y0.46314
X1.46016 Y0.46314
X1.46016 Y0.46214
X1.45916 Y0.46214
X1.45916 Y0.46114
X1.45816 Y0.46114
X1.45816 Y0.46014
X1.45716 Y0.46014
X1.45716 Y0.45914
X1.45616 Y0.45914
X1.45616 Y0.45814
X1.45516 Y0.45814
X1.45516 Y0.45714
X1.45416 Y0.45714
X1.45416 Y0.45614
X1.45316 Y0.45614
X1.45316 Y0.45514
X1.45216 Y0.45514
X1.45216 Y0.45414
X1.45116 Y0.45414
X1.45116 Y0.45314
X1.16516 Y0.45314
X1.16516 Y0.45414
X1.16416 Y0.45414
X1.16416 Y0.45614
X1.16316 Y0.45614
X1.16316 Y0.45814
X1.16216 Y0.45814
X1.16216 Y0.46014
X1.16116 Y0.46014
X1.16116 Y0.46114
X1.16016 Y0.46114
X1.16016 Y0.46214
X1.15916 Y0.46214
X1.15916 Y0.46314
X1.15816 Y0.46314
X1.15816 Y0.46414
X1.15716 Y0.46414
X1.15716 Y0.46514
X1.15616 Y0.46514
X1.15616 Y0.46614
X1.15516 Y0.46614
X1.15516 Y0.46714
X1.15416 Y0.46714
X1.15416 Y0.46814
X1.15316 Y0.46814
X1.15316 Y0.46914
X1.15216 Y0.46914
X1.15216 Y0.47014
X1.15016 Y0.47014
X1.15016 Y0.47114
X1.14816 Y0.47114
X1.14816 Y0.47214
X1.14716 Y0.47214
X1.14716 Y0.47314
X1.14516 Y0.47314
X1.14516 Y0.47414
X1.14316 Y0.47414
X1.14316 Y0.47514
X1.14216 Y0.47514
X1.14216 Y0.47614
X1.13816 Y0.47614
X1.13816 Y0.47714
X1.12916 Y0.47714
X1.12916 Y0.47614
X1.12816 Y0.47614
X1.12816 Y0.47514
X1.12716 Y0.47514
X1.12716 Y0.47414
X1.12616 Y0.47414
X1.12616 Y0.47314
X1.12516 Y0.47314
X1.12516 Y0.47214
X1.11916 Y0.47214
X1.11916 Y0.47114
X1.11716 Y0.47114
X1.11716 Y0.47014
X1.11516 Y0.47014
X1.11516 Y0.46914
X1.11416 Y0.46914
X1.11416 Y0.46814
X1.11216 Y0.46814
X1.11216 Y0.46714
X1.11016 Y0.46714
X1.11016 Y0.46614
X1.10816 Y0.46614
X1.10816 Y0.46514
X1.10716 Y0.46514
X1.10716 Y0.46414
X1.10616 Y0.46414
X1.10616 Y0.46314
X1.10516 Y0.46314
X1.10516 Y0.46114
X1.10416 Y0.46114
X1.10416 Y0.46014
X1.10316 Y0.46014
X1.10316 Y0.45814
X1.10216 Y0.45814
X1.10216 Y0.45714
X1.10116 Y0.45714
X1.10116 Y0.45514
X1.10016 Y0.45514
X1.10016 Y0.45314
X1.09916 Y0.45314
X1.09916 Y0.45014
X1.09816 Y0.45014
X1.09816 Y0.44914
X1.03416 Y0.44914
X1.03416 Y0.45014
X1.03316 Y0.45014
X1.03316 Y0.45114
X1.03216 Y0.45114
X1.03216 Y0.45214
X1.03116 Y0.45214
X1.03116 Y0.45314
X1.02916 Y0.45314
X1.02916 Y0.45214
X1.02816 Y0.45214
X1.02816 Y0.45114
X1.02716 Y0.45114
X1.02716 Y0.45014
X1.02616 Y0.45014
X1.02616 Y0.44914
X0.98516 Y0.44914
X0.98516 Y0.44814
X0.98416 Y0.44814
X0.98416 Y0.44714
X0.95616 Y0.44714
X0.95616 Y0.44814
X0.92616 Y0.44814
X0.92616 Y0.44714
X0.90716 Y0.44714
X0.90716 Y0.44814
X0.90616 Y0.44814
X0.90616 Y0.45214
X0.90516 Y0.45214
X0.90516 Y0.45314
X0.90316 Y0.45314
X0.90316 Y0.45414
X0.90116 Y0.45414
X0.90116 Y0.45514
X0.90016 Y0.45514
X0.90016 Y0.45614
X0.89916 Y0.45614
X0.89916 Y0.45714
X0.89816 Y0.45714
X0.89816 Y0.45814
X0.89616 Y0.45814
X0.89616 Y0.45914
X0.89416 Y0.45914
X0.89416 Y0.46014
X0.89116 Y0.46014
X0.89116 Y0.46114
X0.88716 Y0.46114
X0.88716 Y0.46214
X0.88616 Y0.46214
X0.88616 Y0.46314
X0.88516 Y0.46314
X0.88516 Y0.46414
X0.88416 Y0.46414
X0.88416 Y0.46514
X0.74016 Y0.46514
X0.74016 Y0.46414
X0.73916 Y0.46414
X0.73916 Y0.46314
X0.73816 Y0.46314
X0.73816 Y0.46214
X0.73716 Y0.46214
X0.73716 Y0.46114
X0.73216 Y0.46114
X0.73216 Y0.46014
X0.72916 Y0.46014
X0.72916 Y0.45914
X0.72816 Y0.45914
X0.72816 Y0.45814
X0.72616 Y0.45814
X0.72616 Y0.45714
X0.72516 Y0.45714
X0.72516 Y0.45614
X0.72416 Y0.45614
X0.72416 Y0.45514
X0.72316 Y0.45514
X0.72316 Y0.45414
X0.72216 Y0.45414
X0.72216 Y0.45214
X0.72116 Y0.45214
X0.72116 Y0.45114
X0.72016 Y0.45114
X0.72016 Y0.45014
X0.71816 Y0.45014
X0.71816 Y0.44914
X0.68416 Y0.44914
X0.68416 Y0.45014
X0.68316 Y0.45014
X0.68316 Y0.45114
X0.68216 Y0.45114
X0.68216 Y0.45214
X0.68116 Y0.45214
X0.68116 Y0.45314
X0.61516 Y0.45314
X0.61516 Y0.45414
X0.61416 Y0.45414
X0.61416 Y0.45614
X0.61316 Y0.45614
X0.61316 Y0.45814
X0.61216 Y0.45814
X0.61216 Y0.46014
X0.61116 Y0.46014
X0.61116 Y0.46114
X0.61016 Y0.46114
X0.61016 Y0.46214
X0.60916 Y0.46214
X0.60916 Y0.46314
X0.60816 Y0.46314
X0.60816 Y0.46414
X0.60716 Y0.46414
X0.60716 Y0.46514
X0.60616 Y0.46514
X0.60616 Y0.46614
X0.60516 Y0.46614
X0.60516 Y0.46714
X0.60416 Y0.46714
X0.60416 Y0.46814
X0.60316 Y0.46814
X0.60316 Y0.46914
X0.60216 Y0.46914
X0.60216 Y0.47014
X0.60016 Y0.47014
X0.60016 Y0.47114
X0.59816 Y0.47114
X0.59816 Y0.47214
X0.59716 Y0.47214
X0.59716 Y0.47314
X0.59516 Y0.47314
X0.59516 Y0.47414
X0.59316 Y0.47414
X0.59316 Y0.47514
X0.59216 Y0.47514
X0.59216 Y0.47614
X0.58816 Y0.47614
X0.58816 Y0.47714
X0.57216 Y0.47714
X0.57216 Y0.47614
X0.56816 Y0.47614
X0.56816 Y0.47514
X0.56616 Y0.47514
X0.56616 Y0.47414
X0.56416 Y0.47414
X0.56416 Y0.47314
X0.56216 Y0.47314
X0.56216 Y0.47214
X0.56116 Y0.47214
X0.56116 Y0.47114
X0.55916 Y0.47114
X0.55916 Y0.47014
X0.55816 Y0.47014
X0.55816 Y0.46914
X0.55716 Y0.46914
X0.55716 Y0.46814
X0.55616 Y0.46814
X0.55616 Y0.46714
X0.55516 Y0.46714
X0.55516 Y0.46614
X0.55416 Y0.46614
X0.55416 Y0.46514
X0.55316 Y0.46514
X0.55316 Y0.46414
X0.55216 Y0.46414
X0.55216 Y0.46314
X0.55116 Y0.46314
X0.55116 Y0.46214
X0.55016 Y0.46214
X0.55016 Y0.46114
X0.54916 Y0.46114
X0.54916 Y0.45914
X0.54816 Y0.45914
X0.54816 Y0.45814
X0.54716 Y0.45814
X0.54716 Y0.45614
X0.54616 Y0.45614
X0.54616 Y0.45414
X0.54516 Y0.45414
X0.54516 Y0.45214
X0.54416 Y0.45214
X0.54416 Y0.44814
X0.54316 Y0.44814
X0.54316 Y0.43214
X0.54416 Y0.43214
X0.54416 Y0.42814
X0.54516 Y0.42814
X0.54516 Y0.42714
X0.54616 Y0.42714
X0.54616 Y0.42514
X0.54716 Y0.42514
X0.54716 Y0.42314
X0.54816 Y0.42314
X0.54816 Y0.42214
X0.54916 Y0.42214
X0.54916 Y0.42014
X0.55016 Y0.42014
X0.55016 Y0.41814
X0.55116 Y0.41814
X0.55116 Y0.41714
X0.55216 Y0.41714
X0.55216 Y0.41614
X0.55316 Y0.41614
X0.55316 Y0.41514
X0.55416 Y0.41514
X0.55416 Y0.41314
X0.55516 Y0.41314
X0.55516 Y0.41214
X0.55616 Y0.41214
X0.55616 Y0.41114
X0.55716 Y0.41114
X0.55716 Y0.41014
X0.55916 Y0.41014
X0.55916 Y0.40914
X0.56016 Y0.40914
X0.56016 Y0.40814
X0.56216 Y0.40814
X0.56216 Y0.40714
X0.56416 Y0.40714
X0.56416 Y0.40614
X0.56716 Y0.40614
X0.56716 Y0.40514
X0.57116 Y0.40514
X0.57116 Y0.40414
X0.57716 Y0.40414
X0.57716 Y0.40314
X0.58216 Y0.40314
X0.58216 Y0.40414
X0.58816 Y0.40414
X0.58816 Y0.40514
X0.59216 Y0.40514
X0.59216 Y0.40614
X0.59516 Y0.40614
X0.59516 Y0.40714
X0.59716 Y0.40714
X0.59716 Y0.40814
X0.59916 Y0.40814
X0.59916 Y0.40914
X0.60016 Y0.40914
X0.60016 Y0.41014
X0.60216 Y0.41014
X0.60216 Y0.41114
X0.60316 Y0.41114
X0.60316 Y0.41214
X0.60416 Y0.41214
X0.60416 Y0.41314
X0.60516 Y0.41314
X0.60516 Y0.41414
X0.60616 Y0.41414
X0.60616 Y0.41514
X0.60716 Y0.41514
X0.60716 Y0.41614
X0.60816 Y0.41614
X0.60816 Y0.41714
X0.60916 Y0.41714
X0.60916 Y0.41814
X0.61016 Y0.41814
X0.61016 Y0.42014
X0.61116 Y0.42014
X0.61116 Y0.42114
X0.61216 Y0.42114
X0.61216 Y0.42314
X0.61316 Y0.42314
X0.61316 Y0.42514
X0.61416 Y0.42514
X0.61416 Y0.42714
X0.61516 Y0.42714
X0.61516 Y0.42814
X0.67116 Y0.42814
X0.67116 Y0.42714
X0.68016 Y0.42714
X0.68016 Y0.42914
X0.68116 Y0.42914
X0.68116 Y0.43014
X0.68216 Y0.43014
X0.68216 Y0.43114
X0.68316 Y0.43114
X0.68316 Y0.43214
X0.71816 Y0.43214
X0.71816 Y0.43114
X0.71916 Y0.43114
X0.71916 Y0.43014
X0.72016 Y0.43014
X0.72016 Y0.42914
X0.72116 Y0.42914
X0.72116 Y0.42814
X0.72216 Y0.42814
X0.72216 Y0.42714
X0.72316 Y0.42714
X0.72316 Y0.42614
X0.72416 Y0.42614
X0.72416 Y0.42414
X0.72516 Y0.42414
X0.72516 Y0.42314
X0.72616 Y0.42314
X0.72616 Y0.42214
X0.72816 Y0.42214
X0.72816 Y0.42114
X0.73016 Y0.42114
X0.73016 Y0.42014
X0.73216 Y0.42014
X0.73216 Y0.41914
X0.73716 Y0.41914
X0.73716 Y0.41814
X0.73816 Y0.41814
X0.73816 Y0.41714
X0.73916 Y0.41714
X0.73916 Y0.41614
X0.74016 Y0.41614
X0.74016 Y0.41514
X0.88416 Y0.41514
X0.88416 Y0.41614
X0.88516 Y0.41614
X0.88516 Y0.41714
X0.88616 Y0.41714
X0.88616 Y0.41814
X0.88716 Y0.41814
X0.88716 Y0.41914
X0.89116 Y0.41914
X0.89116 Y0.42014
X0.89416 Y0.42014
X0.89416 Y0.42114
X0.89616 Y0.42114
X0.89616 Y0.42214
X0.89816 Y0.42214
X0.89816 Y0.42314
X0.89916 Y0.42314
X0.89916 Y0.42414
X0.90016 Y0.42414
X0.90016 Y0.42514
X0.90116 Y0.42514
X0.90116 Y0.42614
X0.90216 Y0.42614
X0.90216 Y0.42814
X0.90316 Y0.42814
X0.90316 Y0.43014
X0.90416 Y0.43014
X0.90416 Y0.43114
X0.90516 Y0.43114
X0.90516 Y0.43214
X0.91416 Y0.43214
X0.91416 Y0.43114
X0.91716 Y0.43114
X0.91716 Y0.43014
X0.92016 Y0.43014
X0.92016 Y0.42914
X0.92216 Y0.42914
X0.92216 Y0.42814
X0.95216 Y0.42814
X0.95216 Y0.42714
X0.95616 Y0.42714
X0.95616 Y0.42814
X0.95816 Y0.42814
X0.95816 Y0.42914
X0.96016 Y0.42914
X0.96016 Y0.43014
X0.96216 Y0.43014
X0.96216 Y0.43114
X0.96416 Y0.43114
X0.96416 Y0.43214
X0.96716 Y0.43214
X0.96716 Y0.43314
X0.97916 Y0.43314
X0.97916 Y0.43214
X0.98416 Y0.43214
X0.98416 Y0.43114
X0.98616 Y0.43114
X0.98616 Y0.43014
X0.99316 Y0.43014
X0.99316 Y0.43114
X0.99616 Y0.43114
X0.99616 Y0.43214
X0.99916 Y0.43214
X0.99916 Y0.43314
X1.00316 Y0.43314
X1.00316 Y0.43414
X1.06716 Y0.43414
X1.06716 Y0.43314
X1.08416 Y0.43314
X1.08416 Y0.43214
X1.08916 Y0.43214
X1.08916 Y0.43114
X1.09116 Y0.43114
X1.09116 Y0.43014
X1.09416 Y0.43014
X1.09416 Y0.42814
X1.09516 Y0.42814
X1.09516 Y0.42514
X1.09716 Y0.42514
X1.09716 Y0.42414
X1.09916 Y0.42414
X1.09916 Y0.42314
X1.10116 Y0.42314
X1.10116 Y0.42214
X1.10316 Y0.42214
X1.10316 Y0.42114
X1.10416 Y0.42114
X1.10416 Y0.42014
X1.10516 Y0.42014
X1.10516 Y0.41814
X1.10616 Y0.41814
X1.10616 Y0.41714
X1.10716 Y0.41714
X1.10716 Y0.41614
X1.10816 Y0.41614
X1.10816 Y0.41514
X1.10916 Y0.41514
X1.10916 Y0.41414
X1.11016 Y0.41414
X1.11016 Y0.41314
X1.11216 Y0.41314
X1.11216 Y0.41214
X1.11316 Y0.41214
X1.11316 Y0.41114
X1.11516 Y0.41114
X1.11516 Y0.41014
X1.11916 Y0.41014
X1.11916 Y0.40914
X1.12516 Y0.40914
X1.12516 Y0.40814
X1.12616 Y0.40814
X1.12616 Y0.40714
X1.12716 Y0.40714
X1.12716 Y0.40614
X1.12816 Y0.40614
X1.12816 Y0.40514
X1.13116 Y0.40514
X1.13116 Y0.40614
X1.13216 Y0.40614
X1.13216 Y0.40714
X1.13316 Y0.40714
X1.13316 Y0.40814
X1.13416 Y0.40814
X1.13416 Y0.40914
X1.14816 Y0.40914
X1.14816 Y0.41014
X1.14916 Y0.41014
X1.14916 Y0.41114
X1.15016 Y0.41114
X1.15016 Y0.41214
X1.15116 Y0.41214
X1.15116 Y0.41314
X1.15316 Y0.41314
X1.15316 Y0.41414
X1.15416 Y0.41414
X1.15416 Y0.41514
X1.15516 Y0.41514
X1.15516 Y0.41614
X1.15616 Y0.41614
X1.15616 Y0.41814
X1.15716 Y0.41814
X1.15716 Y0.41914
X1.15816 Y0.41914
X1.15816 Y0.42014
X1.15916 Y0.42014
X1.15916 Y0.42114
X1.16016 Y0.42114
X1.16016 Y0.42214
X1.16116 Y0.42214
X1.16116 Y0.42414
X1.16216 Y0.42414
X1.16216 Y0.42614
X1.16316 Y0.42614
X1.16316 Y0.42814
X1.16416 Y0.42814
X1.16416 Y0.43014
X1.16716 Y0.43014
X1.16716 Y0.43114
X1.17016 Y0.43114
X1.17016 Y0.43214
X1.17416 Y0.43214
X1.17416 Y0.43314
X1.46316 Y0.43314
X1.46316 Y0.43414
X1.46616 Y0.43414
X1.46616 Y0.43514
X1.46916 Y0.43514
X1.46916 Y0.43614
X1.47216 Y0.43614
X1.47216 Y0.43714
X1.47516 Y0.43714
X1.47516 Y0.43814
X1.47616 Y0.43814
X1.47616 Y0.44114
X1.47716 Y0.44114
X1.47716 Y0.44414
X1.47816 Y0.44414
X1.47816 Y0.44714
X1.47916 Y0.44714
X1.47916 Y0.44914
X1.48016 Y0.44914
X1.48016 Y0.45114
X1.48116 Y0.45114
X1.48116 Y0.45314
X1.48216 Y0.45314
X1.48216 Y0.45514
X1.48316 Y0.45514
X1.48316 Y0.45714
X1.48416 Y0.45714
X1.48416 Y0.45814
X1.48516 Y0.45814
X1.48516 Y0.46014
X1.48616 Y0.46014
X1.48616 Y0.46114
X1.48716 Y0.46114
X1.48716 Y0.46214
X1.48816 Y0.46214
X1.48816 Y0.46314
X1.48916 Y0.46314
X1.48916 Y0.46414
X1.49016 Y0.46414
X1.49016 Y0.46514
X1.49116 Y0.46514
X1.49116 Y0.46614
X1.49216 Y0.46614
X1.49216 Y0.46714
X1.49316 Y0.46714
X1.49316 Y0.46814
X1.49416 Y0.46814
X1.49416 Y0.46914
X1.49616 Y0.46914
X1.49616 Y0.47014
X1.49716 Y0.47014
X1.49716 Y0.47114
X1.49916 Y0.47114
X1.49916 Y0.47214
X1.50016 Y0.47214
X1.50016 Y0.47314
X1.50816 Y0.47314
X1.50816 Y0.47414
X1.52116 Y0.47414
X1.52116 Y0.47314
X1.53116 Y0.47314
X1.53116 Y0.47214
X1.53516 Y0.47214
X1.53516 Y0.47114
X1.54016 Y0.47114
X1.54016 Y0.47014
X1.54316 Y0.47014
X1.54316 Y0.46914
X1.54616 Y0.46914
X1.54616 Y0.46814
X1.54816 Y0.46814
X1.54816 Y0.46714
X1.55016 Y0.46714
X1.55016 Y0.46814
X1.57016 Y0.46814
X1.57016 Y0.46714
X1.57116 Y0.46714
X1.57116 Y0.46614
X1.57216 Y0.46614
X1.57216 Y0.46514
X1.57316 Y0.46514
X1.57316 Y0.46414
X1.57416 Y0.46414
X1.57416 Y0.46314
X1.57516 Y0.46314
X1.57516 Y0.46214
X1.57616 Y0.46214
X1.57616 Y0.46014
X1.57516 Y0.46014
X1.57516 Y0.45914
X1.57416 Y0.45914
X1.57416 Y0.45514
X1.57516 Y0.45514
X1.57516 Y0.45414
X1.57416 Y0.45414
X1.57416 Y0.42714
X1.57516 Y0.42714
X1.57516 Y0.42214
X1.57616 Y0.42214
X1.57616 Y0.41814
X1.57716 Y0.41814
X1.57716 Y0.41614
X1.57816 Y0.41614
X1.57816 Y0.41514
X1.57916 Y0.41514
X1.57916 Y0.41314
X1.58016 Y0.41314
X1.58016 Y0.41214
X1.58116 Y0.41214
X1.58116 Y0.41114
X1.58216 Y0.41114
X1.58216 Y0.41014
X1.58316 Y0.41014
X1.58316 Y0.40914
X1.58416 Y0.40914
X1.58416 Y0.40814
X1.58516 Y0.40814
X1.58516 Y0.40714
X1.58616 Y0.40714
X1.58616 Y0.40614
X1.58716 Y0.40614
X1.58716 Y0.40514
X1.58816 Y0.40514
X1.58816 Y0.40414
X1.59016 Y0.40414
X1.59016 Y0.40314
X1.59216 Y0.40314
X1.59216 Y0.40214
X1.59516 Y0.40214
X1.59516 Y0.40114
X1.60116 Y0.40114
X1.60116 Y0.40014
X1.62816 Y0.40014
X1.62816 Y0.40114
X1.63416 Y0.40114
X1.63416 Y0.40214
X1.63716 Y0.40214
X1.63716 Y0.40314
X1.63916 Y0.40314
X1.63916 Y0.40414
X1.64116 Y0.40414
X1.64116 Y0.40514
X1.64216 Y0.40514
X1.64216 Y0.40614
X1.64416 Y0.40614
X1.64416 Y0.40714
X1.64516 Y0.40714
X1.64516 Y0.40814
X1.64616 Y0.40814
X1.64616 Y0.40914
X1.64716 Y0.40914
X1.64716 Y0.41014
X1.64816 Y0.41014
X1.64816 Y0.41114
X1.64916 Y0.41114
X1.64916 Y0.41314
X1.65016 Y0.41314
X1.65016 Y0.41414
X1.65116 Y0.41414
X1.65116 Y0.41614
X1.65216 Y0.41614
X1.65216 Y0.41714
X1.65316 Y0.41714
X1.65316 Y0.42214
X1.65416 Y0.42214
X1.65416 Y0.42714
X1.65516 Y0.42714
X1.65516 Y0.45414
X1.65416 Y0.45414
X1.65416 Y0.45914
X1.65316 Y0.45914
X1.65316 Y0.46314
X1.65216 Y0.46314
X1.65216 Y0.46514
X1.65116 Y0.46514
X1.65116 Y0.46714
X1.65016 Y0.46714
X1.65016 Y0.46814
X1.64916 Y0.46814
X1.64916 Y0.46914
X1.64816 Y0.46914
X1.64816 Y0.47014
X1.64716 Y0.47014
X1.64716 Y0.47114
X1.64616 Y0.47114
X1.64616 Y0.47214
X1.64516 Y0.47214
X1.64516 Y0.47314
X1.64416 Y0.47314
X1.64416 Y0.47414
X1.64316 Y0.47414
X1.64316 Y0.47514
X1.64216 Y0.47514
X1.64216 Y0.47614
X1.64016 Y0.47614
X1.64016 Y0.47714
X1.63916 Y0.47714
X1.63916 Y0.47814
X1.63716 Y0.47814
X1.63716 Y0.47914
X1.63416 Y0.47914
X1.63416 Y0.48014
X1.62816 Y0.48014
X1.62816 Y0.48114
X1.60116 Y0.48114
X1.60116 Y0.48014
X1.60016 Y0.48014
X1.60016 Y0.48114
X1.59616 Y0.48114
X1.59616 Y0.48014
X1.59516 Y0.48014
X1.59516 Y0.47914
X1.59316 Y0.47914
X1.59316 Y0.48014
X1.59216 Y0.48014
X1.59216 Y0.48114
X1.59116 Y0.48114
X1.59116 Y0.48214
X1.59016 Y0.48214
X1.59016 Y0.48314
X1.58916 Y0.48314
X1.58916 Y0.48414
X1.58816 Y0.48414
X1.58816 Y0.48514
X1.58716 Y0.48514
X1.58716 Y0.48614
X1.58616 Y0.48614
X1.58616 Y0.48714
X1.58516 Y0.48714
X1.58516 Y0.48814
X1.58416 Y0.48814
X1.58416 Y0.48914
X1.58216 Y0.48914
X1.58216 Y0.49014
X1.58116 Y0.49014
X1.58116 Y0.49114
X1.57916 Y0.49114
X1.57916 Y0.49214
X1.57716 Y0.49214
X1.57716 Y0.49314
X1.49316 Y0.49314
X1.49316 Y0.49214
X1.49016 Y0.49214
X1.49016 Y0.49114
X1.48916 Y0.49114
X1.48916 Y0.49014
X1.48716 Y0.49014
X1.48716 Y0.48914
X1.48616 Y0.48914
X1.48616 Y0.48814
X1.48516 Y0.48814
X1.48516 Y0.48714
X1.48416 Y0.48714
X1.48416 Y0.48614
X1.48316 Y0.48614
X1.48316 Y0.48514
X1.48216 Y0.48514
X1.48216 Y0.48414
X1.48116 Y0.48414
X1.48116 Y0.48314
G04 P0 ( dwell for no time -- G64 should not smooth over this point )
G00 Z0.19685 ( retract )

G00 X0.96116 Y0.48014 ( rapid move to begin. )
G01 Z-0.01969 F1.96850 ( plunge. )
G04 P0 ( dwell for no time -- G64 should not smooth over this point )
X0.96116 Y0.48014
X0.96016 Y0.48014
X0.96016 Y0.47914
X0.95816 Y0.47914
X0.95816 Y0.47814
X0.92216 Y0.47814
X0.92216 Y0.47914
X0.92016 Y0.47914
X0.92016 Y0.48014
X0.91716 Y0.48014
X0.91716 Y0.48114
X0.91416 Y0.48114
X0.91416 Y0.48214
X0.90516 Y0.48214
X0.90516 Y0.48114
X0.90416 Y0.48114
X0.90416 Y0.48014
X0.90316 Y0.48014
X0.90316 Y0.47814
X0.90216 Y0.47814
X0.90216 Y0.47614
X0.90116 Y0.47614
X0.90116 Y0.47514
X0.90016 Y0.47514
X0.90016 Y0.47414
X0.89916 Y0.47414
X0.89916 Y0.47314
X0.89816 Y0.47314
X0.89816 Y0.47214
X0.89616 Y0.47214
X0.89616 Y0.47114
X0.89416 Y0.47114
X0.89416 Y0.47014
X0.89116 Y0.47014
X0.89116 Y0.46914
X0.88716 Y0.46914
X0.88716 Y0.46814
X0.88616 Y0.46814
X0.88616 Y0.46714
X0.88516 Y0.46714
X0.88516 Y0.46614
X0.88416 Y0.46614
X0.88416 Y0.46414
X0.88516 Y0.46414
X0.88516 Y0.46314
X0.88616 Y0.46314
X0.88616 Y0.46214
X0.88716 Y0.46214
X0.88716 Y0.46114
X0.89116 Y0.46114
X0.89116 Y0.46014
X0.89416 Y0.46014
X0.89416 Y0.45914
X0.89616 Y0.45914
X0.89616 Y0.45814
X0.89816 Y0.45814
X0.89816 Y0.45714
X0.89916 Y0.45714
X0.89916 Y0.45614
X0.90016 Y0.45614
X0.90016 Y0.45514
X0.90116 Y0.45514
X0.90116 Y0.45414
X0.90316 Y0.45414
X0.90316 Y0.45314
X0.90516 Y0.45314
X0.90516 Y0.45214
X0.90616 Y0.45214
X0.90616 Y0.44814
X0.90716 Y0.44814
X0.90716 Y0.44714
X0.92616 Y0.44714
X0.92616 Y0.44814
X0.95616 Y0.44814
X0.95616 Y0.44714
X0.98416 Y0.44714
X0.98416 Y0.44814
X0.98516 Y0.44814
X0.98516 Y0.44914
X1.02616 Y0.44914
X1.02616 Y0.45014
X1.02716 Y0.45014
X1.02716 Y0.45114
X1.02816 Y0.45114
X1.02816 Y0.45214
X1.02916 Y0.45214
X1.02916 Y0.45514
X1.02816 Y0.45514
X1.02816 Y0.45614
X1.02716 Y0.45614
X1.02716 Y0.45714
X1.02616 Y0.45714
X1.02616 Y0.45814
X1.02516 Y0.45814
X1.02516 Y0.45914
X1.01916 Y0.45914
X1.01916 Y0.46014
X1.01516 Y0.46014
X1.01516 Y0.46114
X1.01316 Y0.46114
X1.01316 Y0.46214
X1.01216 Y0.46214
X1.01216 Y0.46314
X1.01016 Y0.46314
X1.01016 Y0.46414
X1.00916 Y0.46414
X1.00916 Y0.46514
X1.00816 Y0.46514
X1.00816 Y0.46614
X1.00716 Y0.46614
X1.00716 Y0.46714
X1.00616 Y0.46714
X1.00616 Y0.46814
X1.00516 Y0.46814
X1.00516 Y0.47014
X1.00416 Y0.47014
X1.00416 Y0.47114
X1.00316 Y0.47114
X1.00316 Y0.47314
X1.00216 Y0.47314
X1.00216 Y0.47414
X1.00116 Y0.47414
X1.00116 Y0.47614
X1.00016 Y0.47614
X1.00016 Y0.47814
X0.99916 Y0.47814
X0.99916 Y0.48114
X0.99816 Y0.48114
X0.99816 Y0.48214
X0.97916 Y0.48214
X0.97916 Y0.48314
X0.97316 Y0.48314
X0.97316 Y0.48414
X0.96616 Y0.48414
X0.96616 Y0.48314
X0.96316 Y0.48314
X0.96316 Y0.48214
X0.96216 Y0.48214
X0.96216 Y0.48114
X0.96116 Y0.48114
X0.96116 Y0.48014
G04 P0 ( dwell for no time -- G64 should not smooth over this point )
G00 Z0.19685 ( retract )

G00 X1.06016 Y0.47714 ( rapid move to begin. )
G01 Z-0.01969 F1.96850 ( plunge. )
G04 P0 ( dwell for no time -- G64 should not smooth over this point )
X1.06016 Y0.47714
X1.06016 Y0.47614
X1.05916 Y0.47614
X1.05916 Y0.47414
X1.05816 Y0.47414
X1.05816 Y0.47314
X1.05716 Y0.47314
X1.05716 Y0.47114
X1.05616 Y0.47114
X1.05616 Y0.47014
X1.05516 Y0.47014
X1.05516 Y0.46914
X1.05416 Y0.46914
X1.05416 Y0.46814
X1.05316 Y0.46814
X1.05316 Y0.46714
X1.05216 Y0.46714
X1.05216 Y0.46614
X1.05116 Y0.46614
X1.05116 Y0.46514
X1.05016 Y0.46514
X1.05016 Y0.46414
X1.04916 Y0.46414
X1.04916 Y0.46314
X1.04716 Y0.46314
X1.04716 Y0.46214
X1.04616 Y0.46214
X1.04616 Y0.46114
X1.04416 Y0.46114
X1.04416 Y0.46014
X1.04016 Y0.46014
X1.04016 Y0.45914
X1.03516 Y0.45914
X1.03516 Y0.45814
X1.03416 Y0.45814
X1.03416 Y0.45714
X1.03316 Y0.45714
X1.03316 Y0.45614
X1.03216 Y0.45614
X1.03216 Y0.45514
X1.03116 Y0.45514
X1.03116 Y0.45214
X1.03216 Y0.45214
X1.03216 Y0.45114
X1.03316 Y0.45114
X1.03316 Y0.45014
X1.03416 Y0.45014
X1.03416 Y0.44914
X1.09816 Y0.44914
X1.09816 Y0.45014
X1.09916 Y0.45014
X1.09916 Y0.45314
X1.10016 Y0.45314
X1.10016 Y0.45514
X1.10116 Y0.45514
X1.10116 Y0.45714
X1.10216 Y0.45714
X1.10216 Y0.45814
X1.10316 Y0.45814
X1.10316 Y0.46014
X1.10416 Y0.46014
X1.10416 Y0.46114
X1.10516 Y0.46114
X1.10516 Y0.46314
X1.10616 Y0.46314
X1.10616 Y0.46414
X1.10716 Y0.46414
X1.10716 Y0.46514
X1.10816 Y0.46514
X1.10816 Y0.46614
X1.11016 Y0.46614
X1.11016 Y0.46714
X1.11216 Y0.46714
X1.11216 Y0.46814
X1.11416 Y0.46814
X1.11416 Y0.46914
X1.11516 Y0.46914
X1.11516 Y0.47014
X1.11716 Y0.47014
X1.11716 Y0.47114
X1.11916 Y0.47114
X1.11916 Y0.47214
X1.12516 Y0.47214
X1.12516 Y0.47314
X1.12616 Y0.47314
X1.12616 Y0.47414
X1.12716 Y0.47414
X1.12716 Y0.47514
X1.12816 Y0.47514
X1.12816 Y0.47614
X1.12916 Y0.47614
X1.12916 Y0.47914
X1.12816 Y0.47914
X1.12816 Y0.48014
X1.12716 Y0.48014
X1.12716 Y0.48114
X1.12616 Y0.48114
X1.12616 Y0.48214
X1.06116 Y0.48214
X1.06116 Y0.48114
X1.06016 Y0.48114
X1.06016 Y0.47714
G04 P0 ( dwell for no time -- G64 should not smooth over this point )
G00 Z0.19685 ( retract )

G00 X0.71016 Y0.47714 ( rapid move to begin. )
G01 Z-0.01969 F1.96850 ( plunge. )
G04 P0 ( dwell for no time -- G64 should not smooth over this point )
X0.71016 Y0.47714
X0.71016 Y0.47614
X0.70916 Y0.47614
X0.70916 Y0.47414
X0.70816 Y0.47414
X0.70816 Y0.47314
X0.70716 Y0.47314
X0.70716 Y0.47114
X0.70616 Y0.47114
X0.70616 Y0.47014
X0.70516 Y0.47014
X0.70516 Y0.46914
X0.70416 Y0.46914
X0.70416 Y0.46814
X0.70316 Y0.46814
X0.70316 Y0.46714
X0.70216 Y0.46714
X0.70216 Y0.46614
X0.70116 Y0.46614
X0.70116 Y0.46514
X0.70016 Y0.46514
X0.70016 Y0.46414
X0.69916 Y0.46414
X0.69916 Y0.46314
X0.69716 Y0.46314
X0.69716 Y0.46214
X0.69616 Y0.46214
X0.69616 Y0.46114
X0.69416 Y0.46114
X0.69416 Y0.46014
X0.69016 Y0.46014
X0.69016 Y0.45914
X0.68516 Y0.45914
X0.68516 Y0.45814
X0.68416 Y0.45814
X0.68416 Y0.45714
X0.68316 Y0.45714
X0.68316 Y0.45614
X0.68216 Y0.45614
X0.68216 Y0.45514
X0.68116 Y0.45514
X0.68116 Y0.45214
X0.68216 Y0.45214
X0.68216 Y0.45114
X0.68316 Y0.45114
X0.68316 Y0.45014
X0.68416 Y0.45014
X0.68416 Y0.44914
X0.71816 Y0.44914
X0.71816 Y0.45014
X0.72016 Y0.45014
X0.72016 Y0.45114
X0.72116 Y0.45114
X0.72116 Y0.45214
X0.72216 Y0.45214
X0.72216 Y0.45414
X0.72316 Y0.45414
X0.72316 Y0.45514
X0.72416 Y0.45514
X0.72416 Y0.45614
X0.72516 Y0.45614
X0.72516 Y0.45714
X0.72616 Y0.45714
X0.72616 Y0.45814
X0.72816 Y0.45814
X0.72816 Y0.45914
X0.72916 Y0.45914
X0.72916 Y0.46014
X0.73216 Y0.46014
X0.73216 Y0.46114
X0.73716 Y0.46114
X0.73716 Y0.46214
X0.73816 Y0.46214
X0.73816 Y0.46314
X0.73916 Y0.46314
X0.73916 Y0.46414
X0.74016 Y0.46414
X0.74016 Y0.46614
X0.73916 Y0.46614
X0.73916 Y0.46714
X0.73816 Y0.46714
X0.73816 Y0.46814
X0.73716 Y0.46814
X0.73716 Y0.46914
X0.73216 Y0.46914
X0.73216 Y0.47014
X0.73016 Y0.47014
X0.73016 Y0.47114
X0.72816 Y0.47114
X0.72816 Y0.47214
X0.72616 Y0.47214
X0.72616 Y0.47314
X0.72516 Y0.47314
X0.72516 Y0.47414
X0.72416 Y0.47414
X0.72416 Y0.47614
X0.72316 Y0.47614
X0.72316 Y0.47714
X0.72216 Y0.47714
X0.72216 Y0.47814
X0.72116 Y0.47814
X0.72116 Y0.47914
X0.72016 Y0.47914
X0.72016 Y0.48014
X0.71916 Y0.48014
X0.71916 Y0.48114
X0.71816 Y0.48114
X0.71816 Y0.48214
X0.71116 Y0.48214
X0.71116 Y0.48114
X0.71016 Y0.48114
X0.71016 Y0.47714
G04 P0 ( dwell for no time -- G64 should not smooth over this point )
G00 Z0.19685 ( retract )

G00 X1.49716 Y0.47014 ( rapid move to begin. )
G01 Z-0.01969 F1.96850 ( plunge. )
G04 P0 ( dwell for no time -- G64 should not smooth over this point )
X1.49716 Y0.47014
X1.49616 Y0.47014
X1.49616 Y0.46914
X1.49416 Y0.46914
X1.49416 Y0.46814
X1.49316 Y0.46814
X1.49316 Y0.46714
X1.49216 Y0.46714
X1.49216 Y0.46614
X1.49116 Y0.46614
X1.49116 Y0.46514
X1.49016 Y0.46514
X1.49016 Y0.46414
X1.48916 Y0.46414
X1.48916 Y0.46314
X1.48816 Y0.46314
X1.48816 Y0.46214
X1.48716 Y0.46214
X1.48716 Y0.46114
X1.48616 Y0.46114
X1.48616 Y0.46014
X1.48516 Y0.46014
X1.48516 Y0.45814
X1.48416 Y0.45814
X1.48416 Y0.45714
X1.48316 Y0.45714
X1.48316 Y0.45514
X1.48216 Y0.45514
X1.48216 Y0.45314
X1.48116 Y0.45314
X1.48116 Y0.45114
X1.48016 Y0.45114
X1.48016 Y0.44914
X1.47916 Y0.44914
X1.47916 Y0.44714
X1.47816 Y0.44714
X1.47816 Y0.44414
X1.47716 Y0.44414
X1.47716 Y0.44114
X1.47616 Y0.44114
X1.47616 Y0.43814
X1.47516 Y0.43814
X1.47516 Y0.43714
X1.47216 Y0.43714
X1.47216 Y0.43614
X1.46916 Y0.43614
X1.46916 Y0.43514
X1.46616 Y0.43514
X1.46616 Y0.43414
X1.46316 Y0.43414
X1.46316 Y0.43314
X1.17416 Y0.43314
X1.17416 Y0.43214
X1.17016 Y0.43214
X1.17016 Y0.43114
X1.16716 Y0.43114
X1.16716 Y0.43014
X1.16416 Y0.43014
X1.16416 Y0.42814
X1.16316 Y0.42814
X1.16316 Y0.42614
X1.16216 Y0.42614
X1.16216 Y0.42414
X1.16116 Y0.42414
X1.16116 Y0.42214
X1.16016 Y0.42214
X1.16016 Y0.42114
X1.15916 Y0.42114
X1.15916 Y0.42014
X1.15816 Y0.42014
X1.15816 Y0.41914
X1.15716 Y0.41914
X1.15716 Y0.41814
X1.15616 Y0.41814
X1.15616 Y0.41614
X1.15516 Y0.41614
X1.15516 Y0.41514
X1.15416 Y0.41514
X1.15416 Y0.41414
X1.15316 Y0.41414
X1.15316 Y0.41314
X1.15116 Y0.41314
X1.15116 Y0.41214
X1.15016 Y0.41214
X1.15016 Y0.41114
X1.14916 Y0.41114
X1.14916 Y0.41014
X1.14816 Y0.41014
X1.14816 Y0.40914
X1.14616 Y0.40914
X1.14616 Y0.40714
X1.14516 Y0.40714
X1.14516 Y0.40414
X1.14416 Y0.40414
X1.14416 Y0.40114
X1.14316 Y0.40114
X1.14316 Y0.40014
X1.14016 Y0.40014
X1.14016 Y0.39914
X1.13316 Y0.39914
X1.13316 Y0.40014
X1.13216 Y0.40014
X1.13216 Y0.40114
X1.13116 Y0.40114
X1.13116 Y0.40214
X1.12816 Y0.40214
X1.12816 Y0.40114
X1.12716 Y0.40114
X1.12716 Y0.40014
X1.12616 Y0.40014
X1.12616 Y0.39914
X1.08416 Y0.39914
X1.08416 Y0.39814
X1.06516 Y0.39814
X1.06516 Y0.39914
X1.06216 Y0.39914
X1.06216 Y0.40014
X1.06116 Y0.40014
X1.06116 Y0.40114
X1.06016 Y0.40114
X1.06016 Y0.40514
X1.05916 Y0.40514
X1.05916 Y0.40714
X1.05816 Y0.40714
X1.05816 Y0.40914
X1.05716 Y0.40914
X1.05716 Y0.41314
X1.05616 Y0.41314
X1.05616 Y0.41714
X1.05516 Y0.41714
X1.05516 Y0.41814
X1.05416 Y0.41814
X1.05416 Y0.41914
X1.04916 Y0.41914
X1.04916 Y0.42014
X1.04516 Y0.42014
X1.04516 Y0.42114
X1.01416 Y0.42114
X1.01416 Y0.42014
X1.01316 Y0.42014
X1.01316 Y0.41914
X1.01116 Y0.41914
X1.01116 Y0.41814
X1.00916 Y0.41814
X1.00916 Y0.41714
X1.00816 Y0.41714
X1.00816 Y0.41614
X1.00716 Y0.41614
X1.00716 Y0.41514
X1.00616 Y0.41514
X1.00616 Y0.41414
X1.00516 Y0.41414
X1.00516 Y0.41314
X1.00416 Y0.41314
X1.00416 Y0.41214
X1.00316 Y0.41214
X1.00316 Y0.41114
X1.00216 Y0.41114
X1.00216 Y0.40914
X1.00116 Y0.40914
X1.00116 Y0.40814
X1.00016 Y0.40814
X1.00016 Y0.40514
X0.99916 Y0.40514
X0.99916 Y0.39314
X0.99816 Y0.39314
X0.99816 Y0.38914
X0.99716 Y0.38914
X0.99716 Y0.38714
X0.99616 Y0.38714
X0.99616 Y0.38514
X0.99716 Y0.38514
X0.99716 Y0.38414
X0.99816 Y0.38414
X0.99816 Y0.38114
X0.99916 Y0.38114
X0.99916 Y0.37814
X1.00016 Y0.37814
X1.00016 Y0.37614
X1.00116 Y0.37614
X1.00116 Y0.37414
X1.00216 Y0.37414
X1.00216 Y0.37314
X1.00316 Y0.37314
X1.00316 Y0.37114
X1.00416 Y0.37114
X1.00416 Y0.37014
X1.00516 Y0.37014
X1.00516 Y0.36814
X1.00616 Y0.36814
X1.00616 Y0.36714
X1.00716 Y0.36714
X1.00716 Y0.36414
X1.00816 Y0.36414
X1.00816 Y0.36214
X1.00716 Y0.36214
X1.00716 Y0.35914
X1.00616 Y0.35914
X1.00616 Y0.35814
X1.00516 Y0.35814
X1.00516 Y0.35714
X1.00416 Y0.35714
X1.00416 Y0.35614
X1.00316 Y0.35614
X1.00316 Y0.35514
X1.00216 Y0.35514
X1.00216 Y0.35414
X1.00116 Y0.35414
X1.00116 Y0.35314
X1.00016 Y0.35314
X1.00016 Y0.35214
X0.99916 Y0.35214
X0.99916 Y0.35114
X0.99816 Y0.35114
X0.99816 Y0.35014
X0.99516 Y0.35014
X0.99516 Y0.34914
X0.98516 Y0.34914
X0.98516 Y0.34814
X0.98416 Y0.34814
X0.98416 Y0.34714
X0.95616 Y0.34714
X0.95616 Y0.34814
X0.92616 Y0.34814
X0.92616 Y0.34714
X0.90716 Y0.34714
X0.90716 Y0.34814
X0.90616 Y0.34814
X0.90616 Y0.35314
X0.90316 Y0.35314
X0.90316 Y0.35414
X0.90116 Y0.35414
X0.90116 Y0.35514
X0.90016 Y0.35514
X0.90016 Y0.35614
X0.89916 Y0.35614
X0.89916 Y0.35714
X0.89816 Y0.35714
X0.89816 Y0.35814
X0.89616 Y0.35814
X0.89616 Y0.35914
X0.89416 Y0.35914
X0.89416 Y0.36014
X0.89116 Y0.36014
X0.89116 Y0.36114
X0.88716 Y0.36114
X0.88716 Y0.36214
X0.88616 Y0.36214
X0.88616 Y0.36314
X0.88516 Y0.36314
X0.88516 Y0.36414
X0.88416 Y0.36414
X0.88416 Y0.36514
X0.74016 Y0.36514
X0.74016 Y0.36414
X0.73916 Y0.36414
X0.73916 Y0.36314
X0.73816 Y0.36314
X0.73816 Y0.36214
X0.73716 Y0.36214
X0.73716 Y0.36114
X0.73216 Y0.36114
X0.73216 Y0.36014
X0.72916 Y0.36014
X0.72916 Y0.35914
X0.72816 Y0.35914
X0.72816 Y0.35814
X0.72616 Y0.35814
X0.72616 Y0.35714
X0.72516 Y0.35714
X0.72516 Y0.35614
X0.72416 Y0.35614
X0.72416 Y0.35514
X0.72316 Y0.35514
X0.72316 Y0.35414
X0.72216 Y0.35414
X0.72216 Y0.35214
X0.72016 Y0.35214
X0.72016 Y0.35114
X0.71516 Y0.35114
X0.71516 Y0.35214
X0.71416 Y0.35214
X0.71416 Y0.35314
X0.71316 Y0.35314
X0.71316 Y0.35414
X0.71216 Y0.35414
X0.71216 Y0.35514
X0.71116 Y0.35514
X0.71116 Y0.35614
X0.71016 Y0.35614
X0.71016 Y0.35714
X0.70916 Y0.35714
X0.70916 Y0.35814
X0.70816 Y0.35814
X0.70816 Y0.35914
X0.70716 Y0.35914
X0.70716 Y0.36014
X0.70616 Y0.36014
X0.70616 Y0.36114
X0.70516 Y0.36114
X0.70516 Y0.36214
X0.70416 Y0.36214
X0.70416 Y0.36914
X0.70516 Y0.36914
X0.70516 Y0.37014
X0.70616 Y0.37014
X0.70616 Y0.37114
X0.70716 Y0.37114
X0.70716 Y0.37314
X0.70816 Y0.37314
X0.70816 Y0.37414
X0.70916 Y0.37414
X0.70916 Y0.37614
X0.71016 Y0.37614
X0.71016 Y0.38114
X0.71116 Y0.38114
X0.71116 Y0.38414
X0.71216 Y0.38414
X0.71216 Y0.38514
X0.71316 Y0.38514
X0.71316 Y0.38614
X0.71416 Y0.38614
X0.71416 Y0.39414
X0.71316 Y0.39414
X0.71316 Y0.39514
X0.71216 Y0.39514
X0.71216 Y0.39614
X0.71116 Y0.39614
X0.71116 Y0.40014
X0.71016 Y0.40014
X0.71016 Y0.40514
X0.70916 Y0.40514
X0.70916 Y0.40714
X0.70816 Y0.40714
X0.70816 Y0.40814
X0.70716 Y0.40814
X0.70716 Y0.40914
X0.70616 Y0.40914
X0.70616 Y0.41014
X0.70516 Y0.41014
X0.70516 Y0.41114
X0.70416 Y0.41114
X0.70416 Y0.41314
X0.70316 Y0.41314
X0.70316 Y0.41414
X0.70216 Y0.41414
X0.70216 Y0.41514
X0.70116 Y0.41514
X0.70116 Y0.41614
X0.69916 Y0.41614
X0.69916 Y0.41714
X0.69716 Y0.41714
X0.69716 Y0.41814
X0.69516 Y0.41814
X0.69516 Y0.41914
X0.69416 Y0.41914
X0.69416 Y0.42014
X0.69216 Y0.42014
X0.69216 Y0.42114
X0.69016 Y0.42114
X0.69016 Y0.42214
X0.68416 Y0.42214
X0.68416 Y0.42314
X0.68316 Y0.42314
X0.68316 Y0.42414
X0.68216 Y0.42414
X0.68216 Y0.42514
X0.68116 Y0.42514
X0.68116 Y0.42614
X0.68016 Y0.42614
X0.68016 Y0.42714
X0.67116 Y0.42714
X0.67116 Y0.42614
X0.66816 Y0.42614
X0.66816 Y0.42514
X0.66616 Y0.42514
X0.66616 Y0.42414
X0.66416 Y0.42414
X0.66416 Y0.42314
X0.66216 Y0.42314
X0.66216 Y0.42214
X0.66116 Y0.42214
X0.66116 Y0.42114
X0.65916 Y0.42114
X0.65916 Y0.42014
X0.65816 Y0.42014
X0.65816 Y0.41914
X0.65716 Y0.41914
X0.65716 Y0.41814
X0.65616 Y0.41814
X0.65616 Y0.41714
X0.65516 Y0.41714
X0.65516 Y0.41614
X0.65416 Y0.41614
X0.65416 Y0.41514
X0.65316 Y0.41514
X0.65316 Y0.41414
X0.65216 Y0.41414
X0.65216 Y0.41314
X0.65116 Y0.41314
X0.65116 Y0.41214
X0.65016 Y0.41214
X0.65016 Y0.41114
X0.64916 Y0.41114
X0.64916 Y0.40914
X0.64816 Y0.40914
X0.64816 Y0.40814
X0.64716 Y0.40814
X0.64716 Y0.40614
X0.64616 Y0.40614
X0.64616 Y0.40414
X0.64516 Y0.40414
X0.64516 Y0.40214
X0.64416 Y0.40214
X0.64416 Y0.39814
X0.64316 Y0.39814
X0.64316 Y0.38214
X0.64416 Y0.38214
X0.64416 Y0.37814
X0.64516 Y0.37814
X0.64516 Y0.37714
X0.64616 Y0.37714
X0.64616 Y0.37514
X0.64716 Y0.37514
X0.64716 Y0.37314
X0.64816 Y0.37314
X0.64816 Y0.37214
X0.64916 Y0.37214
X0.64916 Y0.37014
X0.65016 Y0.37014
X0.65016 Y0.36814
X0.65116 Y0.36814
X0.65116 Y0.36714
X0.65216 Y0.36714
X0.65216 Y0.36614
X0.65316 Y0.36614
X0.65316 Y0.36514
X0.65416 Y0.36514
X0.65416 Y0.36314
X0.65516 Y0.36314
X0.65516 Y0.36214
X0.65616 Y0.36214
X0.65616 Y0.36114
X0.65716 Y0.36114
X0.65716 Y0.36014
X0.65916 Y0.36014
X0.65916 Y0.35914
X0.66016 Y0.35914
X0.66016 Y0.35814
X0.66216 Y0.35814
X0.66216 Y0.35714
X0.66416 Y0.35714
X0.66416 Y0.35614
X0.66716 Y0.35614
X0.66716 Y0.35514
X0.67116 Y0.35514
X0.67116 Y0.35314
X0.67916 Y0.35314
X0.67916 Y0.35214
X0.68216 Y0.35214
X0.68216 Y0.35114
X0.68516 Y0.35114
X0.68516 Y0.35014
X0.68816 Y0.35014
X0.68816 Y0.34914
X0.69116 Y0.34914
X0.69116 Y0.34814
X0.69216 Y0.34814
X0.69216 Y0.34714
X0.69316 Y0.34714
X0.69316 Y0.34614
X0.69416 Y0.34614
X0.69416 Y0.34514
X0.69516 Y0.34514
X0.69516 Y0.34414
X0.69616 Y0.34414
X0.69616 Y0.34314
X0.69716 Y0.34314
X0.69716 Y0.34214
X0.69816 Y0.34214
X0.69816 Y0.34114
X0.69916 Y0.34114
X0.69916 Y0.34014
X0.70016 Y0.34014
X0.70016 Y0.33914
X0.70116 Y0.33914
X0.70116 Y0.33814
X0.70216 Y0.33814
X0.70216 Y0.33714
X0.70316 Y0.33714
X0.70316 Y0.33614
X0.70416 Y0.33614
X0.70416 Y0.33514
X0.70516 Y0.33514
X0.70516 Y0.33414
X0.70616 Y0.33414
X0.70616 Y0.33314
X0.70816 Y0.33314
X0.70816 Y0.33214
X0.71116 Y0.33214
X0.71116 Y0.33314
X0.71716 Y0.33314
X0.71716 Y0.33214
X0.71916 Y0.33214
X0.71916 Y0.33114
X0.72116 Y0.33114
X0.72116 Y0.32914
X0.72216 Y0.32914
X0.72216 Y0.32714
X0.72316 Y0.32714
X0.72316 Y0.32614
X0.72416 Y0.32614
X0.72416 Y0.32314
X0.72816 Y0.32314
X0.72816 Y0.32214
X0.72916 Y0.32214
X0.72916 Y0.32114
X0.73016 Y0.32114
X0.73016 Y0.32014
X0.73216 Y0.32014
X0.73216 Y0.31914
X0.73716 Y0.31914
X0.73716 Y0.31814
X0.73816 Y0.31814
X0.73816 Y0.31714
X0.73916 Y0.31714
X0.73916 Y0.31614
X0.74016 Y0.31614
X0.74016 Y0.31514
X0.88416 Y0.31514
X0.88416 Y0.31614
X0.88516 Y0.31614
X0.88516 Y0.31714
X0.88616 Y0.31714
X0.88616 Y0.31814
X0.88716 Y0.31814
X0.88716 Y0.31914
X0.89116 Y0.31914
X0.89116 Y0.32014
X0.89416 Y0.32014
X0.89416 Y0.32114
X0.89616 Y0.32114
X0.89616 Y0.32214
X0.89816 Y0.32214
X0.89816 Y0.32314
X0.89916 Y0.32314
X0.89916 Y0.32414
X0.90016 Y0.32414
X0.90016 Y0.32514
X0.90116 Y0.32514
X0.90116 Y0.32614
X0.90216 Y0.32614
X0.90216 Y0.32814
X0.90316 Y0.32814
X0.90316 Y0.33014
X0.90416 Y0.33014
X0.90416 Y0.33114
X0.90516 Y0.33114
X0.90516 Y0.33214
X0.91416 Y0.33214
X0.91416 Y0.33114
X0.91716 Y0.33114
X0.91716 Y0.33014
X0.92016 Y0.33014
X0.92016 Y0.32914
X0.92216 Y0.32914
X0.92216 Y0.32814
X0.95816 Y0.32814
X0.95816 Y0.32914
X0.96016 Y0.32914
X0.96016 Y0.33014
X0.96216 Y0.33014
X0.96216 Y0.33114
X0.96416 Y0.33114
X0.96416 Y0.33214
X0.96716 Y0.33214
X0.96716 Y0.33314
X0.97916 Y0.33314
X0.97916 Y0.33214
X0.99816 Y0.33214
X0.99816 Y0.33314
X1.00116 Y0.33314
X1.00116 Y0.33414
X1.00416 Y0.33414
X1.00416 Y0.33514
X1.00616 Y0.33514
X1.00616 Y0.33614
X1.00716 Y0.33614
X1.00716 Y0.33714
X1.01016 Y0.33714
X1.01016 Y0.33814
X1.01316 Y0.33814
X1.01316 Y0.33914
X1.01716 Y0.33914
X1.01716 Y0.34314
X1.01816 Y0.34314
X1.01816 Y0.34614
X1.01916 Y0.34614
X1.01916 Y0.34814
X1.02016 Y0.34814
X1.02016 Y0.34914
X1.02116 Y0.34914
X1.02116 Y0.35014
X1.02216 Y0.35014
X1.02216 Y0.35114
X1.02316 Y0.35114
X1.02316 Y0.35214
X1.02416 Y0.35214
X1.02416 Y0.35314
X1.02516 Y0.35314
X1.02516 Y0.35414
X1.02616 Y0.35414
X1.02616 Y0.35514
X1.02716 Y0.35514
X1.02716 Y0.35614
X1.02916 Y0.35614
X1.02916 Y0.35714
X1.03016 Y0.35714
X1.03016 Y0.35814
X1.03416 Y0.35814
X1.03416 Y0.35914
X1.04016 Y0.35914
X1.04016 Y0.36014
X1.04416 Y0.36014
X1.04416 Y0.36114
X1.04616 Y0.36114
X1.04616 Y0.36214
X1.04716 Y0.36214
X1.04716 Y0.36314
X1.04916 Y0.36314
X1.04916 Y0.36414
X1.05016 Y0.36414
X1.05016 Y0.36514
X1.05116 Y0.36514
X1.05116 Y0.36614
X1.05216 Y0.36614
X1.05216 Y0.36714
X1.05316 Y0.36714
X1.05316 Y0.36814
X1.05416 Y0.36814
X1.05416 Y0.36914
X1.05516 Y0.36914
X1.05516 Y0.37014
X1.05616 Y0.37014
X1.05616 Y0.37114
X1.05716 Y0.37114
X1.05716 Y0.37314
X1.05816 Y0.37314
X1.05816 Y0.37414
X1.05916 Y0.37414
X1.05916 Y0.37614
X1.06016 Y0.37614
X1.06016 Y0.38114
X1.06116 Y0.38114
X1.06116 Y0.38214
X1.12616 Y0.38214
X1.12616 Y0.38114
X1.12716 Y0.38114
X1.12716 Y0.38014
X1.12816 Y0.38014
X1.12816 Y0.37914
X1.13116 Y0.37914
X1.13116 Y0.38014
X1.13216 Y0.38014
X1.13216 Y0.38114
X1.13316 Y0.38114
X1.13316 Y0.38214
X1.14516 Y0.38214
X1.14516 Y0.38314
X1.14916 Y0.38314
X1.14916 Y0.38414
X1.15016 Y0.38414
X1.15016 Y0.38514
X1.15216 Y0.38514
X1.15216 Y0.38614
X1.15316 Y0.38614
X1.15316 Y0.38714
X1.15416 Y0.38714
X1.15416 Y0.38814
X1.15516 Y0.38814
X1.15516 Y0.38914
X1.15616 Y0.38914
X1.15616 Y0.39014
X1.15716 Y0.39014
X1.15716 Y0.39114
X1.15816 Y0.39114
X1.15816 Y0.39214
X1.15916 Y0.39214
X1.15916 Y0.39314
X1.16016 Y0.39314
X1.16016 Y0.39414
X1.16116 Y0.39414
X1.16116 Y0.39514
X1.16216 Y0.39514
X1.16216 Y0.39614
X1.16316 Y0.39614
X1.16316 Y0.39714
X1.16416 Y0.39714
X1.16416 Y0.39814
X1.16516 Y0.39814
X1.16516 Y0.39914
X1.16616 Y0.39914
X1.16616 Y0.40014
X1.16716 Y0.40014
X1.16716 Y0.40114
X1.16816 Y0.40114
X1.16816 Y0.40214
X1.16916 Y0.40214
X1.16916 Y0.40314
X1.17016 Y0.40314
X1.17016 Y0.40414
X1.17116 Y0.40414
X1.17116 Y0.40514
X1.17216 Y0.40514
X1.17216 Y0.40614
X1.17316 Y0.40614
X1.17316 Y0.40714
X1.17416 Y0.40714
X1.17416 Y0.40814
X1.17516 Y0.40814
X1.17516 Y0.40914
X1.17616 Y0.40914
X1.17616 Y0.41014
X1.17716 Y0.41014
X1.17716 Y0.41114
X1.17816 Y0.41114
X1.17816 Y0.41214
X1.17916 Y0.41214
X1.17916 Y0.41314
X1.18016 Y0.41314
X1.18016 Y0.41414
X1.18116 Y0.41414
X1.18116 Y0.41514
X1.18216 Y0.41514
X1.18216 Y0.41614
X1.18416 Y0.41614
X1.18416 Y0.41714
X1.48516 Y0.41714
X1.48516 Y0.41614
X1.48616 Y0.41614
X1.48616 Y0.41514
X1.48716 Y0.41514
X1.48716 Y0.41414
X1.48816 Y0.41414
X1.48816 Y0.41214
X1.49016 Y0.41214
X1.49016 Y0.41114
X1.49216 Y0.41114
X1.49216 Y0.41014
X1.49316 Y0.41014
X1.49316 Y0.40914
X1.49516 Y0.40914
X1.49516 Y0.40814
X1.49716 Y0.40814
X1.49716 Y0.40714
X1.49916 Y0.40714
X1.49916 Y0.40614
X1.50116 Y0.40614
X1.50116 Y0.40514
X1.50416 Y0.40514
X1.50416 Y0.40314
X1.50516 Y0.40314
X1.50516 Y0.40214
X1.50616 Y0.40214
X1.50616 Y0.40114
X1.50716 Y0.40114
X1.50716 Y0.40014
X1.52816 Y0.40014
X1.52816 Y0.40114
X1.53416 Y0.40114
X1.53416 Y0.40214
X1.53716 Y0.40214
X1.53716 Y0.40314
X1.53916 Y0.40314
X1.53916 Y0.40414
X1.54116 Y0.40414
X1.54116 Y0.40514
X1.54216 Y0.40514
X1.54216 Y0.40614
X1.54416 Y0.40614
X1.54416 Y0.40714
X1.54516 Y0.40714
X1.54516 Y0.40814
X1.54616 Y0.40814
X1.54616 Y0.40914
X1.54716 Y0.40914
X1.54716 Y0.41014
X1.54816 Y0.41014
X1.54816 Y0.41114
X1.54916 Y0.41114
X1.54916 Y0.41314
X1.55016 Y0.41314
X1.55016 Y0.41414
X1.55116 Y0.41414
X1.55116 Y0.41614
X1.55216 Y0.41614
X1.55216 Y0.41714
X1.55316 Y0.41714
X1.55316 Y0.42214
X1.55416 Y0.42214
X1.55416 Y0.42714
X1.55516 Y0.42714
X1.55516 Y0.45414
X1.55416 Y0.45414
X1.55416 Y0.45914
X1.55316 Y0.45914
X1.55316 Y0.46314
X1.55216 Y0.46314
X1.55216 Y0.46514
X1.55116 Y0.46514
X1.55116 Y0.46614
X1.55016 Y0.46614
X1.55016 Y0.46714
X1.54816 Y0.46714
X1.54816 Y0.46814
X1.54616 Y0.46814
X1.54616 Y0.46914
X1.54316 Y0.46914
X1.54316 Y0.47014
X1.54016 Y0.47014
X1.54016 Y0.47114
X1.53516 Y0.47114
X1.53516 Y0.47214
X1.53116 Y0.47214
X1.53116 Y0.47314
X1.52116 Y0.47314
X1.52116 Y0.47414
X1.50816 Y0.47414
X1.50816 Y0.47314
X1.50016 Y0.47314
X1.50016 Y0.47214
X1.49916 Y0.47214
X1.49916 Y0.47114
X1.49716 Y0.47114
X1.49716 Y0.47014
G04 P0 ( dwell for no time -- G64 should not smooth over this point )
G00 Z0.19685 ( retract )

G00 X0.99316 Y0.43014 ( rapid move to begin. )
G01 Z-0.01969 F1.96850 ( plunge. )
G04 P0 ( dwell for no time -- G64 should not smooth over this point )
X0.99316 Y0.43014
X0.98916 Y0.43014
X0.98916 Y0.42814
X0.98816 Y0.42814
X0.98816 Y0.42314
X0.98716 Y0.42314
X0.98716 Y0.42014
X0.98616 Y0.42014
X0.98616 Y0.40714
X0.98516 Y0.40714
X0.98516 Y0.40314
X0.98416 Y0.40314
X0.98416 Y0.40014
X0.98316 Y0.40014
X0.98316 Y0.39814
X0.98016 Y0.39814
X0.98016 Y0.39714
X0.95616 Y0.39714
X0.95616 Y0.39814
X0.92616 Y0.39814
X0.92616 Y0.39714
X0.90716 Y0.39714
X0.90716 Y0.39814
X0.90616 Y0.39814
X0.90616 Y0.40314
X0.90316 Y0.40314
X0.90316 Y0.40414
X0.90116 Y0.40414
X0.90116 Y0.40514
X0.90016 Y0.40514
X0.90016 Y0.40614
X0.89916 Y0.40614
X0.89916 Y0.40714
X0.89816 Y0.40714
X0.89816 Y0.40814
X0.89616 Y0.40814
X0.89616 Y0.40914
X0.89416 Y0.40914
X0.89416 Y0.41014
X0.89116 Y0.41014
X0.89116 Y0.41114
X0.88716 Y0.41114
X0.88716 Y0.41214
X0.88616 Y0.41214
X0.88616 Y0.41314
X0.88516 Y0.41314
X0.88516 Y0.41414
X0.88416 Y0.41414
X0.88416 Y0.41514
X0.74016 Y0.41514
X0.74016 Y0.41414
X0.73916 Y0.41414
X0.73916 Y0.41314
X0.73816 Y0.41314
X0.73816 Y0.41214
X0.73716 Y0.41214
X0.73716 Y0.41114
X0.73216 Y0.41114
X0.73216 Y0.41014
X0.72916 Y0.41014
X0.72916 Y0.40914
X0.72816 Y0.40914
X0.72816 Y0.40814
X0.72616 Y0.40814
X0.72616 Y0.40714
X0.72516 Y0.40714
X0.72516 Y0.40614
X0.72416 Y0.40614
X0.72416 Y0.40514
X0.72316 Y0.40514
X0.72316 Y0.40414
X0.72216 Y0.40414
X0.72216 Y0.40214
X0.72116 Y0.40214
X0.72116 Y0.40114
X0.72016 Y0.40114
X0.72016 Y0.40014
X0.71916 Y0.40014
X0.71916 Y0.39714
X0.71716 Y0.39714
X0.71716 Y0.39614
X0.71616 Y0.39614
X0.71616 Y0.39514
X0.71516 Y0.39514
X0.71516 Y0.39414
X0.71416 Y0.39414
X0.71416 Y0.38614
X0.71516 Y0.38614
X0.71516 Y0.38514
X0.71616 Y0.38514
X0.71616 Y0.38414
X0.71716 Y0.38414
X0.71716 Y0.38314
X0.71916 Y0.38314
X0.71916 Y0.38014
X0.72016 Y0.38014
X0.72016 Y0.37914
X0.72116 Y0.37914
X0.72116 Y0.37814
X0.72216 Y0.37814
X0.72216 Y0.37714
X0.72316 Y0.37714
X0.72316 Y0.37614
X0.72416 Y0.37614
X0.72416 Y0.37414
X0.72516 Y0.37414
X0.72516 Y0.37314
X0.72616 Y0.37314
X0.72616 Y0.37214
X0.72816 Y0.37214
X0.72816 Y0.37114
X0.73016 Y0.37114
X0.73016 Y0.37014
X0.73216 Y0.37014
X0.73216 Y0.36914
X0.73716 Y0.36914
X0.73716 Y0.36814
X0.73816 Y0.36814
X0.73816 Y0.36714
X0.73916 Y0.36714
X0.73916 Y0.36614
X0.74016 Y0.36614
X0.74016 Y0.36514
X0.88416 Y0.36514
X0.88416 Y0.36614
X0.88516 Y0.36614
X0.88516 Y0.36714
X0.88616 Y0.36714
X0.88616 Y0.36814
X0.88716 Y0.36814
X0.88716 Y0.36914
X0.89116 Y0.36914
X0.89116 Y0.37014
X0.89416 Y0.37014
X0.89416 Y0.37114
X0.89616 Y0.37114
X0.89616 Y0.37214
X0.89816 Y0.37214
X0.89816 Y0.37314
X0.89916 Y0.37314
X0.89916 Y0.37414
X0.90016 Y0.37414
X0.90016 Y0.37514
X0.90116 Y0.37514
X0.90116 Y0.37614
X0.90216 Y0.37614
X0.90216 Y0.37814
X0.90316 Y0.37814
X0.90316 Y0.38014
X0.90416 Y0.38014
X0.90416 Y0.38114
X0.90516 Y0.38114
X0.90516 Y0.38214
X0.91416 Y0.38214
X0.91416 Y0.38114
X0.91716 Y0.38114
X0.91716 Y0.38014
X0.92016 Y0.38014
X0.92016 Y0.37914
X0.92216 Y0.37914
X0.92216 Y0.37814
X0.95216 Y0.37814
X0.95216 Y0.37714
X0.95616 Y0.37714
X0.95616 Y0.37814
X0.95816 Y0.37814
X0.95816 Y0.37914
X0.96016 Y0.37914
X0.96016 Y0.38014
X0.96216 Y0.38014
X0.96216 Y0.38114
X0.96416 Y0.38114
X0.96416 Y0.38214
X0.96716 Y0.38214
X0.96716 Y0.38314
X0.97916 Y0.38314
X0.97916 Y0.38214
X0.98516 Y0.38214
X0.98516 Y0.38314
X0.99016 Y0.38314
X0.99016 Y0.38414
X0.99416 Y0.38414
X0.99416 Y0.38514
X0.99616 Y0.38514
X0.99616 Y0.38714
X0.99716 Y0.38714
X0.99716 Y0.38914
X0.99816 Y0.38914
X0.99816 Y0.39314
X0.99916 Y0.39314
X0.99916 Y0.40514
X1.00016 Y0.40514
X1.00016 Y0.40814
X1.00116 Y0.40814
X1.00116 Y0.40914
X1.00216 Y0.40914
X1.00216 Y0.41114
X1.00316 Y0.41114
X1.00316 Y0.41214
X1.00416 Y0.41214
X1.00416 Y0.41314
X1.00516 Y0.41314
X1.00516 Y0.41414
X1.00616 Y0.41414
X1.00616 Y0.41514
X1.00716 Y0.41514
X1.00716 Y0.41614
X1.00816 Y0.41614
X1.00816 Y0.41714
X1.00916 Y0.41714
X1.00916 Y0.41814
X1.01116 Y0.41814
X1.01116 Y0.41914
X1.01316 Y0.41914
X1.01316 Y0.42014
X1.01416 Y0.42014
X1.01416 Y0.42114
X1.04516 Y0.42114
X1.04516 Y0.42014
X1.04916 Y0.42014
X1.04916 Y0.41914
X1.05416 Y0.41914
X1.05416 Y0.41814
X1.05516 Y0.41814
X1.05516 Y0.41714
X1.05616 Y0.41714
X1.05616 Y0.41314
X1.05716 Y0.41314
X1.05716 Y0.40914
X1.05816 Y0.40914
X1.05816 Y0.40714
X1.05916 Y0.40714
X1.05916 Y0.40514
X1.06016 Y0.40514
X1.06016 Y0.40114
X1.06116 Y0.40114
X1.06116 Y0.40014
X1.06216 Y0.40014
X1.06216 Y0.39914
X1.06516 Y0.39914
X1.06516 Y0.39814
X1.08416 Y0.39814
X1.08416 Y0.39914
X1.09016 Y0.39914
X1.09016 Y0.40214
X1.09116 Y0.40214
X1.09116 Y0.40614
X1.09216 Y0.40614
X1.09216 Y0.41114
X1.09316 Y0.41114
X1.09316 Y0.42414
X1.09416 Y0.42414
X1.09416 Y0.42514
X1.09516 Y0.42514
X1.09516 Y0.42814
X1.09416 Y0.42814
X1.09416 Y0.43014
X1.09116 Y0.43014
X1.09116 Y0.43114
X1.08916 Y0.43114
X1.08916 Y0.43214
X1.08416 Y0.43214
X1.08416 Y0.43314
X1.06716 Y0.43314
X1.06716 Y0.43414
X1.00316 Y0.43414
X1.00316 Y0.43314
X0.99916 Y0.43314
X0.99916 Y0.43214
X0.99616 Y0.43214
X0.99616 Y0.43114
X0.99316 Y0.43114
X0.99316 Y0.43014
G04 P0 ( dwell for no time -- G64 should not smooth over this point )
G00 Z0.19685 ( retract )

G00 X0.95816 Y0.42814 ( rapid move to begin. )
G01 Z-0.01969 F1.96850 ( plunge. )
G04 P0 ( dwell for no time -- G64 should not smooth over this point )
X0.95816 Y0.42814
X0.95616 Y0.42814
X0.95616 Y0.42714
X0.95316 Y0.42714
X0.95316 Y0.42514
X0.95216 Y0.42514
X0.95216 Y0.41814
X0.95016 Y0.41814
X0.95016 Y0.41714
X0.92316 Y0.41714
X0.92316 Y0.41614
X0.92216 Y0.41614
X0.92216 Y0.41514
X0.92016 Y0.41514
X0.92016 Y0.41414
X0.91916 Y0.41414
X0.91916 Y0.41314
X0.91816 Y0.41314
X0.91816 Y0.41214
X0.91716 Y0.41214
X0.91716 Y0.41114
X0.91416 Y0.41114
X0.91416 Y0.41014
X0.91016 Y0.41014
X0.91016 Y0.40914
X0.90816 Y0.40914
X0.90816 Y0.40714
X0.90716 Y0.40714
X0.90716 Y0.40414
X0.90616 Y0.40414
X0.90616 Y0.39814
X0.90716 Y0.39814
X0.90716 Y0.39714
X0.92616 Y0.39714
X0.92616 Y0.39814
X0.95616 Y0.39814
X0.95616 Y0.39714
X0.98016 Y0.39714
X0.98016 Y0.39814
X0.98316 Y0.39814
X0.98316 Y0.40014
X0.98416 Y0.40014
X0.98416 Y0.40314
X0.98516 Y0.40314
X0.98516 Y0.40714
X0.98616 Y0.40714
X0.98616 Y0.42014
X0.98716 Y0.42014
X0.98716 Y0.42314
X0.98816 Y0.42314
X0.98816 Y0.42814
X0.98916 Y0.42814
X0.98916 Y0.43014
X0.98616 Y0.43014
X0.98616 Y0.43114
X0.98416 Y0.43114
X0.98416 Y0.43214
X0.97916 Y0.43214
X0.97916 Y0.43314
X0.96716 Y0.43314
X0.96716 Y0.43214
X0.96416 Y0.43214
X0.96416 Y0.43114
X0.96216 Y0.43114
X0.96216 Y0.43014
X0.96016 Y0.43014
X0.96016 Y0.42914
X0.95816 Y0.42914
X0.95816 Y0.42814
G04 P0 ( dwell for no time -- G64 should not smooth over this point )
G00 Z0.19685 ( retract )

G00 X0.90216 Y0.42714 ( rapid move to begin. )
G01 Z-0.01969 F1.96850 ( plunge. )
G04 P0 ( dwell for no time -- G64 should not smooth over this point )
X0.90216 Y0.42714
X0.90216 Y0.42614
X0.90116 Y0.42614
X0.90116 Y0.42514
X0.90016 Y0.42514
X0.90016 Y0.42414
X0.89916 Y0.42414
X0.89916 Y0.42314
X0.89816 Y0.42314
X0.89816 Y0.42214
X0.89616 Y0.42214
X0.89616 Y0.42114
X0.89416 Y0.42114
X0.89416 Y0.42014
X0.89116 Y0.42014
X0.89116 Y0.41914
X0.88716 Y0.41914
X0.88716 Y0.41814
X0.88616 Y0.41814
X0.88616 Y0.41714
X0.88516 Y0.41714
X0.88516 Y0.41614
X0.88416 Y0.41614
X0.88416 Y0.41414
X0.88516 Y0.41414
X0.88516 Y0.41314
X0.88616 Y0.41314
X0.88616 Y0.41214
X0.88716 Y0.41214
X0.88716 Y0.41114
X0.89116 Y0.41114
X0.89116 Y0.41014
X0.89416 Y0.41014
X0.89416 Y0.40914
X0.89616 Y0.40914
X0.89616 Y0.40814
X0.89816 Y0.40814
X0.89816 Y0.40714
X0.89916 Y0.40714
X0.89916 Y0.40614
X0.90016 Y0.40614
X0.90016 Y0.40514
X0.90116 Y0.40514
X0.90116 Y0.40414
X0.90316 Y0.40414
X0.90316 Y0.40314
X0.90616 Y0.40314
X0.90616 Y0.40414
X0.90716 Y0.40414
X0.90716 Y0.40714
X0.90816 Y0.40714
X0.90816 Y0.40914
X0.91016 Y0.40914
X0.91016 Y0.41014
X0.91416 Y0.41014
X0.91416 Y0.41114
X0.91716 Y0.41114
X0.91716 Y0.41214
X0.91816 Y0.41214
X0.91816 Y0.41314
X0.91916 Y0.41314
X0.91916 Y0.41414
X0.92016 Y0.41414
X0.92016 Y0.41514
X0.92216 Y0.41514
X0.92216 Y0.41614
X0.92316 Y0.41614
X0.92316 Y0.41714
X0.95016 Y0.41714
X0.95016 Y0.41814
X0.95216 Y0.41814
X0.95216 Y0.42514
X0.95316 Y0.42514
X0.95316 Y0.42714
X0.95216 Y0.42714
X0.95216 Y0.42814
X0.92216 Y0.42814
X0.92216 Y0.42914
X0.92016 Y0.42914
X0.92016 Y0.43014
X0.91716 Y0.43014
X0.91716 Y0.43114
X0.91416 Y0.43114
X0.91416 Y0.43214
X0.90516 Y0.43214
X0.90516 Y0.43114
X0.90416 Y0.43114
X0.90416 Y0.43014
X0.90316 Y0.43014
X0.90316 Y0.42814
X0.90216 Y0.42814
X0.90216 Y0.42714
G04 P0 ( dwell for no time -- G64 should not smooth over this point )
G00 Z0.19685 ( retract )

G00 X0.68016 Y0.42714 ( rapid move to begin. )
G01 Z-0.01969 F1.96850 ( plunge. )
G04 P0 ( dwell for no time -- G64 should not smooth over this point )
X0.68016 Y0.42714
X0.68016 Y0.42614
X0.68116 Y0.42614
X0.68116 Y0.42514
X0.68216 Y0.42514
X0.68216 Y0.42414
X0.68316 Y0.42414
X0.68316 Y0.42314
X0.68416 Y0.42314
X0.68416 Y0.42214
X0.69016 Y0.42214
X0.69016 Y0.42114
X0.69216 Y0.42114
X0.69216 Y0.42014
X0.69416 Y0.42014
X0.69416 Y0.41914
X0.69516 Y0.41914
X0.69516 Y0.41814
X0.69716 Y0.41814
X0.69716 Y0.41714
X0.69916 Y0.41714
X0.69916 Y0.41614
X0.70116 Y0.41614
X0.70116 Y0.41514
X0.70216 Y0.41514
X0.70216 Y0.41414
X0.70316 Y0.41414
X0.70316 Y0.41314
X0.70416 Y0.41314
X0.70416 Y0.41114
X0.70516 Y0.41114
X0.70516 Y0.41014
X0.70616 Y0.41014
X0.70616 Y0.40914
X0.70716 Y0.40914
X0.70716 Y0.40814
X0.70816 Y0.40814
X0.70816 Y0.40714
X0.70916 Y0.40714
X0.70916 Y0.40514
X0.71016 Y0.40514
X0.71016 Y0.40014
X0.71116 Y0.40014
X0.71116 Y0.39614
X0.71216 Y0.39614
X0.71216 Y0.39514
X0.71316 Y0.39514
X0.71316 Y0.39414
X0.71516 Y0.39414
X0.71516 Y0.39514
X0.71616 Y0.39514
X0.71616 Y0.39614
X0.71716 Y0.39614
X0.71716 Y0.39714
X0.71916 Y0.39714
X0.71916 Y0.40014
X0.72016 Y0.40014
X0.72016 Y0.40114
X0.72116 Y0.40114
X0.72116 Y0.40214
X0.72216 Y0.40214
X0.72216 Y0.40414
X0.72316 Y0.40414
X0.72316 Y0.40514
X0.72416 Y0.40514
X0.72416 Y0.40614
X0.72516 Y0.40614
X0.72516 Y0.40714
X0.72616 Y0.40714
X0.72616 Y0.40814
X0.72816 Y0.40814
X0.72816 Y0.40914
X0.72916 Y0.40914
X0.72916 Y0.41014
X0.73216 Y0.41014
X0.73216 Y0.41114
X0.73716 Y0.41114
X0.73716 Y0.41214
X0.73816 Y0.41214
X0.73816 Y0.41314
X0.73916 Y0.41314
X0.73916 Y0.41414
X0.74016 Y0.41414
X0.74016 Y0.41614
X0.73916 Y0.41614
X0.73916 Y0.41714
X0.73816 Y0.41714
X0.73816 Y0.41814
X0.73716 Y0.41814
X0.73716 Y0.41914
X0.73216 Y0.41914
X0.73216 Y0.42014
X0.73016 Y0.42014
X0.73016 Y0.42114
X0.72816 Y0.42114
X0.72816 Y0.42214
X0.72616 Y0.42214
X0.72616 Y0.42314
X0.72516 Y0.42314
X0.72516 Y0.42414
X0.72416 Y0.42414
X0.72416 Y0.42614
X0.72316 Y0.42614
X0.72316 Y0.42714
X0.72216 Y0.42714
X0.72216 Y0.42814
X0.72116 Y0.42814
X0.72116 Y0.42914
X0.72016 Y0.42914
X0.72016 Y0.43014
X0.71916 Y0.43014
X0.71916 Y0.43114
X0.71816 Y0.43114
X0.71816 Y0.43214
X0.68316 Y0.43214
X0.68316 Y0.43114
X0.68216 Y0.43114
X0.68216 Y0.43014
X0.68116 Y0.43014
X0.68116 Y0.42914
X0.68016 Y0.42914
X0.68016 Y0.42714
G04 P0 ( dwell for no time -- G64 should not smooth over this point )
G00 Z0.19685 ( retract )

G00 X1.09316 Y0.41814 ( rapid move to begin. )
G01 Z-0.01969 F1.96850 ( plunge. )
G04 P0 ( dwell for no time -- G64 should not smooth over this point )
X1.09316 Y0.41814
X1.09316 Y0.41114
X1.09216 Y0.41114
X1.09216 Y0.40614
X1.09116 Y0.40614
X1.09116 Y0.40214
X1.09016 Y0.40214
X1.09016 Y0.39914
X1.12616 Y0.39914
X1.12616 Y0.40014
X1.12716 Y0.40014
X1.12716 Y0.40114
X1.12816 Y0.40114
X1.12816 Y0.40214
X1.13016 Y0.40214
X1.13016 Y0.40514
X1.12816 Y0.40514
X1.12816 Y0.40614
X1.12716 Y0.40614
X1.12716 Y0.40714
X1.12616 Y0.40714
X1.12616 Y0.40814
X1.12516 Y0.40814
X1.12516 Y0.40914
X1.11916 Y0.40914
X1.11916 Y0.41014
X1.11516 Y0.41014
X1.11516 Y0.41114
X1.11316 Y0.41114
X1.11316 Y0.41214
X1.11216 Y0.41214
X1.11216 Y0.41314
X1.11016 Y0.41314
X1.11016 Y0.41414
X1.10916 Y0.41414
X1.10916 Y0.41514
X1.10816 Y0.41514
X1.10816 Y0.41614
X1.10716 Y0.41614
X1.10716 Y0.41714
X1.10616 Y0.41714
X1.10616 Y0.41814
X1.10516 Y0.41814
X1.10516 Y0.42014
X1.10416 Y0.42014
X1.10416 Y0.42114
X1.10316 Y0.42114
X1.10316 Y0.42214
X1.10116 Y0.42214
X1.10116 Y0.42314
X1.09916 Y0.42314
X1.09916 Y0.42414
X1.09716 Y0.42414
X1.09716 Y0.42514
X1.09416 Y0.42514
X1.09416 Y0.42414
X1.09316 Y0.42414
X1.09316 Y0.41814
G04 P0 ( dwell for no time -- G64 should not smooth over this point )
G00 Z0.19685 ( retract )

G00 X1.17916 Y0.41214 ( rapid move to begin. )
G01 Z-0.01969 F1.96850 ( plunge. )
G04 P0 ( dwell for no time -- G64 should not smooth over this point )
X1.17916 Y0.41214
X1.17816 Y0.41214
X1.17816 Y0.41114
X1.17716 Y0.41114
X1.17716 Y0.41014
X1.17616 Y0.41014
X1.17616 Y0.40914
X1.17516 Y0.40914
X1.17516 Y0.40814
X1.17416 Y0.40814
X1.17416 Y0.40714
X1.17316 Y0.40714
X1.17316 Y0.40614
X1.17216 Y0.40614
X1.17216 Y0.40514
X1.17116 Y0.40514
X1.17116 Y0.40414
X1.17016 Y0.40414
X1.17016 Y0.40314
X1.16916 Y0.40314
X1.16916 Y0.40214
X1.16816 Y0.40214
X1.16816 Y0.40114
X1.16716 Y0.40114
X1.16716 Y0.40014
X1.16616 Y0.40014
X1.16616 Y0.39914
X1.16516 Y0.39914
X1.16516 Y0.39814
X1.16416 Y0.39814
X1.16416 Y0.39714
X1.16316 Y0.39714
X1.16316 Y0.39614
X1.16216 Y0.39614
X1.16216 Y0.39514
X1.16116 Y0.39514
X1.16116 Y0.39414
X1.16016 Y0.39414
X1.16016 Y0.39314
X1.15916 Y0.39314
X1.15916 Y0.39214
X1.15816 Y0.39214
X1.15816 Y0.39114
X1.15716 Y0.39114
X1.15716 Y0.39014
X1.15616 Y0.39014
X1.15616 Y0.38914
X1.15516 Y0.38914
X1.15516 Y0.38814
X1.15416 Y0.38814
X1.15416 Y0.38714
X1.15316 Y0.38714
X1.15316 Y0.38614
X1.15216 Y0.38614
X1.15216 Y0.38514
X1.15016 Y0.38514
X1.15016 Y0.38414
X1.14916 Y0.38414
X1.14916 Y0.38314
X1.14516 Y0.38314
X1.14516 Y0.38214
X1.13316 Y0.38214
X1.13316 Y0.38114
X1.13216 Y0.38114
X1.13216 Y0.38014
X1.13116 Y0.38014
X1.13116 Y0.37914
X1.12916 Y0.37914
X1.12916 Y0.37614
X1.13016 Y0.37614
X1.13016 Y0.37514
X1.13116 Y0.37514
X1.13116 Y0.37414
X1.13216 Y0.37414
X1.13216 Y0.37314
X1.13316 Y0.37314
X1.13316 Y0.37214
X1.13816 Y0.37214
X1.13816 Y0.37114
X1.13916 Y0.37114
X1.13916 Y0.37014
X1.14416 Y0.37014
X1.14416 Y0.36914
X1.14516 Y0.36914
X1.14516 Y0.36814
X1.14716 Y0.36814
X1.14716 Y0.36714
X1.14916 Y0.36714
X1.14916 Y0.36614
X1.15016 Y0.36614
X1.15016 Y0.36514
X1.15116 Y0.36514
X1.15116 Y0.36414
X1.15216 Y0.36414
X1.15216 Y0.36314
X1.15316 Y0.36314
X1.15316 Y0.36214
X1.15416 Y0.36214
X1.15416 Y0.36114
X1.15516 Y0.36114
X1.15516 Y0.36014
X1.15616 Y0.36014
X1.15616 Y0.35814
X1.15716 Y0.35814
X1.15716 Y0.35714
X1.15816 Y0.35714
X1.15816 Y0.35414
X1.15916 Y0.35414
X1.15916 Y0.35214
X1.16016 Y0.35214
X1.16016 Y0.34914
X1.16116 Y0.34914
X1.16116 Y0.34314
X1.44416 Y0.34314
X1.44416 Y0.34414
X1.44716 Y0.34414
X1.44716 Y0.34514
X1.44916 Y0.34514
X1.44916 Y0.34614
X1.45016 Y0.34614
X1.45016 Y0.34714
X1.45116 Y0.34714
X1.45116 Y0.34814
X1.45216 Y0.34814
X1.45216 Y0.34914
X1.45316 Y0.34914
X1.45316 Y0.35014
X1.45416 Y0.35014
X1.45416 Y0.35114
X1.45516 Y0.35114
X1.45516 Y0.35214
X1.45616 Y0.35214
X1.45616 Y0.35314
X1.45716 Y0.35314
X1.45716 Y0.35414
X1.45816 Y0.35414
X1.45816 Y0.35514
X1.45916 Y0.35514
X1.45916 Y0.35614
X1.46016 Y0.35614
X1.46016 Y0.35714
X1.46116 Y0.35714
X1.46116 Y0.35814
X1.46216 Y0.35814
X1.46216 Y0.35914
X1.46316 Y0.35914
X1.46316 Y0.36014
X1.46416 Y0.36014
X1.46416 Y0.36114
X1.46516 Y0.36114
X1.46516 Y0.36214
X1.46616 Y0.36214
X1.46616 Y0.36314
X1.46716 Y0.36314
X1.46716 Y0.36414
X1.46816 Y0.36414
X1.46816 Y0.36514
X1.46916 Y0.36514
X1.46916 Y0.36614
X1.47016 Y0.36614
X1.47016 Y0.36714
X1.47116 Y0.36714
X1.47116 Y0.36814
X1.47216 Y0.36814
X1.47216 Y0.36914
X1.47316 Y0.36914
X1.47316 Y0.37014
X1.47416 Y0.37014
X1.47416 Y0.37114
X1.47516 Y0.37114
X1.47516 Y0.37214
X1.47616 Y0.37214
X1.47616 Y0.37314
X1.47716 Y0.37314
X1.47716 Y0.37414
X1.47816 Y0.37414
X1.47816 Y0.37514
X1.47916 Y0.37514
X1.47916 Y0.37614
X1.48016 Y0.37614
X1.48016 Y0.37714
X1.48116 Y0.37714
X1.48116 Y0.37814
X1.48216 Y0.37814
X1.48216 Y0.37914
X1.48316 Y0.37914
X1.48316 Y0.38014
X1.48416 Y0.38014
X1.48416 Y0.38114
X1.48516 Y0.38114
X1.48516 Y0.38214
X1.48616 Y0.38214
X1.48616 Y0.38314
X1.48716 Y0.38314
X1.48716 Y0.38414
X1.48816 Y0.38414
X1.48816 Y0.38514
X1.48916 Y0.38514
X1.48916 Y0.38614
X1.49016 Y0.38614
X1.49016 Y0.38714
X1.49116 Y0.38714
X1.49116 Y0.38814
X1.49216 Y0.38814
X1.49216 Y0.38914
X1.49316 Y0.38914
X1.49316 Y0.39014
X1.49416 Y0.39014
X1.49416 Y0.39114
X1.49516 Y0.39114
X1.49516 Y0.39214
X1.49916 Y0.39214
X1.49916 Y0.39314
X1.50316 Y0.39314
X1.50316 Y0.39414
X1.50416 Y0.39414
X1.50416 Y0.39514
X1.50516 Y0.39514
X1.50516 Y0.39614
X1.50616 Y0.39614
X1.50616 Y0.39714
X1.50716 Y0.39714
X1.50716 Y0.39814
X1.50816 Y0.39814
X1.50816 Y0.40014
X1.50716 Y0.40014
X1.50716 Y0.40114
X1.50616 Y0.40114
X1.50616 Y0.40214
X1.50516 Y0.40214
X1.50516 Y0.40314
X1.50416 Y0.40314
X1.50416 Y0.40514
X1.50116 Y0.40514
X1.50116 Y0.40614
X1.49916 Y0.40614
X1.49916 Y0.40714
X1.49716 Y0.40714
X1.49716 Y0.40814
X1.49516 Y0.40814
X1.49516 Y0.40914
X1.49316 Y0.40914
X1.49316 Y0.41014
X1.49216 Y0.41014
X1.49216 Y0.41114
X1.49016 Y0.41114
X1.49016 Y0.41214
X1.48816 Y0.41214
X1.48816 Y0.41414
X1.48716 Y0.41414
X1.48716 Y0.41514
X1.48616 Y0.41514
X1.48616 Y0.41614
X1.48516 Y0.41614
X1.48516 Y0.41714
X1.18416 Y0.41714
X1.18416 Y0.41614
X1.18216 Y0.41614
X1.18216 Y0.41514
X1.18116 Y0.41514
X1.18116 Y0.41414
X1.18016 Y0.41414
X1.18016 Y0.41314
X1.17916 Y0.41314
X1.17916 Y0.41214
G04 P0 ( dwell for no time -- G64 should not smooth over this point )
G00 Z0.19685 ( retract )

G00 X1.13016 Y0.40414 ( rapid move to begin. )
G01 Z-0.01969 F1.96850 ( plunge. )
G04 P0 ( dwell for no time -- G64 should not smooth over this point )
X1.13016 Y0.40414
X1.13016 Y0.40214
X1.13116 Y0.40214
X1.13116 Y0.40114
X1.13216 Y0.40114
X1.13216 Y0.40014
X1.13316 Y0.40014
X1.13316 Y0.39914
X1.14016 Y0.39914
X1.14016 Y0.40014
X1.14316 Y0.40014
X1.14316 Y0.40114
X1.14416 Y0.40114
X1.14416 Y0.40414
X1.14516 Y0.40414
X1.14516 Y0.40714
X1.14616 Y0.40714
X1.14616 Y0.40914
X1.13416 Y0.40914
X1.13416 Y0.40814
X1.13316 Y0.40814
X1.13316 Y0.40714
X1.13216 Y0.40714
X1.13216 Y0.40614
X1.13116 Y0.40614
X1.13116 Y0.40514
X1.13016 Y0.40514
X1.13016 Y0.40414
G04 P0 ( dwell for no time -- G64 should not smooth over this point )
G00 Z0.19685 ( retract )

G00 X1.49216 Y0.38814 ( rapid move to begin. )
G01 Z-0.01969 F1.96850 ( plunge. )
G04 P0 ( dwell for no time -- G64 should not smooth over this point )
X1.49216 Y0.38814
X1.49116 Y0.38814
X1.49116 Y0.38714
X1.49016 Y0.38714
X1.49016 Y0.38614
X1.48916 Y0.38614
X1.48916 Y0.38514
X1.48816 Y0.38514
X1.48816 Y0.38414
X1.48716 Y0.38414
X1.48716 Y0.38314
X1.48616 Y0.38314
X1.48616 Y0.38214
X1.48516 Y0.38214
X1.48516 Y0.38114
X1.48416 Y0.38114
X1.48416 Y0.38014
X1.48316 Y0.38014
X1.48316 Y0.37914
X1.48216 Y0.37914
X1.48216 Y0.37814
X1.48116 Y0.37814
X1.48116 Y0.37714
X1.48016 Y0.37714
X1.48016 Y0.37614
X1.47916 Y0.37614
X1.47916 Y0.37514
X1.47816 Y0.37514
X1.47816 Y0.37414
X1.47716 Y0.37414
X1.47716 Y0.37314
X1.47616 Y0.37314
X1.47616 Y0.37214
X1.47516 Y0.37214
X1.47516 Y0.37114
X1.47416 Y0.37114
X1.47416 Y0.37014
X1.47316 Y0.37014
X1.47316 Y0.36914
X1.47216 Y0.36914
X1.47216 Y0.36814
X1.47116 Y0.36814
X1.47116 Y0.36714
X1.47016 Y0.36714
X1.47016 Y0.36614
X1.46916 Y0.36614
X1.46916 Y0.36514
X1.46816 Y0.36514
X1.46816 Y0.36414
X1.46716 Y0.36414
X1.46716 Y0.36314
X1.46616 Y0.36314
X1.46616 Y0.36214
X1.46516 Y0.36214
X1.46516 Y0.36114
X1.46416 Y0.36114
X1.46416 Y0.36014
X1.46316 Y0.36014
X1.46316 Y0.35914
X1.46216 Y0.35914
X1.46216 Y0.35814
X1.46116 Y0.35814
X1.46116 Y0.35714
X1.46016 Y0.35714
X1.46016 Y0.35614
X1.45916 Y0.35614
X1.45916 Y0.35514
X1.45816 Y0.35514
X1.45816 Y0.35414
X1.45716 Y0.35414
X1.45716 Y0.35314
X1.45616 Y0.35314
X1.45616 Y0.35214
X1.45516 Y0.35214
X1.45516 Y0.35114
X1.45416 Y0.35114
X1.45416 Y0.35014
X1.45316 Y0.35014
X1.45316 Y0.34914
X1.45216 Y0.34914
X1.45216 Y0.34814
X1.45116 Y0.34814
X1.45116 Y0.34714
X1.45016 Y0.34714
X1.45016 Y0.34614
X1.44916 Y0.34614
X1.44916 Y0.34514
X1.44716 Y0.34514
X1.44716 Y0.34414
X1.44416 Y0.34414
X1.44416 Y0.34314
X1.16116 Y0.34314
X1.16116 Y0.34914
X1.16016 Y0.34914
X1.16016 Y0.35214
X1.15916 Y0.35214
X1.15916 Y0.35414
X1.15816 Y0.35414
X1.15816 Y0.35714
X1.15716 Y0.35714
X1.15716 Y0.35814
X1.15616 Y0.35814
X1.15616 Y0.36014
X1.15516 Y0.36014
X1.15516 Y0.36114
X1.15416 Y0.36114
X1.15416 Y0.36214
X1.15316 Y0.36214
X1.15316 Y0.36314
X1.15216 Y0.36314
X1.15216 Y0.36414
X1.15116 Y0.36414
X1.15116 Y0.36514
X1.15016 Y0.36514
X1.15016 Y0.36614
X1.14916 Y0.36614
X1.14916 Y0.36714
X1.14716 Y0.36714
X1.14716 Y0.36814
X1.14516 Y0.36814
X1.14516 Y0.36914
X1.14416 Y0.36914
X1.14416 Y0.37014
X1.13916 Y0.37014
X1.13916 Y0.37114
X1.13816 Y0.37114
X1.13816 Y0.37214
X1.13316 Y0.37214
X1.13316 Y0.37314
X1.13216 Y0.37314
X1.13216 Y0.37414
X1.13116 Y0.37414
X1.13116 Y0.37514
X1.13016 Y0.37514
X1.13016 Y0.37614
X1.12816 Y0.37614
X1.12816 Y0.37514
X1.12716 Y0.37514
X1.12716 Y0.37414
X1.12616 Y0.37414
X1.12616 Y0.37314
X1.12516 Y0.37314
X1.12516 Y0.37214
X1.11916 Y0.37214
X1.11916 Y0.37114
X1.11716 Y0.37114
X1.11716 Y0.37014
X1.11516 Y0.37014
X1.11516 Y0.36914
X1.11416 Y0.36914
X1.11416 Y0.36814
X1.11216 Y0.36814
X1.11216 Y0.36714
X1.11016 Y0.36714
X1.11016 Y0.36614
X1.10816 Y0.36614
X1.10816 Y0.36514
X1.10716 Y0.36514
X1.10716 Y0.36414
X1.10616 Y0.36414
X1.10616 Y0.36314
X1.10516 Y0.36314
X1.10516 Y0.36114
X1.10416 Y0.36114
X1.10416 Y0.36014
X1.10316 Y0.36014
X1.10316 Y0.35814
X1.10216 Y0.35814
X1.10216 Y0.35714
X1.10116 Y0.35714
X1.10116 Y0.35514
X1.10016 Y0.35514
X1.10016 Y0.35314
X1.09916 Y0.35314
X1.09916 Y0.35014
X1.09816 Y0.35014
X1.09816 Y0.34414
X1.09716 Y0.34414
X1.09716 Y0.33914
X1.01316 Y0.33914
X1.01316 Y0.33814
X1.01016 Y0.33814
X1.01016 Y0.33714
X1.00716 Y0.33714
X1.00716 Y0.33614
X1.00616 Y0.33614
X1.00616 Y0.33514
X1.00416 Y0.33514
X1.00416 Y0.33414
X1.00116 Y0.33414
X1.00116 Y0.33314
X0.99816 Y0.33314
X0.99816 Y0.33214
X0.99416 Y0.33214
X0.99416 Y0.33014
X0.99316 Y0.33014
X0.99316 Y0.32714
X0.99216 Y0.32714
X0.99216 Y0.32414
X0.99116 Y0.32414
X0.99116 Y0.32314
X0.99016 Y0.32314
X0.99016 Y0.32214
X0.98916 Y0.32214
X0.98916 Y0.32014
X0.98816 Y0.32014
X0.98816 Y0.31814
X0.98716 Y0.31814
X0.98716 Y0.30914
X0.98616 Y0.30914
X0.98616 Y0.30614
X0.98516 Y0.30614
X0.98516 Y0.30314
X0.98416 Y0.30314
X0.98416 Y0.29714
X0.95616 Y0.29714
X0.95616 Y0.29814
X0.92616 Y0.29814
X0.92616 Y0.29714
X0.90716 Y0.29714
X0.90716 Y0.29814
X0.90616 Y0.29814
X0.90616 Y0.30214
X0.90516 Y0.30214
X0.90516 Y0.30314
X0.90316 Y0.30314
X0.90316 Y0.30414
X0.90116 Y0.30414
X0.90116 Y0.30514
X0.90016 Y0.30514
X0.90016 Y0.30614
X0.89916 Y0.30614
X0.89916 Y0.30714
X0.89816 Y0.30714
X0.89816 Y0.30814
X0.89616 Y0.30814
X0.89616 Y0.30914
X0.89416 Y0.30914
X0.89416 Y0.31014
X0.89116 Y0.31014
X0.89116 Y0.31114
X0.88716 Y0.31114
X0.88716 Y0.31214
X0.88616 Y0.31214
X0.88616 Y0.31314
X0.88516 Y0.31314
X0.88516 Y0.31414
X0.88416 Y0.31414
X0.88416 Y0.31514
X0.74016 Y0.31514
X0.74016 Y0.31414
X0.73916 Y0.31414
X0.73916 Y0.31314
X0.73816 Y0.31314
X0.73816 Y0.31214
X0.73716 Y0.31214
X0.73716 Y0.31114
X0.73216 Y0.31114
X0.73216 Y0.31014
X0.72516 Y0.31014
X0.72516 Y0.31214
X0.72416 Y0.31214
X0.72416 Y0.31314
X0.72316 Y0.31314
X0.72316 Y0.31414
X0.72216 Y0.31414
X0.72216 Y0.31514
X0.72116 Y0.31514
X0.72116 Y0.31614
X0.72016 Y0.31614
X0.72016 Y0.31914
X0.71716 Y0.31914
X0.71716 Y0.32014
X0.71616 Y0.32014
X0.71616 Y0.32114
X0.71516 Y0.32114
X0.71516 Y0.32214
X0.71416 Y0.32214
X0.71416 Y0.32314
X0.71316 Y0.32314
X0.71316 Y0.32414
X0.71016 Y0.32414
X0.71016 Y0.32714
X0.70916 Y0.32714
X0.70916 Y0.33014
X0.70816 Y0.33014
X0.70816 Y0.33314
X0.70616 Y0.33314
X0.70616 Y0.33414
X0.70516 Y0.33414
X0.70516 Y0.33514
X0.70416 Y0.33514
X0.70416 Y0.33614
X0.70316 Y0.33614
X0.70316 Y0.33714
X0.70216 Y0.33714
X0.70216 Y0.33814
X0.70116 Y0.33814
X0.70116 Y0.33914
X0.70016 Y0.33914
X0.70016 Y0.34014
X0.69916 Y0.34014
X0.69916 Y0.34114
X0.69816 Y0.34114
X0.69816 Y0.34214
X0.69716 Y0.34214
X0.69716 Y0.34314
X0.69616 Y0.34314
X0.69616 Y0.34414
X0.69516 Y0.34414
X0.69516 Y0.34514
X0.69416 Y0.34514
X0.69416 Y0.34614
X0.69316 Y0.34614
X0.69316 Y0.34714
X0.69216 Y0.34714
X0.69216 Y0.34814
X0.69116 Y0.34814
X0.69116 Y0.34914
X0.68816 Y0.34914
X0.68816 Y0.35014
X0.68516 Y0.35014
X0.68516 Y0.35114
X0.68216 Y0.35114
X0.68216 Y0.35214
X0.67916 Y0.35214
X0.67916 Y0.35314
X0.61516 Y0.35314
X0.61516 Y0.35414
X0.61416 Y0.35414
X0.61416 Y0.35614
X0.61316 Y0.35614
X0.61316 Y0.35814
X0.61216 Y0.35814
X0.61216 Y0.36014
X0.61116 Y0.36014
X0.61116 Y0.36114
X0.61016 Y0.36114
X0.61016 Y0.36214
X0.60916 Y0.36214
X0.60916 Y0.36314
X0.60816 Y0.36314
X0.60816 Y0.36414
X0.60716 Y0.36414
X0.60716 Y0.36514
X0.60616 Y0.36514
X0.60616 Y0.36614
X0.60516 Y0.36614
X0.60516 Y0.36714
X0.60416 Y0.36714
X0.60416 Y0.36814
X0.60316 Y0.36814
X0.60316 Y0.36914
X0.60216 Y0.36914
X0.60216 Y0.37014
X0.60016 Y0.37014
X0.60016 Y0.37114
X0.59816 Y0.37114
X0.59816 Y0.37214
X0.59716 Y0.37214
X0.59716 Y0.37314
X0.59516 Y0.37314
X0.59516 Y0.37414
X0.59316 Y0.37414
X0.59316 Y0.37514
X0.59216 Y0.37514
X0.59216 Y0.37614
X0.58816 Y0.37614
X0.58816 Y0.37714
X0.57216 Y0.37714
X0.57216 Y0.37614
X0.56816 Y0.37614
X0.56816 Y0.37514
X0.56616 Y0.37514
X0.56616 Y0.37414
X0.56416 Y0.37414
X0.56416 Y0.37314
X0.56216 Y0.37314
X0.56216 Y0.37214
X0.56116 Y0.37214
X0.56116 Y0.37114
X0.55916 Y0.37114
X0.55916 Y0.37014
X0.55816 Y0.37014
X0.55816 Y0.36914
X0.55716 Y0.36914
X0.55716 Y0.36814
X0.55616 Y0.36814
X0.55616 Y0.36714
X0.55516 Y0.36714
X0.55516 Y0.36614
X0.55416 Y0.36614
X0.55416 Y0.36514
X0.55316 Y0.36514
X0.55316 Y0.36414
X0.55216 Y0.36414
X0.55216 Y0.36314
X0.55116 Y0.36314
X0.55116 Y0.36214
X0.55016 Y0.36214
X0.55016 Y0.36114
X0.54916 Y0.36114
X0.54916 Y0.35914
X0.54816 Y0.35914
X0.54816 Y0.35814
X0.54716 Y0.35814
X0.54716 Y0.35614
X0.54616 Y0.35614
X0.54616 Y0.35414
X0.54516 Y0.35414
X0.54516 Y0.35214
X0.54416 Y0.35214
X0.54416 Y0.34814
X0.54316 Y0.34814
X0.54316 Y0.33214
X0.54416 Y0.33214
X0.54416 Y0.32814
X0.54516 Y0.32814
X0.54516 Y0.32714
X0.54616 Y0.32714
X0.54616 Y0.32514
X0.54716 Y0.32514
X0.54716 Y0.32314
X0.54816 Y0.32314
X0.54816 Y0.32214
X0.54916 Y0.32214
X0.54916 Y0.32014
X0.55016 Y0.32014
