( pcb2gcode 1.1.4 )

G94     ( Inches per minute feed rate. )
G20     ( Units == INCHES.             )
G90     ( Absolute coordinates.        )
S10000  ( RPM spindle speed.           )
M3      ( Spindle on clockwise.        )

G64 P0.00500 ( set maximum deviation from commanded toolpath )

G04 P0 ( dwell for no time -- G64 should not smooth over this point )
G00 Z0.19685 ( retract )

G00 X1.68600 Y0.71714 ( rapid move to begin. )
G01 Z-0.01969 F1.96850 ( plunge. )
G04 P0 ( dwell for no time -- G64 should not smooth over this point )
X1.68600 Y0.71714
X1.68700 Y0.71714
X1.68700 Y0.71614
X1.68800 Y0.71614
X1.68800 Y0.02014
X1.68700 Y0.02014
X1.68700 Y0.01914
X1.68600 Y0.01914
X1.68600 Y0.01814
X0.02000 Y0.01814
X0.02000 Y0.01914
X0.01900 Y0.01914
X0.01900 Y0.02014
X0.01800 Y0.02014
X0.01800 Y0.71614
X0.01900 Y0.71614
X0.01900 Y0.71714
X0.02000 Y0.71714
X0.02000 Y0.71814
X1.68600 Y0.71814
X1.68600 Y0.71714
G04 P0 ( dwell for no time -- G64 should not smooth over this point )
G00 Z0.19685 ( retract )

G00 X0.13100 Y0.57014 ( rapid move to begin. )
G01 Z-0.01969 F1.96850 ( plunge. )
G04 P0 ( dwell for no time -- G64 should not smooth over this point )
X0.13100 Y0.57014
X0.13100 Y0.50014
X0.05000 Y0.50014
X0.05000 Y0.58014
X0.05100 Y0.58014
X0.05100 Y0.58114
X0.13000 Y0.58114
X0.13000 Y0.58014
X0.13100 Y0.58014
X0.13100 Y0.57014
G04 P0 ( dwell for no time -- G64 should not smooth over this point )
G00 Z0.19685 ( retract )

G00 X0.22300 Y0.57014 ( rapid move to begin. )
G01 Z-0.01969 F1.96850 ( plunge. )
G04 P0 ( dwell for no time -- G64 should not smooth over this point )
X0.22300 Y0.57014
X0.22400 Y0.57014
X0.22400 Y0.56814
X0.22500 Y0.56814
X0.22500 Y0.56714
X0.22600 Y0.56714
X0.22600 Y0.56514
X0.22700 Y0.56514
X0.22700 Y0.56414
X0.22800 Y0.56414
X0.22800 Y0.56214
X0.22900 Y0.56214
X0.22900 Y0.55914
X0.23000 Y0.55914
X0.23000 Y0.55414
X0.23100 Y0.55414
X0.23100 Y0.52714
X0.23000 Y0.52714
X0.23000 Y0.52214
X0.22900 Y0.52214
X0.22900 Y0.51814
X0.22800 Y0.51814
X0.22800 Y0.51614
X0.22700 Y0.51614
X0.22700 Y0.51514
X0.22600 Y0.51514
X0.22600 Y0.51314
X0.22500 Y0.51314
X0.22500 Y0.51214
X0.22400 Y0.51214
X0.22400 Y0.51114
X0.22300 Y0.51114
X0.22300 Y0.51014
X0.22200 Y0.51014
X0.22200 Y0.50914
X0.22100 Y0.50914
X0.22100 Y0.50814
X0.22000 Y0.50814
X0.22000 Y0.50714
X0.21900 Y0.50714
X0.21900 Y0.50614
X0.21800 Y0.50614
X0.21800 Y0.50514
X0.21700 Y0.50514
X0.21700 Y0.50414
X0.21500 Y0.50414
X0.21500 Y0.50314
X0.21300 Y0.50314
X0.21300 Y0.50214
X0.21000 Y0.50214
X0.21000 Y0.50114
X0.20400 Y0.50114
X0.20400 Y0.50014
X0.17700 Y0.50014
X0.17700 Y0.50114
X0.17100 Y0.50114
X0.17100 Y0.50214
X0.16800 Y0.50214
X0.16800 Y0.50314
X0.16600 Y0.50314
X0.16600 Y0.50414
X0.16400 Y0.50414
X0.16400 Y0.50514
X0.16300 Y0.50514
X0.16300 Y0.50614
X0.16100 Y0.50614
X0.16100 Y0.50714
X0.16000 Y0.50714
X0.16000 Y0.50814
X0.15900 Y0.50814
X0.15900 Y0.50914
X0.15800 Y0.50914
X0.15800 Y0.51014
X0.15700 Y0.51014
X0.15700 Y0.51114
X0.15600 Y0.51114
X0.15600 Y0.51314
X0.15500 Y0.51314
X0.15500 Y0.51414
X0.15400 Y0.51414
X0.15400 Y0.51614
X0.15300 Y0.51614
X0.15300 Y0.51714
X0.15200 Y0.51714
X0.15200 Y0.52214
X0.15100 Y0.52214
X0.15100 Y0.52714
X0.15000 Y0.52714
X0.15000 Y0.55414
X0.15100 Y0.55414
X0.15100 Y0.55914
X0.15200 Y0.55914
X0.15200 Y0.56314
X0.15300 Y0.56314
X0.15300 Y0.56514
X0.15400 Y0.56514
X0.15400 Y0.56714
X0.15500 Y0.56714
X0.15500 Y0.56814
X0.15600 Y0.56814
X0.15600 Y0.56914
X0.15700 Y0.56914
X0.15700 Y0.57014
X0.15800 Y0.57014
X0.15800 Y0.57114
X0.15900 Y0.57114
X0.15900 Y0.57214
X0.16000 Y0.57214
X0.16000 Y0.57314
X0.16100 Y0.57314
X0.16100 Y0.57414
X0.16200 Y0.57414
X0.16200 Y0.57514
X0.16300 Y0.57514
X0.16300 Y0.57614
X0.16500 Y0.57614
X0.16500 Y0.57714
X0.16600 Y0.57714
X0.16600 Y0.57814
X0.16800 Y0.57814
X0.16800 Y0.57914
X0.17100 Y0.57914
X0.17100 Y0.58014
X0.17700 Y0.58014
X0.17700 Y0.58114
X0.20400 Y0.58114
X0.20400 Y0.58014
X0.21000 Y0.58014
X0.21000 Y0.57914
X0.21200 Y0.57914
X0.21200 Y0.57814
X0.21400 Y0.57814
X0.21400 Y0.57714
X0.21500 Y0.57714
X0.21500 Y0.57614
X0.21700 Y0.57614
X0.21700 Y0.57514
X0.21800 Y0.57514
X0.21800 Y0.57414
X0.22000 Y0.57414
X0.22000 Y0.57314
X0.22100 Y0.57314
X0.22100 Y0.57214
X0.22200 Y0.57214
X0.22200 Y0.57114
X0.22300 Y0.57114
X0.22300 Y0.57014
G04 P0 ( dwell for no time -- G64 should not smooth over this point )
G00 Z0.19685 ( retract )

G00 X0.59900 Y0.56714 ( rapid move to begin. )
G01 Z-0.01969 F1.96850 ( plunge. )
G04 P0 ( dwell for no time -- G64 should not smooth over this point )
X0.59900 Y0.56714
X0.60000 Y0.56714
X0.60000 Y0.56614
X0.60100 Y0.56614
X0.60100 Y0.56514
X0.60200 Y0.56514
X0.60200 Y0.56414
X0.60300 Y0.56414
X0.60300 Y0.56314
X0.60400 Y0.56314
X0.60400 Y0.56214
X0.60500 Y0.56214
X0.60500 Y0.56114
X0.60600 Y0.56114
X0.60600 Y0.55914
X0.60700 Y0.55914
X0.60700 Y0.55814
X0.60800 Y0.55814
X0.60800 Y0.55614
X0.60900 Y0.55614
X0.60900 Y0.55414
X0.61000 Y0.55414
X0.61000 Y0.55214
X0.61100 Y0.55214
X0.61100 Y0.54814
X0.61200 Y0.54814
X0.61200 Y0.53214
X0.61100 Y0.53214
X0.61100 Y0.52814
X0.61000 Y0.52814
X0.61000 Y0.52714
X0.60900 Y0.52714
X0.60900 Y0.52514
X0.60800 Y0.52514
X0.60800 Y0.52314
X0.60700 Y0.52314
X0.60700 Y0.52214
X0.60600 Y0.52214
X0.60600 Y0.52014
X0.60500 Y0.52014
X0.60500 Y0.51814
X0.60400 Y0.51814
X0.60400 Y0.51714
X0.60300 Y0.51714
X0.60300 Y0.51614
X0.60200 Y0.51614
X0.60200 Y0.51514
X0.60100 Y0.51514
X0.60100 Y0.51314
X0.60000 Y0.51314
X0.60000 Y0.51214
X0.59900 Y0.51214
X0.59900 Y0.51114
X0.59800 Y0.51114
X0.59800 Y0.51014
X0.59600 Y0.51014
X0.59600 Y0.50914
X0.59500 Y0.50914
X0.59500 Y0.50814
X0.59300 Y0.50814
X0.59300 Y0.50714
X0.59100 Y0.50714
X0.59100 Y0.50614
X0.58800 Y0.50614
X0.58800 Y0.50514
X0.58400 Y0.50514
X0.58400 Y0.50414
X0.57800 Y0.50414
X0.57800 Y0.50314
X0.57300 Y0.50314
X0.57300 Y0.50414
X0.56700 Y0.50414
X0.56700 Y0.50514
X0.56300 Y0.50514
X0.56300 Y0.50614
X0.56000 Y0.50614
X0.56000 Y0.50714
X0.55800 Y0.50714
X0.55800 Y0.50814
X0.55600 Y0.50814
X0.55600 Y0.50914
X0.55500 Y0.50914
X0.55500 Y0.51014
X0.55300 Y0.51014
X0.55300 Y0.51114
X0.55200 Y0.51114
X0.55200 Y0.51214
X0.55100 Y0.51214
X0.55100 Y0.51314
X0.55000 Y0.51314
X0.55000 Y0.51414
X0.54900 Y0.51414
X0.54900 Y0.51514
X0.54800 Y0.51514
X0.54800 Y0.51614
X0.54700 Y0.51614
X0.54700 Y0.51714
X0.54600 Y0.51714
X0.54600 Y0.51814
X0.54500 Y0.51814
X0.54500 Y0.52014
X0.54400 Y0.52014
X0.54400 Y0.52114
X0.54300 Y0.52114
X0.54300 Y0.52314
X0.54200 Y0.52314
X0.54200 Y0.52514
X0.54100 Y0.52514
X0.54100 Y0.52814
X0.54000 Y0.52814
X0.54000 Y0.53214
X0.53900 Y0.53214
X0.53900 Y0.53814
X0.53800 Y0.53814
X0.53800 Y0.54314
X0.53900 Y0.54314
X0.53900 Y0.54914
X0.54000 Y0.54914
X0.54000 Y0.55314
X0.54100 Y0.55314
X0.54100 Y0.55614
X0.54200 Y0.55614
X0.54200 Y0.55814
X0.54300 Y0.55814
X0.54300 Y0.56014
X0.54400 Y0.56014
X0.54400 Y0.56114
X0.54500 Y0.56114
X0.54500 Y0.56214
X0.54600 Y0.56214
X0.54600 Y0.56314
X0.54700 Y0.56314
X0.54700 Y0.56414
X0.54800 Y0.56414
X0.54800 Y0.56514
X0.54900 Y0.56514
X0.54900 Y0.56614
X0.55000 Y0.56614
X0.55000 Y0.56714
X0.55100 Y0.56714
X0.55100 Y0.56814
X0.55200 Y0.56814
X0.55200 Y0.56914
X0.55300 Y0.56914
X0.55300 Y0.57014
X0.55500 Y0.57014
X0.55500 Y0.57114
X0.55700 Y0.57114
X0.55700 Y0.57214
X0.55800 Y0.57214
X0.55800 Y0.57314
X0.56000 Y0.57314
X0.56000 Y0.57414
X0.56200 Y0.57414
X0.56200 Y0.57514
X0.56300 Y0.57514
X0.56300 Y0.57614
X0.56700 Y0.57614
X0.56700 Y0.57714
X0.58300 Y0.57714
X0.58300 Y0.57614
X0.58700 Y0.57614
X0.58700 Y0.57514
X0.58900 Y0.57514
X0.58900 Y0.57414
X0.59100 Y0.57414
X0.59100 Y0.57314
X0.59300 Y0.57314
X0.59300 Y0.57214
X0.59400 Y0.57214
X0.59400 Y0.57114
X0.59600 Y0.57114
X0.59600 Y0.57014
X0.59700 Y0.57014
X0.59700 Y0.56914
X0.59800 Y0.56914
X0.59800 Y0.56814
X0.59900 Y0.56814
X0.59900 Y0.56714
G04 P0 ( dwell for no time -- G64 should not smooth over this point )
G00 Z0.19685 ( retract )

G00 X1.14900 Y0.56714 ( rapid move to begin. )
G01 Z-0.01969 F1.96850 ( plunge. )
G04 P0 ( dwell for no time -- G64 should not smooth over this point )
X1.14900 Y0.56714
X1.15000 Y0.56714
X1.15000 Y0.56614
X1.15100 Y0.56614
X1.15100 Y0.56514
X1.15200 Y0.56514
X1.15200 Y0.56414
X1.15300 Y0.56414
X1.15300 Y0.56314
X1.15400 Y0.56314
X1.15400 Y0.56214
X1.15500 Y0.56214
X1.15500 Y0.56114
X1.15600 Y0.56114
X1.15600 Y0.55914
X1.15700 Y0.55914
X1.15700 Y0.55814
X1.15800 Y0.55814
X1.15800 Y0.55614
X1.15900 Y0.55614
X1.15900 Y0.55414
X1.16000 Y0.55414
X1.16000 Y0.55314
X1.18100 Y0.55314
X1.18100 Y0.55814
X1.18200 Y0.55814
X1.18200 Y0.55914
X1.18300 Y0.55914
X1.18300 Y0.56114
X1.18400 Y0.56114
X1.18400 Y0.56214
X1.18500 Y0.56214
X1.18500 Y0.56314
X1.18700 Y0.56314
X1.18700 Y0.56414
X1.22300 Y0.56414
X1.22300 Y0.56314
X1.22600 Y0.56314
X1.22600 Y0.56214
X1.22700 Y0.56214
X1.22700 Y0.56114
X1.22800 Y0.56114
X1.22800 Y0.55814
X1.22900 Y0.55814
X1.22900 Y0.51214
X1.22800 Y0.51214
X1.22800 Y0.51014
X1.18700 Y0.51014
X1.18700 Y0.51114
X1.18600 Y0.51114
X1.18600 Y0.51614
X1.18500 Y0.51614
X1.18500 Y0.53214
X1.15700 Y0.53214
X1.15700 Y0.53114
X1.15600 Y0.53114
X1.15600 Y0.52814
X1.15500 Y0.52814
X1.15500 Y0.52614
X1.15400 Y0.52614
X1.15400 Y0.52414
X1.15300 Y0.52414
X1.15300 Y0.52314
X1.15200 Y0.52314
X1.15200 Y0.52114
X1.15100 Y0.52114
X1.15100 Y0.52014
X1.15000 Y0.52014
X1.15000 Y0.51814
X1.14900 Y0.51814
X1.14900 Y0.51714
X1.14800 Y0.51714
X1.14800 Y0.51614
X1.14700 Y0.51614
X1.14700 Y0.51514
X1.14600 Y0.51514
X1.14600 Y0.51414
X1.14500 Y0.51414
X1.14500 Y0.51314
X1.14300 Y0.51314
X1.14300 Y0.51214
X1.14200 Y0.51214
X1.14200 Y0.51114
X1.14000 Y0.51114
X1.14000 Y0.51014
X1.13600 Y0.51014
X1.13600 Y0.50914
X1.13000 Y0.50914
X1.13000 Y0.50814
X1.12900 Y0.50814
X1.12900 Y0.50714
X1.12800 Y0.50714
X1.12800 Y0.50614
X1.12700 Y0.50614
X1.12700 Y0.50514
X1.12600 Y0.50514
X1.12600 Y0.50414
X1.12500 Y0.50414
X1.12500 Y0.50314
X1.11600 Y0.50314
X1.11600 Y0.50514
X1.11300 Y0.50514
X1.11300 Y0.50614
X1.11000 Y0.50614
X1.11000 Y0.50714
X1.10800 Y0.50714
X1.10800 Y0.50814
X1.10600 Y0.50814
X1.10600 Y0.50914
X1.10500 Y0.50914
X1.10500 Y0.51014
X1.10300 Y0.51014
X1.10300 Y0.51114
X1.10200 Y0.51114
X1.10200 Y0.51214
X1.10100 Y0.51214
X1.10100 Y0.51314
X1.10000 Y0.51314
X1.10000 Y0.51414
X1.09900 Y0.51414
X1.09900 Y0.51514
X1.09800 Y0.51514
X1.09800 Y0.51614
X1.09700 Y0.51614
X1.09700 Y0.51714
X1.09600 Y0.51714
X1.09600 Y0.51814
X1.09500 Y0.51814
X1.09500 Y0.52014
X1.09400 Y0.52014
X1.09400 Y0.52114
X1.09300 Y0.52114
X1.09300 Y0.52314
X1.09200 Y0.52314
X1.09200 Y0.52514
X1.09100 Y0.52514
X1.09100 Y0.52814
X1.09000 Y0.52814
X1.09000 Y0.53214
X1.08900 Y0.53214
X1.08900 Y0.53814
X1.08800 Y0.53814
X1.08800 Y0.54314
X1.08900 Y0.54314
X1.08900 Y0.54914
X1.09000 Y0.54914
X1.09000 Y0.55314
X1.09100 Y0.55314
X1.09100 Y0.55614
X1.09200 Y0.55614
X1.09200 Y0.55814
X1.09300 Y0.55814
X1.09300 Y0.56014
X1.09400 Y0.56014
X1.09400 Y0.56114
X1.09500 Y0.56114
X1.09500 Y0.56214
X1.09600 Y0.56214
X1.09600 Y0.56314
X1.09700 Y0.56314
X1.09700 Y0.56414
X1.09800 Y0.56414
X1.09800 Y0.56514
X1.09900 Y0.56514
X1.09900 Y0.56614
X1.10000 Y0.56614
X1.10000 Y0.56714
X1.10100 Y0.56714
X1.10100 Y0.56814
X1.10200 Y0.56814
X1.10200 Y0.56914
X1.10300 Y0.56914
X1.10300 Y0.57014
X1.10500 Y0.57014
X1.10500 Y0.57114
X1.10700 Y0.57114
X1.10700 Y0.57214
X1.10800 Y0.57214
X1.10800 Y0.57314
X1.11000 Y0.57314
X1.11000 Y0.57414
X1.11200 Y0.57414
X1.11200 Y0.57514
X1.11300 Y0.57514
X1.11300 Y0.57614
X1.11700 Y0.57614
X1.11700 Y0.57714
X1.13300 Y0.57714
X1.13300 Y0.57614
X1.13700 Y0.57614
X1.13700 Y0.57514
X1.13900 Y0.57514
X1.13900 Y0.57414
X1.14100 Y0.57414
X1.14100 Y0.57314
X1.14300 Y0.57314
X1.14300 Y0.57214
X1.14400 Y0.57214
X1.14400 Y0.57114
X1.14600 Y0.57114
X1.14600 Y0.57014
X1.14700 Y0.57014
X1.14700 Y0.56914
X1.14800 Y0.56914
X1.14800 Y0.56814
X1.14900 Y0.56814
X1.14900 Y0.56714
G04 P0 ( dwell for no time -- G64 should not smooth over this point )
G00 Z0.19685 ( retract )

G00 X0.98400 Y0.55314 ( rapid move to begin. )
G01 Z-0.01969 F1.96850 ( plunge. )
G04 P0 ( dwell for no time -- G64 should not smooth over this point )
X0.98400 Y0.55314
X0.98500 Y0.55314
X0.98500 Y0.55114
X0.98600 Y0.55114
X0.98600 Y0.54814
X0.98700 Y0.54814
X0.98700 Y0.54514
X0.98800 Y0.54514
X0.98800 Y0.53514
X0.98700 Y0.53514
X0.98700 Y0.53214
X0.98600 Y0.53214
X0.98600 Y0.52914
X0.98500 Y0.52914
X0.98500 Y0.52814
X0.98400 Y0.52814
X0.98400 Y0.52614
X0.98300 Y0.52614
X0.98300 Y0.52514
X0.98200 Y0.52514
X0.98200 Y0.52414
X0.98100 Y0.52414
X0.98100 Y0.52314
X0.98000 Y0.52314
X0.98000 Y0.52214
X0.97900 Y0.52214
X0.97900 Y0.52114
X0.97800 Y0.52114
X0.97800 Y0.48014
X0.97700 Y0.48014
X0.97700 Y0.47814
X0.97600 Y0.47814
X0.97600 Y0.47614
X0.97500 Y0.47614
X0.97500 Y0.47414
X0.97400 Y0.47414
X0.97400 Y0.47214
X0.97300 Y0.47214
X0.97300 Y0.47114
X0.97200 Y0.47114
X0.97200 Y0.47014
X0.97100 Y0.47014
X0.97100 Y0.46914
X0.97000 Y0.46914
X0.97000 Y0.46814
X0.96900 Y0.46814
X0.96900 Y0.46714
X0.96800 Y0.46714
X0.96800 Y0.46614
X0.96700 Y0.46614
X0.96700 Y0.46514
X0.96600 Y0.46514
X0.96600 Y0.46414
X0.96500 Y0.46414
X0.96500 Y0.46314
X0.96400 Y0.46314
X0.96400 Y0.46214
X0.96300 Y0.46214
X0.96300 Y0.46114
X0.96200 Y0.46114
X0.96200 Y0.46014
X0.96100 Y0.46014
X0.96100 Y0.45914
X0.96000 Y0.45914
X0.96000 Y0.45814
X0.95900 Y0.45814
X0.95900 Y0.45714
X0.95800 Y0.45714
X0.95800 Y0.45614
X0.95700 Y0.45614
X0.95700 Y0.45514
X0.95600 Y0.45514
X0.95600 Y0.45414
X0.95500 Y0.45414
X0.95500 Y0.45314
X0.95400 Y0.45314
X0.95400 Y0.45214
X0.95300 Y0.45214
X0.95300 Y0.45114
X0.95200 Y0.45114
X0.95200 Y0.45014
X0.95100 Y0.45014
X0.95100 Y0.44214
X0.95000 Y0.44214
X0.95000 Y0.44114
X0.94900 Y0.44114
X0.94900 Y0.44014
X0.94800 Y0.44014
X0.94800 Y0.43914
X0.94700 Y0.43914
X0.94700 Y0.42514
X0.94600 Y0.42514
X0.94600 Y0.42314
X0.94400 Y0.42314
X0.94400 Y0.42214
X0.94300 Y0.42214
X0.94300 Y0.42114
X0.92100 Y0.42114
X0.92100 Y0.43114
X0.92000 Y0.43114
X0.92000 Y0.47014
X0.92100 Y0.47014
X0.92100 Y0.47414
X0.92300 Y0.47414
X0.92300 Y0.47514
X0.92600 Y0.47514
X0.92600 Y0.47614
X0.92800 Y0.47614
X0.92800 Y0.47714
X0.93000 Y0.47714
X0.93000 Y0.47814
X0.93200 Y0.47814
X0.93200 Y0.47914
X0.93300 Y0.47914
X0.93300 Y0.48014
X0.93800 Y0.48014
X0.93800 Y0.48114
X0.94100 Y0.48114
X0.94100 Y0.48014
X0.94200 Y0.48014
X0.94200 Y0.47914
X0.94500 Y0.47914
X0.94500 Y0.48014
X0.94600 Y0.48014
X0.94600 Y0.48114
X0.94700 Y0.48114
X0.94700 Y0.48214
X0.94800 Y0.48214
X0.94800 Y0.48314
X0.94900 Y0.48314
X0.94900 Y0.48414
X0.95000 Y0.48414
X0.95000 Y0.48514
X0.95100 Y0.48514
X0.95100 Y0.48614
X0.95200 Y0.48614
X0.95200 Y0.48714
X0.95300 Y0.48714
X0.95300 Y0.52114
X0.95200 Y0.52114
X0.95200 Y0.52214
X0.95100 Y0.52214
X0.95100 Y0.52314
X0.95000 Y0.52314
X0.95000 Y0.52414
X0.94900 Y0.52414
X0.94900 Y0.52514
X0.94800 Y0.52514
X0.94800 Y0.52614
X0.94700 Y0.52614
X0.94700 Y0.52814
X0.94600 Y0.52814
X0.94600 Y0.52914
X0.94500 Y0.52914
X0.94500 Y0.53114
X0.94400 Y0.53114
X0.94400 Y0.53214
X0.94300 Y0.53214
X0.94300 Y0.53514
X0.94200 Y0.53514
X0.94200 Y0.54514
X0.94300 Y0.54514
X0.94300 Y0.54814
X0.94400 Y0.54814
X0.94400 Y0.54914
X0.94500 Y0.54914
X0.94500 Y0.55114
X0.94600 Y0.55114
X0.94600 Y0.55314
X0.94700 Y0.55314
X0.94700 Y0.55414
X0.94800 Y0.55414
X0.94800 Y0.55514
X0.94900 Y0.55514
X0.94900 Y0.55614
X0.95000 Y0.55614
X0.95000 Y0.55714
X0.95100 Y0.55714
X0.95100 Y0.55814
X0.95200 Y0.55814
X0.95200 Y0.55914
X0.95300 Y0.55914
X0.95300 Y0.56014
X0.95400 Y0.56014
X0.95400 Y0.56114
X0.95700 Y0.56114
X0.95700 Y0.56214
X0.96000 Y0.56214
X0.96000 Y0.56314
X0.97000 Y0.56314
X0.97000 Y0.56214
X0.97300 Y0.56214
X0.97300 Y0.56114
X0.97600 Y0.56114
X0.97600 Y0.56014
X0.97800 Y0.56014
X0.97800 Y0.55914
X0.97900 Y0.55914
X0.97900 Y0.55814
X0.98000 Y0.55814
X0.98000 Y0.55714
X0.98100 Y0.55714
X0.98100 Y0.55614
X0.98200 Y0.55614
X0.98200 Y0.55514
X0.98300 Y0.55514
X0.98300 Y0.55414
X0.98400 Y0.55414
X0.98400 Y0.55314
G04 P0 ( dwell for no time -- G64 should not smooth over this point )
G00 Z0.19685 ( retract )

G00 X1.18500 Y0.52714 ( rapid move to begin. )
G01 Z-0.01969 F1.96850 ( plunge. )
G04 P0 ( dwell for no time -- G64 should not smooth over this point )
X1.18500 Y0.52714
X1.18500 Y0.51614
X1.18600 Y0.51614
X1.18600 Y0.51114
X1.18700 Y0.51114
X1.18700 Y0.50514
X1.18600 Y0.50514
X1.18600 Y0.49814
X1.12900 Y0.49814
X1.12900 Y0.49914
X1.12800 Y0.49914
X1.12800 Y0.50014
X1.12700 Y0.50014
X1.12700 Y0.50114
X1.12600 Y0.50114
X1.12600 Y0.50214
X1.12500 Y0.50214
X1.12500 Y0.50414
X1.12600 Y0.50414
X1.12600 Y0.50514
X1.12700 Y0.50514
X1.12700 Y0.50614
X1.12800 Y0.50614
X1.12800 Y0.50714
X1.12900 Y0.50714
X1.12900 Y0.50814
X1.13000 Y0.50814
X1.13000 Y0.50914
X1.13600 Y0.50914
X1.13600 Y0.51014
X1.14000 Y0.51014
X1.14000 Y0.51114
X1.14200 Y0.51114
X1.14200 Y0.51214
X1.14300 Y0.51214
X1.14300 Y0.51314
X1.14500 Y0.51314
X1.14500 Y0.51414
X1.14600 Y0.51414
X1.14600 Y0.51514
X1.14700 Y0.51514
X1.14700 Y0.51614
X1.14800 Y0.51614
X1.14800 Y0.51714
X1.14900 Y0.51714
X1.14900 Y0.51814
X1.15000 Y0.51814
X1.15000 Y0.52014
X1.15100 Y0.52014
X1.15100 Y0.52114
X1.15200 Y0.52114
X1.15200 Y0.52314
X1.15300 Y0.52314
X1.15300 Y0.52414
X1.15400 Y0.52414
X1.15400 Y0.52614
X1.15500 Y0.52614
X1.15500 Y0.52814
X1.15600 Y0.52814
X1.15600 Y0.53114
X1.15700 Y0.53114
X1.15700 Y0.53214
X1.18500 Y0.53214
X1.18500 Y0.52714
G04 P0 ( dwell for no time -- G64 should not smooth over this point )
G00 Z0.19685 ( retract )

G00 X0.69900 Y0.51714 ( rapid move to begin. )
G01 Z-0.01969 F1.96850 ( plunge. )
G04 P0 ( dwell for no time -- G64 should not smooth over this point )
X0.69900 Y0.51714
X0.70000 Y0.51714
X0.70000 Y0.51614
X0.70100 Y0.51614
X0.70100 Y0.51514
X0.70200 Y0.51514
X0.70200 Y0.51414
X0.70300 Y0.51414
X0.70300 Y0.51314
X0.70400 Y0.51314
X0.70400 Y0.51214
X0.70500 Y0.51214
X0.70500 Y0.51114
X0.70600 Y0.51114
X0.70600 Y0.50914
X0.70700 Y0.50914
X0.70700 Y0.50814
X0.70800 Y0.50814
X0.70800 Y0.50614
X0.70900 Y0.50614
X0.70900 Y0.50414
X0.71000 Y0.50414
X0.71000 Y0.50214
X0.71100 Y0.50214
X0.71100 Y0.49814
X0.71200 Y0.49814
X0.71200 Y0.48214
X0.71100 Y0.48214
X0.71100 Y0.47814
X0.71000 Y0.47814
X0.71000 Y0.47714
X0.70900 Y0.47714
X0.70900 Y0.47514
X0.70800 Y0.47514
X0.70800 Y0.47314
X0.70700 Y0.47314
X0.70700 Y0.47214
X0.70600 Y0.47214
X0.70600 Y0.47014
X0.70500 Y0.47014
X0.70500 Y0.46814
X0.70400 Y0.46814
X0.70400 Y0.46714
X0.70300 Y0.46714
X0.70300 Y0.46614
X0.70200 Y0.46614
X0.70200 Y0.46514
X0.70100 Y0.46514
X0.70100 Y0.46314
X0.70000 Y0.46314
X0.70000 Y0.46214
X0.69900 Y0.46214
X0.69900 Y0.46114
X0.69800 Y0.46114
X0.69800 Y0.46014
X0.69600 Y0.46014
X0.69600 Y0.45914
X0.69500 Y0.45914
X0.69500 Y0.45814
X0.69300 Y0.45814
X0.69300 Y0.45714
X0.69100 Y0.45714
X0.69100 Y0.45614
X0.68800 Y0.45614
X0.68800 Y0.45514
X0.68400 Y0.45514
X0.68400 Y0.45414
X0.67800 Y0.45414
X0.67800 Y0.45314
X0.67300 Y0.45314
X0.67300 Y0.45414
X0.66700 Y0.45414
X0.66700 Y0.45514
X0.66300 Y0.45514
X0.66300 Y0.45614
X0.66000 Y0.45614
X0.66000 Y0.45714
X0.65800 Y0.45714
X0.65800 Y0.45814
X0.65600 Y0.45814
X0.65600 Y0.45914
X0.65500 Y0.45914
X0.65500 Y0.46014
X0.65300 Y0.46014
X0.65300 Y0.46114
X0.65200 Y0.46114
X0.65200 Y0.46214
X0.65100 Y0.46214
X0.65100 Y0.46314
X0.65000 Y0.46314
X0.65000 Y0.46414
X0.64900 Y0.46414
X0.64900 Y0.46514
X0.64800 Y0.46514
X0.64800 Y0.46614
X0.64700 Y0.46614
X0.64700 Y0.46714
X0.64600 Y0.46714
X0.64600 Y0.46814
X0.64500 Y0.46814
X0.64500 Y0.47014
X0.64400 Y0.47014
X0.64400 Y0.47114
X0.64300 Y0.47114
X0.64300 Y0.47314
X0.64200 Y0.47314
X0.64200 Y0.47514
X0.64100 Y0.47514
X0.64100 Y0.47814
X0.64000 Y0.47814
X0.64000 Y0.48214
X0.63900 Y0.48214
X0.63900 Y0.48814
X0.63800 Y0.48814
X0.63800 Y0.49314
X0.63900 Y0.49314
X0.63900 Y0.49914
X0.64000 Y0.49914
X0.64000 Y0.50314
X0.64100 Y0.50314
X0.64100 Y0.50614
X0.64200 Y0.50614
X0.64200 Y0.50814
X0.64300 Y0.50814
X0.64300 Y0.51014
X0.64400 Y0.51014
X0.64400 Y0.51114
X0.64500 Y0.51114
X0.64500 Y0.51214
X0.64600 Y0.51214
X0.64600 Y0.51314
X0.64700 Y0.51314
X0.64700 Y0.51414
X0.64800 Y0.51414
X0.64800 Y0.51514
X0.64900 Y0.51514
X0.64900 Y0.51614
X0.65000 Y0.51614
X0.65000 Y0.51714
X0.65100 Y0.51714
X0.65100 Y0.51814
X0.65200 Y0.51814
X0.65200 Y0.51914
X0.65300 Y0.51914
X0.65300 Y0.52014
X0.65500 Y0.52014
X0.65500 Y0.52114
X0.65700 Y0.52114
X0.65700 Y0.52214
X0.65800 Y0.52214
X0.65800 Y0.52314
X0.66000 Y0.52314
X0.66000 Y0.52414
X0.66200 Y0.52414
X0.66200 Y0.52514
X0.66300 Y0.52514
X0.66300 Y0.52614
X0.66700 Y0.52614
X0.66700 Y0.52714
X0.68300 Y0.52714
X0.68300 Y0.52614
X0.68700 Y0.52614
X0.68700 Y0.52514
X0.68900 Y0.52514
X0.68900 Y0.52414
X0.69100 Y0.52414
X0.69100 Y0.52314
X0.69300 Y0.52314
X0.69300 Y0.52214
X0.69400 Y0.52214
X0.69400 Y0.52114
X0.69600 Y0.52114
X0.69600 Y0.52014
X0.69700 Y0.52014
X0.69700 Y0.51914
X0.69800 Y0.51914
X0.69800 Y0.51814
X0.69900 Y0.51814
X0.69900 Y0.51714
G04 P0 ( dwell for no time -- G64 should not smooth over this point )
G00 Z0.19685 ( retract )

G00 X1.04900 Y0.51714 ( rapid move to begin. )
G01 Z-0.01969 F1.96850 ( plunge. )
G04 P0 ( dwell for no time -- G64 should not smooth over this point )
X1.04900 Y0.51714
X1.05000 Y0.51714
X1.05000 Y0.51614
X1.05100 Y0.51614
X1.05100 Y0.51514
X1.05200 Y0.51514
X1.05200 Y0.51414
X1.05300 Y0.51414
X1.05300 Y0.51314
X1.05400 Y0.51314
X1.05400 Y0.51214
X1.05500 Y0.51214
X1.05500 Y0.51114
X1.05600 Y0.51114
X1.05600 Y0.50914
X1.05700 Y0.50914
X1.05700 Y0.50814
X1.05800 Y0.50814
X1.05800 Y0.50614
X1.05900 Y0.50614
X1.05900 Y0.50414
X1.06000 Y0.50414
X1.06000 Y0.50314
X1.12500 Y0.50314
X1.12500 Y0.50214
X1.12600 Y0.50214
X1.12600 Y0.50114
X1.12700 Y0.50114
X1.12700 Y0.50014
X1.12800 Y0.50014
X1.12800 Y0.49914
X1.12900 Y0.49914
X1.12900 Y0.49814
X1.18600 Y0.49814
X1.18600 Y0.50514
X1.18700 Y0.50514
X1.18700 Y0.51014
X1.22800 Y0.51014
X1.22800 Y0.50814
X1.22900 Y0.50814
X1.22900 Y0.46214
X1.22800 Y0.46214
X1.22800 Y0.46014
X1.18700 Y0.46014
X1.18700 Y0.46114
X1.18600 Y0.46114
X1.18600 Y0.46614
X1.18500 Y0.46614
X1.18500 Y0.48214
X1.12900 Y0.48214
X1.12900 Y0.48114
X1.12800 Y0.48114
X1.12800 Y0.48014
X1.12700 Y0.48014
X1.12700 Y0.47914
X1.12600 Y0.47914
X1.12600 Y0.47814
X1.12500 Y0.47814
X1.12500 Y0.47714
X1.11700 Y0.47714
X1.11700 Y0.47814
X1.06000 Y0.47814
X1.06000 Y0.47714
X1.05900 Y0.47714
X1.05900 Y0.47514
X1.05800 Y0.47514
X1.05800 Y0.47314
X1.05700 Y0.47314
X1.05700 Y0.47214
X1.05600 Y0.47214
X1.05600 Y0.47014
X1.05500 Y0.47014
X1.05500 Y0.46814
X1.05400 Y0.46814
X1.05400 Y0.46714
X1.05300 Y0.46714
X1.05300 Y0.46614
X1.05200 Y0.46614
X1.05200 Y0.46514
X1.05100 Y0.46514
X1.05100 Y0.46314
X1.05000 Y0.46314
X1.05000 Y0.46214
X1.04900 Y0.46214
X1.04900 Y0.46114
X1.04800 Y0.46114
X1.04800 Y0.46014
X1.04600 Y0.46014
X1.04600 Y0.45914
X1.04500 Y0.45914
X1.04500 Y0.45814
X1.04300 Y0.45814
X1.04300 Y0.45714
X1.04100 Y0.45714
X1.04100 Y0.45614
X1.03800 Y0.45614
X1.03800 Y0.45514
X1.03400 Y0.45514
X1.03400 Y0.45414
X1.02800 Y0.45414
X1.02800 Y0.45314
X1.02300 Y0.45314
X1.02300 Y0.45414
X1.01700 Y0.45414
X1.01700 Y0.45514
X1.01300 Y0.45514
X1.01300 Y0.45614
X1.01000 Y0.45614
X1.01000 Y0.45714
X1.00800 Y0.45714
X1.00800 Y0.45814
X1.00600 Y0.45814
X1.00600 Y0.45914
X1.00500 Y0.45914
X1.00500 Y0.46014
X1.00300 Y0.46014
X1.00300 Y0.46114
X1.00200 Y0.46114
X1.00200 Y0.46214
X1.00100 Y0.46214
X1.00100 Y0.46314
X1.00000 Y0.46314
X1.00000 Y0.46414
X0.99900 Y0.46414
X0.99900 Y0.46514
X0.99800 Y0.46514
X0.99800 Y0.46614
X0.99700 Y0.46614
X0.99700 Y0.46714
X0.99600 Y0.46714
X0.99600 Y0.46814
X0.99500 Y0.46814
X0.99500 Y0.47014
X0.99400 Y0.47014
X0.99400 Y0.47114
X0.99300 Y0.47114
X0.99300 Y0.47314
X0.99200 Y0.47314
X0.99200 Y0.47514
X0.99100 Y0.47514
X0.99100 Y0.47814
X0.99000 Y0.47814
X0.99000 Y0.48214
X0.98900 Y0.48214
X0.98900 Y0.48814
X0.98800 Y0.48814
X0.98800 Y0.49314
X0.98900 Y0.49314
X0.98900 Y0.49914
X0.99000 Y0.49914
X0.99000 Y0.50314
X0.99100 Y0.50314
X0.99100 Y0.50614
X0.99200 Y0.50614
X0.99200 Y0.50814
X0.99300 Y0.50814
X0.99300 Y0.51014
X0.99400 Y0.51014
X0.99400 Y0.51114
X0.99500 Y0.51114
X0.99500 Y0.51214
X0.99600 Y0.51214
X0.99600 Y0.51314
X0.99700 Y0.51314
X0.99700 Y0.51414
X0.99800 Y0.51414
X0.99800 Y0.51514
X0.99900 Y0.51514
X0.99900 Y0.51614
X1.00000 Y0.51614
X1.00000 Y0.51714
X1.00100 Y0.51714
X1.00100 Y0.51814
X1.00200 Y0.51814
X1.00200 Y0.51914
X1.00300 Y0.51914
X1.00300 Y0.52014
X1.00500 Y0.52014
X1.00500 Y0.52114
X1.00700 Y0.52114
X1.00700 Y0.52214
X1.00800 Y0.52214
X1.00800 Y0.52314
X1.01000 Y0.52314
X1.01000 Y0.52414
X1.01300 Y0.52414
X1.01300 Y0.52514
X1.01400 Y0.52514
X1.01400 Y0.52614
X1.01700 Y0.52614
X1.01700 Y0.52714
X1.03300 Y0.52714
X1.03300 Y0.52614
X1.03700 Y0.52614
X1.03700 Y0.52514
X1.03900 Y0.52514
X1.03900 Y0.52414
X1.04100 Y0.52414
X1.04100 Y0.52314
X1.04300 Y0.52314
X1.04300 Y0.52214
X1.04400 Y0.52214
X1.04400 Y0.52114
X1.04600 Y0.52114
X1.04600 Y0.52014
X1.04700 Y0.52014
X1.04700 Y0.51914
X1.04800 Y0.51914
X1.04800 Y0.51814
X1.04900 Y0.51814
X1.04900 Y0.51714
G04 P0 ( dwell for no time -- G64 should not smooth over this point )
G00 Z0.19685 ( retract )

G00 X0.92900 Y0.50314 ( rapid move to begin. )
G01 Z-0.01969 F1.96850 ( plunge. )
G04 P0 ( dwell for no time -- G64 should not smooth over this point )
X0.92900 Y0.50314
X0.93000 Y0.50314
X0.93000 Y0.50114
X0.93100 Y0.50114
X0.93100 Y0.49814
X0.93200 Y0.49814
X0.93200 Y0.49514
X0.93300 Y0.49514
X0.93300 Y0.48614
X0.93200 Y0.48614
X0.93200 Y0.48414
X0.93400 Y0.48414
X0.93400 Y0.48014
X0.93300 Y0.48014
X0.93300 Y0.47914
X0.93200 Y0.47914
X0.93200 Y0.47814
X0.93000 Y0.47814
X0.93000 Y0.47714
X0.92800 Y0.47714
X0.92800 Y0.47614
X0.92600 Y0.47614
X0.92600 Y0.47514
X0.92300 Y0.47514
X0.92300 Y0.47414
X0.92100 Y0.47414
X0.92100 Y0.47014
X0.92000 Y0.47014
X0.92000 Y0.43114
X0.92100 Y0.43114
X0.92100 Y0.42114
X0.90000 Y0.42114
X0.90000 Y0.47414
X0.89800 Y0.47414
X0.89800 Y0.47514
X0.89700 Y0.47514
X0.89700 Y0.47914
X0.89600 Y0.47914
X0.89600 Y0.48014
X0.89500 Y0.48014
X0.89500 Y0.48214
X0.89400 Y0.48214
X0.89400 Y0.48414
X0.89300 Y0.48414
X0.89300 Y0.48714
X0.89200 Y0.48714
X0.89200 Y0.48914
X0.89100 Y0.48914
X0.89100 Y0.49014
X0.89000 Y0.49014
X0.89000 Y0.49114
X0.88900 Y0.49114
X0.88900 Y0.49214
X0.88800 Y0.49214
X0.88800 Y0.49314
X0.88700 Y0.49314
X0.88700 Y0.49514
X0.88800 Y0.49514
X0.88800 Y0.49814
X0.88900 Y0.49814
X0.88900 Y0.49914
X0.89000 Y0.49914
X0.89000 Y0.50114
X0.89100 Y0.50114
X0.89100 Y0.50314
X0.89200 Y0.50314
X0.89200 Y0.50414
X0.89300 Y0.50414
X0.89300 Y0.50514
X0.89400 Y0.50514
X0.89400 Y0.50614
X0.89500 Y0.50614
X0.89500 Y0.50714
X0.89600 Y0.50714
X0.89600 Y0.50814
X0.89700 Y0.50814
X0.89700 Y0.50914
X0.89800 Y0.50914
X0.89800 Y0.51014
X0.89900 Y0.51014
X0.89900 Y0.51114
X0.90200 Y0.51114
X0.90200 Y0.51214
X0.90500 Y0.51214
X0.90500 Y0.51314
X0.91500 Y0.51314
X0.91500 Y0.51214
X0.91800 Y0.51214
X0.91800 Y0.51114
X0.92100 Y0.51114
X0.92100 Y0.51014
X0.92300 Y0.51014
X0.92300 Y0.50914
X0.92400 Y0.50914
X0.92400 Y0.50814
X0.92500 Y0.50814
X0.92500 Y0.50714
X0.92600 Y0.50714
X0.92600 Y0.50614
X0.92700 Y0.50614
X0.92700 Y0.50514
X0.92800 Y0.50514
X0.92800 Y0.50414
X0.92900 Y0.50414
X0.92900 Y0.50314
G04 P0 ( dwell for no time -- G64 should not smooth over this point )
G00 Z0.19685 ( retract )

G00 X0.89400 Y0.48314 ( rapid move to begin. )
G01 Z-0.01969 F1.96850 ( plunge. )
G04 P0 ( dwell for no time -- G64 should not smooth over this point )
X0.89400 Y0.48314
X0.89400 Y0.48214
X0.89500 Y0.48214
X0.89500 Y0.48014
X0.89600 Y0.48014
X0.89600 Y0.47914
X0.89700 Y0.47914
X0.89700 Y0.47514
X0.89800 Y0.47514
X0.89800 Y0.47414
X0.90000 Y0.47414
X0.90000 Y0.42114
X0.88400 Y0.42114
X0.88400 Y0.42214
X0.88300 Y0.42214
X0.88300 Y0.42314
X0.88200 Y0.42314
X0.88200 Y0.42414
X0.88100 Y0.42414
X0.88100 Y0.47314
X0.84100 Y0.47314
X0.84100 Y0.47014
X0.84000 Y0.47014
X0.84000 Y0.46714
X0.83900 Y0.46714
X0.83900 Y0.46414
X0.83800 Y0.46414
X0.83800 Y0.45614
X0.83900 Y0.45614
X0.83900 Y0.45214
X0.84000 Y0.45214
X0.84000 Y0.42914
X0.83900 Y0.42914
X0.83900 Y0.42314
X0.84000 Y0.42314
X0.84000 Y0.42214
X0.84100 Y0.42214
X0.84100 Y0.42014
X0.84000 Y0.42014
X0.84000 Y0.41914
X0.83700 Y0.41914
X0.83700 Y0.42014
X0.83600 Y0.42014
X0.83600 Y0.42114
X0.83500 Y0.42114
X0.83500 Y0.42214
X0.83300 Y0.42214
X0.83300 Y0.42114
X0.83100 Y0.42114
X0.83100 Y0.42014
X0.82900 Y0.42014
X0.82900 Y0.41914
X0.82800 Y0.41914
X0.82800 Y0.41814
X0.82500 Y0.41814
X0.82500 Y0.41714
X0.81500 Y0.41714
X0.81500 Y0.41814
X0.81200 Y0.41814
X0.81200 Y0.41914
X0.81100 Y0.41914
X0.81100 Y0.42014
X0.80900 Y0.42014
X0.80900 Y0.42114
X0.80800 Y0.42114
X0.80800 Y0.42214
X0.80600 Y0.42214
X0.80600 Y0.42314
X0.80500 Y0.42314
X0.80500 Y0.42414
X0.80400 Y0.42414
X0.80400 Y0.42514
X0.80300 Y0.42514
X0.80300 Y0.42614
X0.80200 Y0.42614
X0.80200 Y0.42814
X0.80100 Y0.42814
X0.80100 Y0.42914
X0.80000 Y0.42914
X0.80000 Y0.43114
X0.79900 Y0.43114
X0.79900 Y0.43214
X0.79800 Y0.43214
X0.79800 Y0.43514
X0.79700 Y0.43514
X0.79700 Y0.44514
X0.79800 Y0.44514
X0.79800 Y0.44814
X0.79900 Y0.44814
X0.79900 Y0.44914
X0.80000 Y0.44914
X0.80000 Y0.45114
X0.80100 Y0.45114
X0.80100 Y0.45314
X0.80200 Y0.45314
X0.80200 Y0.45414
X0.80300 Y0.45414
X0.80300 Y0.45514
X0.80400 Y0.45514
X0.80400 Y0.45614
X0.80500 Y0.45614
X0.80500 Y0.45714
X0.80600 Y0.45714
X0.80600 Y0.45814
X0.80700 Y0.45814
X0.80700 Y0.45914
X0.80800 Y0.45914
X0.80800 Y0.47014
X0.80900 Y0.47014
X0.80900 Y0.47114
X0.81000 Y0.47114
X0.81000 Y0.47214
X0.81100 Y0.47214
X0.81100 Y0.47314
X0.81200 Y0.47314
X0.81200 Y0.47514
X0.81300 Y0.47514
X0.81300 Y0.47614
X0.81400 Y0.47614
X0.81400 Y0.47714
X0.81500 Y0.47714
X0.81500 Y0.47814
X0.81600 Y0.47814
X0.81600 Y0.47914
X0.81700 Y0.47914
X0.81700 Y0.48014
X0.81800 Y0.48014
X0.81800 Y0.48114
X0.81900 Y0.48114
X0.81900 Y0.48214
X0.82000 Y0.48214
X0.82000 Y0.48314
X0.82100 Y0.48314
X0.82100 Y0.48414
X0.82200 Y0.48414
X0.82200 Y0.48514
X0.82300 Y0.48514
X0.82300 Y0.48614
X0.82400 Y0.48614
X0.82400 Y0.48714
X0.82500 Y0.48714
X0.82500 Y0.48814
X0.82600 Y0.48814
X0.82600 Y0.48914
X0.82800 Y0.48914
X0.82800 Y0.49014
X0.82900 Y0.49014
X0.82900 Y0.49114
X0.83100 Y0.49114
X0.83100 Y0.49214
X0.83300 Y0.49214
X0.83300 Y0.49314
X0.88800 Y0.49314
X0.88800 Y0.49214
X0.88900 Y0.49214
X0.88900 Y0.49114
X0.89000 Y0.49114
X0.89000 Y0.49014
X0.89100 Y0.49014
X0.89100 Y0.48914
X0.89200 Y0.48914
X0.89200 Y0.48714
X0.89300 Y0.48714
X0.89300 Y0.48414
X0.89400 Y0.48414
X0.89400 Y0.48314
G04 P0 ( dwell for no time -- G64 should not smooth over this point )
G00 Z0.19685 ( retract )

G00 X1.18500 Y0.47714 ( rapid move to begin. )
G01 Z-0.01969 F1.96850 ( plunge. )
G04 P0 ( dwell for no time -- G64 should not smooth over this point )
X1.18500 Y0.47714
X1.18500 Y0.46614
X1.18600 Y0.46614
X1.18600 Y0.46114
X1.18700 Y0.46114
X1.18700 Y0.45514
X1.18600 Y0.45514
X1.18600 Y0.44814
X1.15700 Y0.44814
X1.15700 Y0.44914
X1.15600 Y0.44914
X1.15600 Y0.45014
X1.15500 Y0.45014
X1.15500 Y0.45414
X1.15400 Y0.45414
X1.15400 Y0.45614
X1.15300 Y0.45614
X1.15300 Y0.45814
X1.15200 Y0.45814
X1.15200 Y0.45914
X1.15100 Y0.45914
X1.15100 Y0.46014
X1.15000 Y0.46014
X1.15000 Y0.46114
X1.14900 Y0.46114
X1.14900 Y0.46214
X1.14800 Y0.46214
X1.14800 Y0.46314
X1.14700 Y0.46314
X1.14700 Y0.46414
X1.14600 Y0.46414
X1.14600 Y0.46514
X1.14500 Y0.46514
X1.14500 Y0.46614
X1.14400 Y0.46614
X1.14400 Y0.46714
X1.14300 Y0.46714
X1.14300 Y0.46814
X1.14100 Y0.46814
X1.14100 Y0.46914
X1.14000 Y0.46914
X1.14000 Y0.47014
X1.13500 Y0.47014
X1.13500 Y0.47114
X1.13300 Y0.47114
X1.13300 Y0.47214
X1.12900 Y0.47214
X1.12900 Y0.47314
X1.12800 Y0.47314
X1.12800 Y0.47414
X1.12700 Y0.47414
X1.12700 Y0.47514
X1.12600 Y0.47514
X1.12600 Y0.47614
X1.12500 Y0.47614
X1.12500 Y0.47814
X1.12600 Y0.47814
X1.12600 Y0.47914
X1.12700 Y0.47914
X1.12700 Y0.48014
X1.12800 Y0.48014
X1.12800 Y0.48114
X1.12900 Y0.48114
X1.12900 Y0.48214
X1.18500 Y0.48214
X1.18500 Y0.47714
G04 P0 ( dwell for no time -- G64 should not smooth over this point )
G00 Z0.19685 ( retract )

G00 X0.12300 Y0.47014 ( rapid move to begin. )
G01 Z-0.01969 F1.96850 ( plunge. )
G04 P0 ( dwell for no time -- G64 should not smooth over this point )
X0.12300 Y0.47014
X0.12400 Y0.47014
X0.12400 Y0.46814
X0.12500 Y0.46814
X0.12500 Y0.46714
X0.12600 Y0.46714
X0.12600 Y0.46514
X0.12700 Y0.46514
X0.12700 Y0.46414
X0.12800 Y0.46414
X0.12800 Y0.46214
X0.12900 Y0.46214
X0.12900 Y0.45914
X0.13000 Y0.45914
X0.13000 Y0.45414
X0.13100 Y0.45414
X0.13100 Y0.42714
X0.13000 Y0.42714
X0.13000 Y0.42214
X0.12900 Y0.42214
X0.12900 Y0.41814
X0.12800 Y0.41814
X0.12800 Y0.41614
X0.12700 Y0.41614
X0.12700 Y0.41514
X0.12600 Y0.41514
X0.12600 Y0.41314
X0.12500 Y0.41314
X0.12500 Y0.41214
X0.12400 Y0.41214
X0.12400 Y0.41114
X0.12300 Y0.41114
X0.12300 Y0.41014
X0.12200 Y0.41014
X0.12200 Y0.40914
X0.12100 Y0.40914
X0.12100 Y0.40814
X0.12000 Y0.40814
X0.12000 Y0.40714
X0.11900 Y0.40714
X0.11900 Y0.40614
X0.11800 Y0.40614
X0.11800 Y0.40514
X0.11700 Y0.40514
X0.11700 Y0.40414
X0.11500 Y0.40414
X0.11500 Y0.40314
X0.11300 Y0.40314
X0.11300 Y0.40214
X0.11000 Y0.40214
X0.11000 Y0.40114
X0.10400 Y0.40114
X0.10400 Y0.40014
X0.07700 Y0.40014
X0.07700 Y0.40114
X0.07100 Y0.40114
X0.07100 Y0.40214
X0.06800 Y0.40214
X0.06800 Y0.40314
X0.06600 Y0.40314
X0.06600 Y0.40414
X0.06400 Y0.40414
X0.06400 Y0.40514
X0.06300 Y0.40514
X0.06300 Y0.40614
X0.06100 Y0.40614
X0.06100 Y0.40714
X0.06000 Y0.40714
X0.06000 Y0.40814
X0.05900 Y0.40814
X0.05900 Y0.40914
X0.05800 Y0.40914
X0.05800 Y0.41014
X0.05700 Y0.41014
X0.05700 Y0.41114
X0.05600 Y0.41114
X0.05600 Y0.41314
X0.05500 Y0.41314
X0.05500 Y0.41414
X0.05400 Y0.41414
X0.05400 Y0.41614
X0.05300 Y0.41614
X0.05300 Y0.41714
X0.05200 Y0.41714
X0.05200 Y0.42214
X0.05100 Y0.42214
X0.05100 Y0.42714
X0.05000 Y0.42714
X0.05000 Y0.45414
X0.05100 Y0.45414
X0.05100 Y0.45914
X0.05200 Y0.45914
X0.05200 Y0.46314
X0.05300 Y0.46314
X0.05300 Y0.46514
X0.05400 Y0.46514
X0.05400 Y0.46714
X0.05500 Y0.46714
X0.05500 Y0.46814
X0.05600 Y0.46814
X0.05600 Y0.46914
X0.05700 Y0.46914
X0.05700 Y0.47014
X0.05800 Y0.47014
X0.05800 Y0.47114
X0.05900 Y0.47114
X0.05900 Y0.47214
X0.06000 Y0.47214
X0.06000 Y0.47314
X0.06100 Y0.47314
X0.06100 Y0.47414
X0.06200 Y0.47414
X0.06200 Y0.47514
X0.06300 Y0.47514
X0.06300 Y0.47614
X0.06500 Y0.47614
X0.06500 Y0.47714
X0.06600 Y0.47714
X0.06600 Y0.47814
X0.06800 Y0.47814
X0.06800 Y0.47914
X0.07100 Y0.47914
X0.07100 Y0.48014
X0.07700 Y0.48014
X0.07700 Y0.48114
X0.10400 Y0.48114
X0.10400 Y0.48014
X0.11000 Y0.48014
X0.11000 Y0.47914
X0.11200 Y0.47914
X0.11200 Y0.47814
X0.11400 Y0.47814
X0.11400 Y0.47714
X0.11500 Y0.47714
X0.11500 Y0.47614
X0.11700 Y0.47614
X0.11700 Y0.47514
X0.11800 Y0.47514
X0.11800 Y0.47414
X0.12000 Y0.47414
X0.12000 Y0.47314
X0.12100 Y0.47314
X0.12100 Y0.47214
X0.12200 Y0.47214
X0.12200 Y0.47114
X0.12300 Y0.47114
X0.12300 Y0.47014
G04 P0 ( dwell for no time -- G64 should not smooth over this point )
G00 Z0.19685 ( retract )

G00 X0.22300 Y0.47014 ( rapid move to begin. )
G01 Z-0.01969 F1.96850 ( plunge. )
G04 P0 ( dwell for no time -- G64 should not smooth over this point )
X0.22300 Y0.47014
X0.22400 Y0.47014
X0.22400 Y0.46814
X0.22500 Y0.46814
X0.22500 Y0.46714
X0.22600 Y0.46714
X0.22600 Y0.46514
X0.22700 Y0.46514
X0.22700 Y0.46414
X0.22800 Y0.46414
X0.22800 Y0.46214
X0.22900 Y0.46214
X0.22900 Y0.45914
X0.23000 Y0.45914
X0.23000 Y0.45414
X0.23100 Y0.45414
X0.23100 Y0.42714
X0.23000 Y0.42714
X0.23000 Y0.42214
X0.22900 Y0.42214
X0.22900 Y0.41814
X0.22800 Y0.41814
X0.22800 Y0.41614
X0.22700 Y0.41614
X0.22700 Y0.41514
X0.22600 Y0.41514
X0.22600 Y0.41314
X0.22500 Y0.41314
X0.22500 Y0.41214
X0.22400 Y0.41214
X0.22400 Y0.41114
X0.22300 Y0.41114
X0.22300 Y0.41014
X0.22200 Y0.41014
X0.22200 Y0.40914
X0.22100 Y0.40914
X0.22100 Y0.40814
X0.22000 Y0.40814
X0.22000 Y0.40714
X0.21900 Y0.40714
X0.21900 Y0.40614
X0.21800 Y0.40614
X0.21800 Y0.40514
X0.21700 Y0.40514
X0.21700 Y0.40414
X0.21500 Y0.40414
X0.21500 Y0.40314
X0.21300 Y0.40314
X0.21300 Y0.40214
X0.21000 Y0.40214
X0.21000 Y0.40114
X0.20400 Y0.40114
X0.20400 Y0.40014
X0.17700 Y0.40014
X0.17700 Y0.40114
X0.17100 Y0.40114
X0.17100 Y0.40214
X0.16800 Y0.40214
X0.16800 Y0.40314
X0.16600 Y0.40314
X0.16600 Y0.40414
X0.16400 Y0.40414
X0.16400 Y0.40514
X0.16300 Y0.40514
X0.16300 Y0.40614
X0.16100 Y0.40614
X0.16100 Y0.40714
X0.16000 Y0.40714
X0.16000 Y0.40814
X0.15900 Y0.40814
X0.15900 Y0.40914
X0.15800 Y0.40914
X0.15800 Y0.41014
X0.15700 Y0.41014
X0.15700 Y0.41114
X0.15600 Y0.41114
X0.15600 Y0.41314
X0.15500 Y0.41314
X0.15500 Y0.41414
X0.15400 Y0.41414
X0.15400 Y0.41614
X0.15300 Y0.41614
X0.15300 Y0.41714
X0.15200 Y0.41714
X0.15200 Y0.42214
X0.15100 Y0.42214
X0.15100 Y0.42714
X0.15000 Y0.42714
X0.15000 Y0.45414
X0.15100 Y0.45414
X0.15100 Y0.45914
X0.15200 Y0.45914
X0.15200 Y0.46314
X0.15300 Y0.46314
X0.15300 Y0.46514
X0.15400 Y0.46514
X0.15400 Y0.46714
X0.15500 Y0.46714
X0.15500 Y0.46814
X0.15600 Y0.46814
X0.15600 Y0.46914
X0.15700 Y0.46914
X0.15700 Y0.47014
X0.15800 Y0.47014
X0.15800 Y0.47114
X0.15900 Y0.47114
X0.15900 Y0.47214
X0.16000 Y0.47214
X0.16000 Y0.47314
X0.16100 Y0.47314
X0.16100 Y0.47414
X0.16200 Y0.47414
X0.16200 Y0.47514
X0.16300 Y0.47514
X0.16300 Y0.47614
X0.16500 Y0.47614
X0.16500 Y0.47714
X0.16600 Y0.47714
X0.16600 Y0.47814
X0.16800 Y0.47814
X0.16800 Y0.47914
X0.17100 Y0.47914
X0.17100 Y0.48014
X0.17700 Y0.48014
X0.17700 Y0.48114
X0.20400 Y0.48114
X0.20400 Y0.48014
X0.21000 Y0.48014
X0.21000 Y0.47914
X0.21200 Y0.47914
X0.21200 Y0.47814
X0.21400 Y0.47814
X0.21400 Y0.47714
X0.21500 Y0.47714
X0.21500 Y0.47614
X0.21700 Y0.47614
X0.21700 Y0.47514
X0.21800 Y0.47514
X0.21800 Y0.47414
X0.22000 Y0.47414
X0.22000 Y0.47314
X0.22100 Y0.47314
X0.22100 Y0.47214
X0.22200 Y0.47214
X0.22200 Y0.47114
X0.22300 Y0.47114
X0.22300 Y0.47014
G04 P0 ( dwell for no time -- G64 should not smooth over this point )
G00 Z0.19685 ( retract )

G00 X0.86200 Y0.46914 ( rapid move to begin. )
G01 Z-0.01969 F1.96850 ( plunge. )
G04 P0 ( dwell for no time -- G64 should not smooth over this point )
X0.86200 Y0.46914
X0.86200 Y0.42414
X0.86100 Y0.42414
X0.86100 Y0.42314
X0.86000 Y0.42314
X0.86000 Y0.42214
X0.85900 Y0.42214
X0.85900 Y0.42114
X0.84100 Y0.42114
X0.84100 Y0.42214
X0.84000 Y0.42214
X0.84000 Y0.42314
X0.83900 Y0.42314
X0.83900 Y0.42914
X0.84000 Y0.42914
X0.84000 Y0.45214
X0.83900 Y0.45214
X0.83900 Y0.45614
X0.83800 Y0.45614
X0.83800 Y0.46414
X0.83900 Y0.46414
X0.83900 Y0.46714
X0.84000 Y0.46714
X0.84000 Y0.47014
X0.84100 Y0.47014
X0.84100 Y0.47314
X0.86200 Y0.47314
X0.86200 Y0.46914
G04 P0 ( dwell for no time -- G64 should not smooth over this point )
G00 Z0.19685 ( retract )

G00 X0.88100 Y0.46914 ( rapid move to begin. )
G01 Z-0.01969 F1.96850 ( plunge. )
G04 P0 ( dwell for no time -- G64 should not smooth over this point )
X0.88100 Y0.46914
X0.88100 Y0.42414
X0.88200 Y0.42414
X0.88200 Y0.42314
X0.88300 Y0.42314
X0.88300 Y0.42214
X0.88400 Y0.42214
X0.88400 Y0.42114
X0.88500 Y0.42114
X0.88500 Y0.41714
X0.88400 Y0.41714
X0.88400 Y0.40414
X0.88300 Y0.40414
X0.88300 Y0.40214
X0.88200 Y0.40214
X0.88200 Y0.40014
X0.88100 Y0.40014
X0.88100 Y0.39814
X0.88000 Y0.39814
X0.88000 Y0.39714
X0.87900 Y0.39714
X0.87900 Y0.39614
X0.87800 Y0.39614
X0.87800 Y0.39514
X0.87700 Y0.39514
X0.87700 Y0.39414
X0.87600 Y0.39414
X0.87600 Y0.39314
X0.87500 Y0.39314
X0.87500 Y0.39214
X0.87400 Y0.39214
X0.87400 Y0.39114
X0.87300 Y0.39114
X0.87300 Y0.39014
X0.87200 Y0.39014
X0.87200 Y0.38914
X0.87100 Y0.38914
X0.87100 Y0.38814
X0.87000 Y0.38814
X0.87000 Y0.38714
X0.86900 Y0.38714
X0.86900 Y0.38614
X0.86800 Y0.38614
X0.86800 Y0.38514
X0.86700 Y0.38514
X0.86700 Y0.38414
X0.86600 Y0.38414
X0.86600 Y0.38314
X0.86500 Y0.38314
X0.86500 Y0.38214
X0.86400 Y0.38214
X0.86400 Y0.38114
X0.86300 Y0.38114
X0.86300 Y0.38014
X0.86200 Y0.38014
X0.86200 Y0.37914
X0.86000 Y0.37914
X0.86000 Y0.37814
X0.83900 Y0.37814
X0.83900 Y0.37614
X0.83800 Y0.37614
X0.83800 Y0.37514
X0.83700 Y0.37514
X0.83700 Y0.37414
X0.83600 Y0.37414
X0.83600 Y0.37314
X0.83500 Y0.37314
X0.83500 Y0.37214
X0.83300 Y0.37214
X0.83300 Y0.37114
X0.83100 Y0.37114
X0.83100 Y0.37014
X0.82900 Y0.37014
X0.82900 Y0.36914
X0.82800 Y0.36914
X0.82800 Y0.36814
X0.82500 Y0.36814
X0.82500 Y0.36714
X0.81500 Y0.36714
X0.81500 Y0.36814
X0.81200 Y0.36814
X0.81200 Y0.36914
X0.81100 Y0.36914
X0.81100 Y0.37014
X0.80900 Y0.37014
X0.80900 Y0.37114
X0.80800 Y0.37114
X0.80800 Y0.37214
X0.80600 Y0.37214
X0.80600 Y0.37314
X0.80500 Y0.37314
X0.80500 Y0.37414
X0.80400 Y0.37414
X0.80400 Y0.37514
X0.80300 Y0.37514
X0.80300 Y0.37614
X0.80200 Y0.37614
X0.80200 Y0.37814
X0.80100 Y0.37814
X0.80100 Y0.37914
X0.80000 Y0.37914
X0.80000 Y0.38114
X0.79900 Y0.38114
X0.79900 Y0.38214
X0.79800 Y0.38214
X0.79800 Y0.38514
X0.79700 Y0.38514
X0.79700 Y0.39514
X0.79800 Y0.39514
X0.79800 Y0.39814
X0.79900 Y0.39814
X0.79900 Y0.39914
X0.80000 Y0.39914
X0.80000 Y0.40114
X0.80100 Y0.40114
X0.80100 Y0.40314
X0.80200 Y0.40314
X0.80200 Y0.40414
X0.80300 Y0.40414
X0.80300 Y0.40514
X0.80400 Y0.40514
X0.80400 Y0.40614
X0.80500 Y0.40614
X0.80500 Y0.40714
X0.80600 Y0.40714
X0.80600 Y0.40814
X0.80700 Y0.40814
X0.80700 Y0.40914
X0.80800 Y0.40914
X0.80800 Y0.41014
X0.80900 Y0.41014
X0.80900 Y0.41114
X0.81200 Y0.41114
X0.81200 Y0.41214
X0.81500 Y0.41214
X0.81500 Y0.41314
X0.82500 Y0.41314
X0.82500 Y0.41214
X0.82800 Y0.41214
X0.82800 Y0.41114
X0.83100 Y0.41114
X0.83100 Y0.41014
X0.83300 Y0.41014
X0.83300 Y0.40914
X0.83400 Y0.40914
X0.83400 Y0.40814
X0.83500 Y0.40814
X0.83500 Y0.40714
X0.83600 Y0.40714
X0.83600 Y0.40614
X0.83700 Y0.40614
X0.83700 Y0.40514
X0.83800 Y0.40514
X0.83800 Y0.40414
X0.83900 Y0.40414
X0.83900 Y0.40314
X0.85100 Y0.40314
X0.85100 Y0.40414
X0.85200 Y0.40414
X0.85200 Y0.40514
X0.85300 Y0.40514
X0.85300 Y0.40614
X0.85400 Y0.40614
X0.85400 Y0.40714
X0.85500 Y0.40714
X0.85500 Y0.40814
X0.85600 Y0.40814
X0.85600 Y0.40914
X0.85700 Y0.40914
X0.85700 Y0.41014
X0.85800 Y0.41014
X0.85800 Y0.41114
X0.85900 Y0.41114
X0.85900 Y0.41714
X0.85800 Y0.41714
X0.85800 Y0.42114
X0.85900 Y0.42114
X0.85900 Y0.42214
X0.86000 Y0.42214
X0.86000 Y0.42314
X0.86100 Y0.42314
X0.86100 Y0.42414
X0.86200 Y0.42414
X0.86200 Y0.47314
X0.88100 Y0.47314
X0.88100 Y0.46914
G04 P0 ( dwell for no time -- G64 should not smooth over this point )
G00 Z0.19685 ( retract )

G00 X0.59900 Y0.46714 ( rapid move to begin. )
G01 Z-0.01969 F1.96850 ( plunge. )
G04 P0 ( dwell for no time -- G64 should not smooth over this point )
X0.59900 Y0.46714
X0.60000 Y0.46714
X0.60000 Y0.46614
X0.60100 Y0.46614
X0.60100 Y0.46514
X0.60200 Y0.46514
X0.60200 Y0.46414
X0.60300 Y0.46414
X0.60300 Y0.46314
X0.60400 Y0.46314
X0.60400 Y0.46214
X0.60500 Y0.46214
X0.60500 Y0.46114
X0.60600 Y0.46114
X0.60600 Y0.45914
X0.60700 Y0.45914
X0.60700 Y0.45814
X0.60800 Y0.45814
X0.60800 Y0.45614
X0.60900 Y0.45614
X0.60900 Y0.45414
X0.61000 Y0.45414
X0.61000 Y0.45214
X0.61100 Y0.45214
X0.61100 Y0.44814
X0.61200 Y0.44814
X0.61200 Y0.43314
X0.61100 Y0.43314
X0.61100 Y0.42814
X0.61000 Y0.42814
X0.61000 Y0.42214
X0.60900 Y0.42214
X0.60900 Y0.41814
X0.60700 Y0.41814
X0.60700 Y0.41914
X0.60500 Y0.41914
X0.60500 Y0.41814
X0.60400 Y0.41814
X0.60400 Y0.41714
X0.60300 Y0.41714
X0.60300 Y0.41614
X0.60200 Y0.41614
X0.60200 Y0.41514
X0.60100 Y0.41514
X0.60100 Y0.41314
X0.60000 Y0.41314
X0.60000 Y0.41214
X0.59900 Y0.41214
X0.59900 Y0.41114
X0.59800 Y0.41114
X0.59800 Y0.41014
X0.59600 Y0.41014
X0.59600 Y0.40914
X0.59500 Y0.40914
X0.59500 Y0.40814
X0.59300 Y0.40814
X0.59300 Y0.40714
X0.59100 Y0.40714
X0.59100 Y0.40614
X0.58800 Y0.40614
X0.58800 Y0.40514
X0.58400 Y0.40514
X0.58400 Y0.40414
X0.57800 Y0.40414
X0.57800 Y0.40314
X0.57300 Y0.40314
X0.57300 Y0.40414
X0.56700 Y0.40414
X0.56700 Y0.40514
X0.56300 Y0.40514
X0.56300 Y0.40614
X0.56000 Y0.40614
X0.56000 Y0.40714
X0.55800 Y0.40714
X0.55800 Y0.40814
X0.55600 Y0.40814
X0.55600 Y0.40914
X0.55500 Y0.40914
X0.55500 Y0.41014
X0.55300 Y0.41014
X0.55300 Y0.41114
X0.55200 Y0.41114
X0.55200 Y0.41214
X0.55100 Y0.41214
X0.55100 Y0.41314
X0.55000 Y0.41314
X0.55000 Y0.41414
X0.54900 Y0.41414
X0.54900 Y0.41514
X0.54800 Y0.41514
X0.54800 Y0.41614
X0.54700 Y0.41614
X0.54700 Y0.41714
X0.54600 Y0.41714
X0.54600 Y0.41814
X0.54500 Y0.41814
X0.54500 Y0.42014
X0.54400 Y0.42014
X0.54400 Y0.42114
X0.54300 Y0.42114
X0.54300 Y0.42314
X0.54200 Y0.42314
X0.54200 Y0.42514
X0.54100 Y0.42514
X0.54100 Y0.42814
X0.54000 Y0.42814
X0.54000 Y0.43214
X0.53900 Y0.43214
X0.53900 Y0.43814
X0.53800 Y0.43814
X0.53800 Y0.44314
X0.53900 Y0.44314
X0.53900 Y0.44914
X0.54000 Y0.44914
X0.54000 Y0.45314
X0.54100 Y0.45314
X0.54100 Y0.45614
X0.54200 Y0.45614
X0.54200 Y0.45814
X0.54300 Y0.45814
X0.54300 Y0.46014
X0.54400 Y0.46014
X0.54400 Y0.46114
X0.54500 Y0.46114
X0.54500 Y0.46214
X0.54600 Y0.46214
X0.54600 Y0.46314
X0.54700 Y0.46314
X0.54700 Y0.46414
X0.54800 Y0.46414
X0.54800 Y0.46514
X0.54900 Y0.46514
X0.54900 Y0.46614
X0.55000 Y0.46614
X0.55000 Y0.46714
X0.55100 Y0.46714
X0.55100 Y0.46814
X0.55200 Y0.46814
X0.55200 Y0.46914
X0.55300 Y0.46914
X0.55300 Y0.47014
X0.55500 Y0.47014
X0.55500 Y0.47114
X0.55700 Y0.47114
X0.55700 Y0.47214
X0.55800 Y0.47214
X0.55800 Y0.47314
X0.56000 Y0.47314
X0.56000 Y0.47414
X0.56200 Y0.47414
X0.56200 Y0.47514
X0.56300 Y0.47514
X0.56300 Y0.47614
X0.56700 Y0.47614
X0.56700 Y0.47714
X0.58300 Y0.47714
X0.58300 Y0.47614
X0.58700 Y0.47614
X0.58700 Y0.47514
X0.58900 Y0.47514
X0.58900 Y0.47414
X0.59100 Y0.47414
X0.59100 Y0.47314
X0.59300 Y0.47314
X0.59300 Y0.47214
X0.59400 Y0.47214
X0.59400 Y0.47114
X0.59600 Y0.47114
X0.59600 Y0.47014
X0.59700 Y0.47014
X0.59700 Y0.46914
X0.59800 Y0.46914
X0.59800 Y0.46814
X0.59900 Y0.46814
X0.59900 Y0.46714
G04 P0 ( dwell for no time -- G64 should not smooth over this point )
G00 Z0.19685 ( retract )

G00 X1.14300 Y0.46714 ( rapid move to begin. )
G01 Z-0.01969 F1.96850 ( plunge. )
G04 P0 ( dwell for no time -- G64 should not smooth over this point )
X1.14300 Y0.46714
X1.14400 Y0.46714
X1.14400 Y0.46614
X1.14500 Y0.46614
X1.14500 Y0.46514
X1.14600 Y0.46514
X1.14600 Y0.46414
X1.14700 Y0.46414
X1.14700 Y0.46314
X1.14800 Y0.46314
X1.14800 Y0.46214
X1.14900 Y0.46214
X1.14900 Y0.46114
X1.15000 Y0.46114
X1.15000 Y0.46014
X1.15100 Y0.46014
X1.15100 Y0.45914
X1.15200 Y0.45914
X1.15200 Y0.45814
X1.15300 Y0.45814
X1.15300 Y0.45614
X1.15400 Y0.45614
X1.15400 Y0.45414
X1.15500 Y0.45414
X1.15500 Y0.45014
X1.15600 Y0.45014
X1.15600 Y0.44914
X1.15700 Y0.44914
X1.15700 Y0.44814
X1.18600 Y0.44814
X1.18600 Y0.45514
X1.18700 Y0.45514
X1.18700 Y0.46014
X1.22800 Y0.46014
X1.22800 Y0.45814
X1.22900 Y0.45814
X1.22900 Y0.41214
X1.22800 Y0.41214
X1.22800 Y0.41014
X1.18700 Y0.41014
X1.18700 Y0.41114
X1.18600 Y0.41114
X1.18600 Y0.41614
X1.18500 Y0.41614
X1.18500 Y0.43214
X1.15700 Y0.43214
X1.15700 Y0.43114
X1.15600 Y0.43114
X1.15600 Y0.42814
X1.15500 Y0.42814
X1.15500 Y0.42614
X1.15400 Y0.42614
X1.15400 Y0.42414
X1.15300 Y0.42414
X1.15300 Y0.42314
X1.15200 Y0.42314
X1.15200 Y0.42114
X1.15100 Y0.42114
X1.15100 Y0.42014
X1.15000 Y0.42014
X1.15000 Y0.41814
X1.14900 Y0.41814
X1.14900 Y0.41714
X1.14800 Y0.41714
X1.14800 Y0.41614
X1.14700 Y0.41614
X1.14700 Y0.41514
X1.14600 Y0.41514
X1.14600 Y0.41414
X1.14500 Y0.41414
X1.14500 Y0.41314
X1.14300 Y0.41314
X1.14300 Y0.41214
X1.14200 Y0.41214
X1.14200 Y0.41114
X1.14000 Y0.41114
X1.14000 Y0.41014
X1.13600 Y0.41014
X1.13600 Y0.40914
X1.13000 Y0.40914
X1.13000 Y0.40814
X1.12900 Y0.40814
X1.12900 Y0.40714
X1.12800 Y0.40714
X1.12800 Y0.40614
X1.12700 Y0.40614
X1.12700 Y0.40514
X1.12600 Y0.40514
X1.12600 Y0.40414
X1.12500 Y0.40414
X1.12500 Y0.40314
X1.11600 Y0.40314
X1.11600 Y0.40514
X1.11300 Y0.40514
X1.11300 Y0.40614
X1.11000 Y0.40614
X1.11000 Y0.40714
X1.10800 Y0.40714
X1.10800 Y0.40814
X1.10600 Y0.40814
X1.10600 Y0.40914
X1.10500 Y0.40914
X1.10500 Y0.41014
X1.10300 Y0.41014
X1.10300 Y0.41114
X1.10200 Y0.41114
X1.10200 Y0.41214
X1.10100 Y0.41214
X1.10100 Y0.41314
X1.10000 Y0.41314
X1.10000 Y0.41414
X1.09900 Y0.41414
X1.09900 Y0.41514
X1.09800 Y0.41514
X1.09800 Y0.41614
X1.09700 Y0.41614
X1.09700 Y0.41714
X1.09600 Y0.41714
X1.09600 Y0.41814
X1.09500 Y0.41814
X1.09500 Y0.42014
X1.09400 Y0.42014
X1.09400 Y0.42114
X1.09300 Y0.42114
X1.09300 Y0.42314
X1.09200 Y0.42314
X1.09200 Y0.42514
X1.09100 Y0.42514
X1.09100 Y0.42814
X1.09000 Y0.42814
X1.09000 Y0.43214
X1.08900 Y0.43214
X1.08900 Y0.43814
X1.08800 Y0.43814
X1.08800 Y0.44314
X1.08900 Y0.44314
X1.08900 Y0.44914
X1.09000 Y0.44914
X1.09000 Y0.45314
X1.09100 Y0.45314
X1.09100 Y0.45614
X1.09200 Y0.45614
X1.09200 Y0.45814
X1.09300 Y0.45814
X1.09300 Y0.46014
X1.09400 Y0.46014
X1.09400 Y0.46114
X1.09500 Y0.46114
X1.09500 Y0.46214
X1.09600 Y0.46214
X1.09600 Y0.46314
X1.09700 Y0.46314
X1.09700 Y0.46414
X1.09800 Y0.46414
X1.09800 Y0.46514
X1.09900 Y0.46514
X1.09900 Y0.46614
X1.10000 Y0.46614
X1.10000 Y0.46714
X1.10100 Y0.46714
X1.10100 Y0.46814
X1.10200 Y0.46814
X1.10200 Y0.46914
X1.10300 Y0.46914
X1.10300 Y0.47014
X1.10500 Y0.47014
X1.10500 Y0.47114
X1.10700 Y0.47114
X1.10700 Y0.47214
X1.10800 Y0.47214
X1.10800 Y0.47314
X1.11000 Y0.47314
X1.11000 Y0.47414
X1.11200 Y0.47414
X1.11200 Y0.47514
X1.11300 Y0.47514
X1.11300 Y0.47614
X1.11700 Y0.47614
X1.11700 Y0.47714
X1.12500 Y0.47714
X1.12500 Y0.47614
X1.12600 Y0.47614
X1.12600 Y0.47514
X1.12700 Y0.47514
X1.12700 Y0.47414
X1.12800 Y0.47414
X1.12800 Y0.47314
X1.12900 Y0.47314
X1.12900 Y0.47214
X1.13300 Y0.47214
X1.13300 Y0.47114
X1.13500 Y0.47114
X1.13500 Y0.47014
X1.14000 Y0.47014
X1.14000 Y0.46914
X1.14100 Y0.46914
X1.14100 Y0.46814
X1.14300 Y0.46814
X1.14300 Y0.46714
G04 P0 ( dwell for no time -- G64 should not smooth over this point )
G00 Z0.19685 ( retract )

G00 X0.64900 Y0.42814 ( rapid move to begin. )
G01 Z-0.01969 F1.96850 ( plunge. )
G04 P0 ( dwell for no time -- G64 should not smooth over this point )
X0.64900 Y0.42814
X0.65000 Y0.42814
X0.65000 Y0.42614
X0.65100 Y0.42614
X0.65100 Y0.42314
X0.65200 Y0.42314
X0.65200 Y0.42014
X0.65100 Y0.42014
X0.65100 Y0.41814
X0.65000 Y0.41814
X0.65000 Y0.41514
X0.64900 Y0.41514
X0.64900 Y0.41114
X0.64800 Y0.41114
X0.64800 Y0.40714
X0.64700 Y0.40714
X0.64700 Y0.40414
X0.64600 Y0.40414
X0.64600 Y0.40314
X0.64500 Y0.40314
X0.64500 Y0.40014
X0.64400 Y0.40014
X0.64400 Y0.39914
X0.64300 Y0.39914
X0.64300 Y0.39714
X0.64200 Y0.39714
X0.64200 Y0.39514
X0.64100 Y0.39514
X0.64100 Y0.38914
X0.64200 Y0.38914
X0.64200 Y0.38614
X0.64300 Y0.38614
X0.64300 Y0.38314
X0.64400 Y0.38314
X0.64400 Y0.38114
X0.64500 Y0.38114
X0.64500 Y0.37914
X0.64600 Y0.37914
X0.64600 Y0.37714
X0.64700 Y0.37714
X0.64700 Y0.37514
X0.64800 Y0.37514
X0.64800 Y0.37414
X0.64900 Y0.37414
X0.64900 Y0.37314
X0.65000 Y0.37314
X0.65000 Y0.37214
X0.65100 Y0.37214
X0.65100 Y0.37114
X0.65200 Y0.37114
X0.65200 Y0.36914
X0.65300 Y0.36914
X0.65300 Y0.36814
X0.65400 Y0.36814
X0.65400 Y0.36714
X0.65500 Y0.36714
X0.65500 Y0.36614
X0.65700 Y0.36614
X0.65700 Y0.36514
X0.65800 Y0.36514
X0.65800 Y0.36414
X0.65900 Y0.36414
X0.65900 Y0.36314
X0.66000 Y0.36314
X0.66000 Y0.36214
X0.66100 Y0.36214
X0.66100 Y0.36114
X0.66400 Y0.36114
X0.66400 Y0.36014
X0.66500 Y0.36014
X0.66500 Y0.35914
X0.66800 Y0.35914
X0.66800 Y0.35814
X0.67100 Y0.35814
X0.67100 Y0.35714
X0.67400 Y0.35714
X0.67400 Y0.35614
X0.67700 Y0.35614
X0.67700 Y0.35514
X0.67800 Y0.35514
X0.67800 Y0.35314
X0.67600 Y0.35314
X0.67600 Y0.35114
X0.67700 Y0.35114
X0.67700 Y0.35014
X0.67800 Y0.35014
X0.67800 Y0.34914
X0.67900 Y0.34914
X0.67900 Y0.34814
X0.68000 Y0.34814
X0.68000 Y0.34714
X0.68100 Y0.34714
X0.68100 Y0.34614
X0.68200 Y0.34614
X0.68200 Y0.34514
X0.68300 Y0.34514
X0.68300 Y0.34414
X0.68400 Y0.34414
X0.68400 Y0.34314
X0.68500 Y0.34314
X0.68500 Y0.34114
X0.68600 Y0.34114
X0.68600 Y0.34014
X0.68700 Y0.34014
X0.68700 Y0.33714
X0.68800 Y0.33714
X0.68800 Y0.32514
X0.68900 Y0.32514
X0.68900 Y0.32414
X0.69100 Y0.32414
X0.69100 Y0.32314
X0.69300 Y0.32314
X0.69300 Y0.32214
X0.69400 Y0.32214
X0.69400 Y0.32114
X0.69600 Y0.32114
X0.69600 Y0.32014
X0.69700 Y0.32014
X0.69700 Y0.31914
X0.69800 Y0.31914
X0.69800 Y0.31814
X0.69900 Y0.31814
X0.69900 Y0.31714
X0.70000 Y0.31714
X0.70000 Y0.31614
X0.70100 Y0.31614
X0.70100 Y0.31514
X0.70200 Y0.31514
X0.70200 Y0.31414
X0.70300 Y0.31414
X0.70300 Y0.31314
X0.70400 Y0.31314
X0.70400 Y0.31214
X0.70500 Y0.31214
X0.70500 Y0.31114
X0.70600 Y0.31114
X0.70600 Y0.30914
X0.70700 Y0.30914
X0.70700 Y0.30814
X0.70800 Y0.30814
X0.70800 Y0.30614
X0.70900 Y0.30614
X0.70900 Y0.30414
X0.71000 Y0.30414
X0.71000 Y0.30214
X0.71100 Y0.30214
X0.71100 Y0.29814
X0.71200 Y0.29814
X0.71200 Y0.28214
X0.71100 Y0.28214
X0.71100 Y0.27814
X0.71000 Y0.27814
X0.71000 Y0.27714
X0.70900 Y0.27714
X0.70900 Y0.27514
X0.70800 Y0.27514
X0.70800 Y0.27314
X0.70700 Y0.27314
X0.70700 Y0.27214
X0.70600 Y0.27214
X0.70600 Y0.27014
X0.70500 Y0.27014
X0.70500 Y0.26814
X0.70400 Y0.26814
X0.70400 Y0.26714
X0.70300 Y0.26714
X0.70300 Y0.26614
X0.70200 Y0.26614
X0.70200 Y0.26514
X0.70100 Y0.26514
X0.70100 Y0.26314
X0.70000 Y0.26314
X0.70000 Y0.26214
X0.69900 Y0.26214
X0.69900 Y0.26114
X0.69800 Y0.26114
X0.69800 Y0.26014
X0.69600 Y0.26014
X0.69600 Y0.25914
X0.69500 Y0.25914
X0.69500 Y0.25814
X0.69300 Y0.25814
X0.69300 Y0.25714
X0.69100 Y0.25714
X0.69100 Y0.25614
X0.68800 Y0.25614
X0.68800 Y0.25514
X0.68400 Y0.25514
X0.68400 Y0.25414
X0.67800 Y0.25414
X0.67800 Y0.25314
X0.67300 Y0.25314
X0.67300 Y0.25414
X0.66700 Y0.25414
X0.66700 Y0.25514
X0.66300 Y0.25514
X0.66300 Y0.25614
X0.66000 Y0.25614
X0.66000 Y0.25714
X0.65800 Y0.25714
X0.65800 Y0.25814
X0.65600 Y0.25814
X0.65600 Y0.25914
X0.65500 Y0.25914
X0.65500 Y0.26014
X0.65300 Y0.26014
X0.65300 Y0.26114
X0.65200 Y0.26114
X0.65200 Y0.26214
X0.65100 Y0.26214
X0.65100 Y0.26314
X0.65000 Y0.26314
X0.65000 Y0.26414
X0.64900 Y0.26414
X0.64900 Y0.26514
X0.64800 Y0.26514
X0.64800 Y0.26614
X0.64700 Y0.26614
X0.64700 Y0.26714
X0.64600 Y0.26714
X0.64600 Y0.26814
X0.64500 Y0.26814
X0.64500 Y0.27014
X0.64400 Y0.27014
X0.64400 Y0.27114
X0.64300 Y0.27114
X0.64300 Y0.27314
X0.64200 Y0.27314
X0.64200 Y0.27514
X0.64100 Y0.27514
X0.64100 Y0.27814
X0.64000 Y0.27814
X0.64000 Y0.28214
X0.63900 Y0.28214
X0.63900 Y0.28814
X0.63800 Y0.28814
X0.63800 Y0.29314
X0.63900 Y0.29314
X0.63900 Y0.29914
X0.64000 Y0.29914
X0.64000 Y0.30314
X0.64100 Y0.30314
X0.64100 Y0.30614
X0.64200 Y0.30614
X0.64200 Y0.30814
X0.64300 Y0.30814
X0.64300 Y0.31014
X0.64400 Y0.31014
X0.64400 Y0.31114
X0.64500 Y0.31114
X0.64500 Y0.31214
X0.64600 Y0.31214
X0.64600 Y0.31314
X0.64700 Y0.31314
X0.64700 Y0.31414
X0.64800 Y0.31414
X0.64800 Y0.31514
X0.64900 Y0.31514
X0.64900 Y0.31614
X0.65000 Y0.31614
X0.65000 Y0.31714
X0.65100 Y0.31714
X0.65100 Y0.31814
X0.65200 Y0.31814
X0.65200 Y0.31914
X0.65300 Y0.31914
X0.65300 Y0.32014
X0.65500 Y0.32014
X0.65500 Y0.32114
X0.65700 Y0.32114
X0.65700 Y0.32214
X0.65800 Y0.32214
X0.65800 Y0.32314
X0.66000 Y0.32314
X0.66000 Y0.32414
X0.66200 Y0.32414
X0.66200 Y0.32514
X0.66300 Y0.32514
X0.66300 Y0.33014
X0.66200 Y0.33014
X0.66200 Y0.33114
X0.66100 Y0.33114
X0.66100 Y0.33214
X0.66000 Y0.33214
X0.66000 Y0.33314
X0.65900 Y0.33314
X0.65900 Y0.33414
X0.65800 Y0.33414
X0.65800 Y0.33514
X0.65700 Y0.33514
X0.65700 Y0.33614
X0.65600 Y0.33614
X0.65600 Y0.33714
X0.65500 Y0.33714
X0.65500 Y0.33814
X0.65400 Y0.33814
X0.65400 Y0.33914
X0.65300 Y0.33914
X0.65300 Y0.34014
X0.65200 Y0.34014
X0.65200 Y0.34114
X0.65100 Y0.34114
X0.65100 Y0.34214
X0.65000 Y0.34214
X0.65000 Y0.34314
X0.64900 Y0.34314
X0.64900 Y0.34414
X0.64800 Y0.34414
X0.64800 Y0.34514
X0.64700 Y0.34514
X0.64700 Y0.34614
X0.64600 Y0.34614
X0.64600 Y0.34714
X0.64500 Y0.34714
X0.64500 Y0.34814
X0.64400 Y0.34814
X0.64400 Y0.34914
X0.64300 Y0.34914
X0.64300 Y0.35014
X0.64200 Y0.35014
X0.64200 Y0.35114
X0.64100 Y0.35114
X0.64100 Y0.35214
X0.64000 Y0.35214
X0.64000 Y0.35314
X0.63900 Y0.35314
X0.63900 Y0.35414
X0.63800 Y0.35414
X0.63800 Y0.35514
X0.63700 Y0.35514
X0.63700 Y0.35614
X0.63600 Y0.35614
X0.63600 Y0.35714
X0.63500 Y0.35714
X0.63500 Y0.35814
X0.63400 Y0.35814
X0.63400 Y0.35914
X0.63300 Y0.35914
X0.63300 Y0.36014
X0.63200 Y0.36014
X0.63200 Y0.36114
X0.63100 Y0.36114
X0.63100 Y0.36214
X0.63000 Y0.36214
X0.63000 Y0.36314
X0.62900 Y0.36314
X0.62900 Y0.36414
X0.62800 Y0.36414
X0.62800 Y0.36514
X0.62700 Y0.36514
X0.62700 Y0.36614
X0.62600 Y0.36614
X0.62600 Y0.36714
X0.62500 Y0.36714
X0.62500 Y0.36814
X0.62400 Y0.36814
X0.62400 Y0.36914
X0.62300 Y0.36914
X0.62300 Y0.37014
X0.62200 Y0.37014
X0.62200 Y0.37214
X0.62100 Y0.37214
X0.62100 Y0.37314
X0.62000 Y0.37314
X0.62000 Y0.37414
X0.61900 Y0.37414
X0.61900 Y0.37614
X0.61800 Y0.37614
X0.61800 Y0.39614
X0.61700 Y0.39614
X0.61700 Y0.39714
X0.61600 Y0.39714
X0.61600 Y0.39814
X0.61500 Y0.39814
X0.61500 Y0.39914
X0.61400 Y0.39914
X0.61400 Y0.40014
X0.61300 Y0.40014
X0.61300 Y0.40114
X0.61200 Y0.40114
X0.61200 Y0.40314
X0.61100 Y0.40314
X0.61100 Y0.40414
X0.61000 Y0.40414
X0.61000 Y0.40614
X0.60900 Y0.40614
X0.60900 Y0.40714
X0.60800 Y0.40714
X0.60800 Y0.41014
X0.60700 Y0.41014
X0.60700 Y0.41814
X0.60900 Y0.41814
X0.60900 Y0.42214
X0.61000 Y0.42214
X0.61000 Y0.42814
X0.61100 Y0.42814
X0.61100 Y0.42914
X0.61300 Y0.42914
X0.61300 Y0.43014
X0.61400 Y0.43014
X0.61400 Y0.43114
X0.61500 Y0.43114
X0.61500 Y0.43214
X0.61600 Y0.43214
X0.61600 Y0.43314
X0.61700 Y0.43314
X0.61700 Y0.43414
X0.61800 Y0.43414
X0.61800 Y0.43514
X0.61900 Y0.43514
X0.61900 Y0.43614
X0.62200 Y0.43614
X0.62200 Y0.43714
X0.62500 Y0.43714
X0.62500 Y0.43814
X0.63500 Y0.43814
X0.63500 Y0.43714
X0.63800 Y0.43714
X0.63800 Y0.43614
X0.64100 Y0.43614
X0.64100 Y0.43514
X0.64300 Y0.43514
X0.64300 Y0.43414
X0.64400 Y0.43414
X0.64400 Y0.43314
X0.64500 Y0.43314
X0.64500 Y0.43214
X0.64600 Y0.43214
X0.64600 Y0.43114
X0.64700 Y0.43114
X0.64700 Y0.43014
X0.64800 Y0.43014
X0.64800 Y0.42914
X0.64900 Y0.42914
X0.64900 Y0.42814
G04 P0 ( dwell for no time -- G64 should not smooth over this point )
G00 Z0.19685 ( retract )

G00 X1.18500 Y0.42714 ( rapid move to begin. )
G01 Z-0.01969 F1.96850 ( plunge. )
G04 P0 ( dwell for no time -- G64 should not smooth over this point )
X1.18500 Y0.42714
X1.18500 Y0.41614
X1.18600 Y0.41614
X1.18600 Y0.41114
X1.18700 Y0.41114
X1.18700 Y0.40514
X1.18600 Y0.40514
X1.18600 Y0.39814
X1.12900 Y0.39814
X1.12900 Y0.39914
X1.12800 Y0.39914
X1.12800 Y0.40014
X1.12700 Y0.40014
X1.12700 Y0.40114
X1.12600 Y0.40114
X1.12600 Y0.40214
X1.12500 Y0.40214
X1.12500 Y0.40414
X1.12600 Y0.40414
X1.12600 Y0.40514
X1.12700 Y0.40514
X1.12700 Y0.40614
X1.12800 Y0.40614
X1.12800 Y0.40714
X1.12900 Y0.40714
X1.12900 Y0.40814
X1.13000 Y0.40814
X1.13000 Y0.40914
X1.13600 Y0.40914
X1.13600 Y0.41014
X1.14000 Y0.41014
X1.14000 Y0.41114
X1.14200 Y0.41114
X1.14200 Y0.41214
X1.14300 Y0.41214
X1.14300 Y0.41314
X1.14500 Y0.41314
X1.14500 Y0.41414
X1.14600 Y0.41414
X1.14600 Y0.41514
X1.14700 Y0.41514
X1.14700 Y0.41614
X1.14800 Y0.41614
X1.14800 Y0.41714
X1.14900 Y0.41714
X1.14900 Y0.41814
X1.15000 Y0.41814
X1.15000 Y0.42014
X1.15100 Y0.42014
X1.15100 Y0.42114
X1.15200 Y0.42114
X1.15200 Y0.42314
X1.15300 Y0.42314
X1.15300 Y0.42414
X1.15400 Y0.42414
X1.15400 Y0.42614
X1.15500 Y0.42614
X1.15500 Y0.42814
X1.15600 Y0.42814
X1.15600 Y0.43114
X1.15700 Y0.43114
X1.15700 Y0.43214
X1.18500 Y0.43214
X1.18500 Y0.42714
G04 P0 ( dwell for no time -- G64 should not smooth over this point )
G00 Z0.19685 ( retract )

G00 X0.69900 Y0.41714 ( rapid move to begin. )
G01 Z-0.01969 F1.96850 ( plunge. )
G04 P0 ( dwell for no time -- G64 should not smooth over this point )
X0.69900 Y0.41714
X0.70000 Y0.41714
X0.70000 Y0.41614
X0.70100 Y0.41614
X0.70100 Y0.41514
X0.70200 Y0.41514
X0.70200 Y0.41414
X0.70300 Y0.41414
X0.70300 Y0.41314
X0.70400 Y0.41314
X0.70400 Y0.41214
X0.70500 Y0.41214
X0.70500 Y0.41114
X0.70600 Y0.41114
X0.70600 Y0.40914
X0.70700 Y0.40914
X0.70700 Y0.40814
X0.70800 Y0.40814
X0.70800 Y0.40614
X0.70900 Y0.40614
X0.70900 Y0.40414
X0.71000 Y0.40414
X0.71000 Y0.40214
X0.71100 Y0.40214
X0.71100 Y0.39814
X0.71200 Y0.39814
X0.71200 Y0.38214
X0.71100 Y0.38214
X0.71100 Y0.37814
X0.71000 Y0.37814
X0.71000 Y0.37714
X0.70900 Y0.37714
X0.70900 Y0.37514
X0.70800 Y0.37514
X0.70800 Y0.37314
X0.70700 Y0.37314
X0.70700 Y0.37214
X0.70600 Y0.37214
X0.70600 Y0.37014
X0.70500 Y0.37014
X0.70500 Y0.36814
X0.70400 Y0.36814
X0.70400 Y0.36714
X0.70300 Y0.36714
X0.70300 Y0.36614
X0.70200 Y0.36614
X0.70200 Y0.36514
X0.70100 Y0.36514
X0.70100 Y0.36314
X0.70000 Y0.36314
X0.70000 Y0.36214
X0.69900 Y0.36214
X0.69900 Y0.36114
X0.69800 Y0.36114
X0.69800 Y0.36014
X0.69600 Y0.36014
X0.69600 Y0.35914
X0.69500 Y0.35914
X0.69500 Y0.35814
X0.69300 Y0.35814
X0.69300 Y0.35714
X0.69100 Y0.35714
X0.69100 Y0.35614
X0.68800 Y0.35614
X0.68800 Y0.35514
X0.68400 Y0.35514
X0.68400 Y0.35414
X0.67800 Y0.35414
X0.67800 Y0.35514
X0.67700 Y0.35514
X0.67700 Y0.35614
X0.67400 Y0.35614
X0.67400 Y0.35714
X0.67100 Y0.35714
X0.67100 Y0.35814
X0.66800 Y0.35814
X0.66800 Y0.35914
X0.66500 Y0.35914
X0.66500 Y0.36014
X0.66400 Y0.36014
X0.66400 Y0.36114
X0.66100 Y0.36114
X0.66100 Y0.36214
X0.66000 Y0.36214
X0.66000 Y0.36314
X0.65900 Y0.36314
X0.65900 Y0.36414
X0.65800 Y0.36414
X0.65800 Y0.36514
X0.65700 Y0.36514
X0.65700 Y0.36614
X0.65500 Y0.36614
X0.65500 Y0.36714
X0.65400 Y0.36714
X0.65400 Y0.36814
X0.65300 Y0.36814
X0.65300 Y0.36914
X0.65200 Y0.36914
X0.65200 Y0.37114
X0.65100 Y0.37114
X0.65100 Y0.37214
X0.65000 Y0.37214
X0.65000 Y0.37314
X0.64900 Y0.37314
X0.64900 Y0.37414
X0.64800 Y0.37414
X0.64800 Y0.37514
X0.64700 Y0.37514
X0.64700 Y0.37714
X0.64600 Y0.37714
X0.64600 Y0.37914
X0.64500 Y0.37914
X0.64500 Y0.38114
X0.64400 Y0.38114
X0.64400 Y0.38314
X0.64300 Y0.38314
X0.64300 Y0.38614
X0.64200 Y0.38614
X0.64200 Y0.38914
X0.64100 Y0.38914
X0.64100 Y0.39514
X0.64200 Y0.39514
X0.64200 Y0.39714
X0.64300 Y0.39714
X0.64300 Y0.39914
X0.64400 Y0.39914
X0.64400 Y0.40014
X0.64500 Y0.40014
X0.64500 Y0.40314
X0.64600 Y0.40314
X0.64600 Y0.40414
X0.64700 Y0.40414
X0.64700 Y0.40714
X0.64800 Y0.40714
X0.64800 Y0.41114
X0.64900 Y0.41114
X0.64900 Y0.41514
X0.65000 Y0.41514
X0.65000 Y0.41814
X0.65100 Y0.41814
X0.65100 Y0.42014
X0.65500 Y0.42014
X0.65500 Y0.42114
X0.65700 Y0.42114
X0.65700 Y0.42214
X0.65800 Y0.42214
X0.65800 Y0.42314
X0.66000 Y0.42314
X0.66000 Y0.42414
X0.66200 Y0.42414
X0.66200 Y0.42514
X0.66300 Y0.42514
X0.66300 Y0.42614
X0.66700 Y0.42614
X0.66700 Y0.42714
X0.68300 Y0.42714
X0.68300 Y0.42614
X0.68700 Y0.42614
X0.68700 Y0.42514
X0.68900 Y0.42514
X0.68900 Y0.42414
X0.69100 Y0.42414
X0.69100 Y0.42314
X0.69300 Y0.42314
X0.69300 Y0.42214
X0.69400 Y0.42214
X0.69400 Y0.42114
X0.69600 Y0.42114
X0.69600 Y0.42014
X0.69700 Y0.42014
X0.69700 Y0.41914
X0.69800 Y0.41914
X0.69800 Y0.41814
X0.69900 Y0.41814
X0.69900 Y0.41714
G04 P0 ( dwell for no time -- G64 should not smooth over this point )
G00 Z0.19685 ( retract )

G00 X1.04900 Y0.41714 ( rapid move to begin. )
G01 Z-0.01969 F1.96850 ( plunge. )
G04 P0 ( dwell for no time -- G64 should not smooth over this point )
X1.04900 Y0.41714
X1.05000 Y0.41714
X1.05000 Y0.41614
X1.05100 Y0.41614
X1.05100 Y0.41514
X1.05200 Y0.41514
X1.05200 Y0.41414
X1.05300 Y0.41414
X1.05300 Y0.41314
X1.05400 Y0.41314
X1.05400 Y0.41214
X1.05500 Y0.41214
X1.05500 Y0.41114
X1.05600 Y0.41114
X1.05600 Y0.40914
X1.05700 Y0.40914
X1.05700 Y0.40814
X1.05800 Y0.40814
X1.05800 Y0.40614
X1.05900 Y0.40614
X1.05900 Y0.40414
X1.06000 Y0.40414
X1.06000 Y0.40314
X1.12500 Y0.40314
X1.12500 Y0.40214
X1.12600 Y0.40214
X1.12600 Y0.40114
X1.12700 Y0.40114
X1.12700 Y0.40014
X1.12800 Y0.40014
X1.12800 Y0.39914
X1.12900 Y0.39914
X1.12900 Y0.39814
X1.18600 Y0.39814
X1.18600 Y0.40514
X1.18700 Y0.40514
X1.18700 Y0.41014
X1.22800 Y0.41014
X1.22800 Y0.40814
X1.22900 Y0.40814
X1.22900 Y0.36214
X1.22800 Y0.36214
X1.22800 Y0.36014
X1.18700 Y0.36014
X1.18700 Y0.36114
X1.18600 Y0.36114
X1.18600 Y0.36614
X1.18500 Y0.36614
X1.18500 Y0.38214
X1.12900 Y0.38214
X1.12900 Y0.38114
X1.12800 Y0.38114
X1.12800 Y0.38014
X1.12500 Y0.38014
X1.12500 Y0.38114
X1.12400 Y0.38114
X1.12400 Y0.38214
X1.05700 Y0.38214
X1.05700 Y0.38114
X1.05600 Y0.38114
X1.05600 Y0.37814
X1.05500 Y0.37814
X1.05500 Y0.37614
X1.05400 Y0.37614
X1.05400 Y0.37414
X1.05300 Y0.37414
X1.05300 Y0.37314
X1.05200 Y0.37314
X1.05200 Y0.37114
X1.05100 Y0.37114
X1.05100 Y0.37014
X1.05000 Y0.37014
X1.05000 Y0.36814
X1.04900 Y0.36814
X1.04900 Y0.36714
X1.04800 Y0.36714
X1.04800 Y0.36614
X1.04700 Y0.36614
X1.04700 Y0.36514
X1.04600 Y0.36514
X1.04600 Y0.36414
X1.04500 Y0.36414
X1.04500 Y0.36314
X1.04300 Y0.36314
X1.04300 Y0.36214
X1.04200 Y0.36214
X1.04200 Y0.36114
X1.04000 Y0.36114
X1.04000 Y0.36014
X1.03600 Y0.36014
X1.03600 Y0.35914
X1.03000 Y0.35914
X1.03000 Y0.35814
X1.02100 Y0.35814
X1.02100 Y0.35914
X1.01500 Y0.35914
X1.01500 Y0.36014
X1.01300 Y0.36014
X1.01300 Y0.36114
X1.01100 Y0.36114
X1.01100 Y0.36214
X1.00700 Y0.36214
X1.00700 Y0.36314
X1.00200 Y0.36314
X1.00200 Y0.36414
X0.99900 Y0.36414
X0.99900 Y0.36814
X0.99800 Y0.36814
X0.99800 Y0.37214
X0.99700 Y0.37214
X0.99700 Y0.37714
X0.99600 Y0.37714
X0.99600 Y0.37814
X0.99500 Y0.37814
X0.99500 Y0.38114
X0.99400 Y0.38114
X0.99400 Y0.38814
X0.99300 Y0.38814
X0.99300 Y0.38914
X0.99200 Y0.38914
X0.99200 Y0.39014
X0.99100 Y0.39014
X0.99100 Y0.39114
X0.99000 Y0.39114
X0.99000 Y0.39214
X0.98800 Y0.39214
X0.98800 Y0.39614
X0.98900 Y0.39614
X0.98900 Y0.39914
X0.99000 Y0.39914
X0.99000 Y0.40314
X0.99100 Y0.40314
X0.99100 Y0.40614
X0.99200 Y0.40614
X0.99200 Y0.40814
X0.99300 Y0.40814
X0.99300 Y0.41014
X0.99400 Y0.41014
X0.99400 Y0.41114
X0.99500 Y0.41114
X0.99500 Y0.41214
X0.99600 Y0.41214
X0.99600 Y0.41314
X0.99700 Y0.41314
X0.99700 Y0.41414
X0.99800 Y0.41414
X0.99800 Y0.41514
X0.99900 Y0.41514
X0.99900 Y0.41614
X1.00000 Y0.41614
X1.00000 Y0.41714
X1.00100 Y0.41714
X1.00100 Y0.41814
X1.00200 Y0.41814
X1.00200 Y0.41914
X1.00300 Y0.41914
X1.00300 Y0.42014
X1.00500 Y0.42014
X1.00500 Y0.42114
X1.00700 Y0.42114
X1.00700 Y0.42214
X1.00800 Y0.42214
X1.00800 Y0.42314
X1.01000 Y0.42314
X1.01000 Y0.42414
X1.01300 Y0.42414
X1.01300 Y0.42514
X1.01400 Y0.42514
X1.01400 Y0.42614
X1.01700 Y0.42614
X1.01700 Y0.42714
X1.03300 Y0.42714
X1.03300 Y0.42614
X1.03700 Y0.42614
X1.03700 Y0.42514
X1.03900 Y0.42514
X1.03900 Y0.42414
X1.04100 Y0.42414
X1.04100 Y0.42314
X1.04300 Y0.42314
X1.04300 Y0.42214
X1.04400 Y0.42214
X1.04400 Y0.42114
X1.04600 Y0.42114
X1.04600 Y0.42014
X1.04700 Y0.42014
X1.04700 Y0.41914
X1.04800 Y0.41914
X1.04800 Y0.41814
X1.04900 Y0.41814
X1.04900 Y0.41714
G04 P0 ( dwell for no time -- G64 should not smooth over this point )
G00 Z0.19685 ( retract )

G00 X0.98400 Y0.40314 ( rapid move to begin. )
G01 Z-0.01969 F1.96850 ( plunge. )
G04 P0 ( dwell for no time -- G64 should not smooth over this point )
X0.98400 Y0.40314
X0.98500 Y0.40314
X0.98500 Y0.40114
X0.98600 Y0.40114
X0.98600 Y0.39814
X0.98700 Y0.39814
X0.98700 Y0.39614
X0.98800 Y0.39614
X0.98800 Y0.39214
X0.98700 Y0.39214
X0.98700 Y0.39114
X0.98600 Y0.39114
X0.98600 Y0.39014
X0.98500 Y0.39014
X0.98500 Y0.38914
X0.98400 Y0.38914
X0.98400 Y0.38814
X0.98300 Y0.38814
X0.98300 Y0.38214
X0.98200 Y0.38214
X0.98200 Y0.37514
X0.98300 Y0.37514
X0.98300 Y0.37414
X0.98400 Y0.37414
X0.98400 Y0.37314
X0.98500 Y0.37314
X0.98500 Y0.37214
X0.98600 Y0.37214
X0.98600 Y0.37114
X0.98700 Y0.37114
X0.98700 Y0.36914
X0.98800 Y0.36914
X0.98800 Y0.36814
X0.99000 Y0.36814
X0.99000 Y0.36714
X0.99300 Y0.36714
X0.99300 Y0.36614
X0.99600 Y0.36614
X0.99600 Y0.36514
X0.99900 Y0.36514
X0.99900 Y0.36414
X1.00000 Y0.36414
X1.00000 Y0.36114
X1.00100 Y0.36114
X1.00100 Y0.35814
X1.00200 Y0.35814
X1.00200 Y0.35514
X1.00300 Y0.35514
X1.00300 Y0.35314
X1.00400 Y0.35314
X1.00400 Y0.35214
X1.00600 Y0.35214
X1.00600 Y0.35114
X1.00700 Y0.35114
X1.00700 Y0.35014
X1.00800 Y0.35014
X1.00800 Y0.34914
X1.00900 Y0.34914
X1.00900 Y0.34814
X1.01000 Y0.34814
X1.01000 Y0.34714
X1.01100 Y0.34714
X1.01100 Y0.34614
X1.01200 Y0.34614
X1.01200 Y0.34514
X1.01300 Y0.34514
X1.01300 Y0.34414
X1.01400 Y0.34414
X1.01400 Y0.34314
X1.01500 Y0.34314
X1.01500 Y0.34214
X1.01600 Y0.34214
X1.01600 Y0.34114
X1.01700 Y0.34114
X1.01700 Y0.34014
X1.01800 Y0.34014
X1.01800 Y0.33914
X1.01900 Y0.33914
X1.01900 Y0.33814
X1.02000 Y0.33814
X1.02000 Y0.33714
X1.02100 Y0.33714
X1.02100 Y0.33614
X1.02200 Y0.33614
X1.02200 Y0.33514
X1.02300 Y0.33514
X1.02300 Y0.33414
X1.02400 Y0.33414
X1.02400 Y0.33314
X1.02500 Y0.33314
X1.02500 Y0.33214
X1.02600 Y0.33214
X1.02600 Y0.33114
X1.02700 Y0.33114
X1.02700 Y0.33014
X1.02800 Y0.33014
X1.02800 Y0.32914
X1.02900 Y0.32914
X1.02900 Y0.32814
X1.03000 Y0.32814
X1.03000 Y0.32714
X1.03100 Y0.32714
X1.03100 Y0.32514
X1.03200 Y0.32514
X1.03200 Y0.32314
X1.03300 Y0.32314
X1.03300 Y0.32214
X1.03600 Y0.32214
X1.03600 Y0.32114
X1.03800 Y0.32114
X1.03800 Y0.32014
X1.04000 Y0.32014
X1.04000 Y0.31914
X1.04100 Y0.31914
X1.04100 Y0.31814
X1.04300 Y0.31814
X1.04300 Y0.31714
X1.04500 Y0.31714
X1.04500 Y0.31614
X1.04700 Y0.31614
X1.04700 Y0.31514
X1.04800 Y0.31514
X1.04800 Y0.31414
X1.04900 Y0.31414
X1.04900 Y0.31314
X1.05000 Y0.31314
X1.05000 Y0.31114
X1.05100 Y0.31114
X1.05100 Y0.31014
X1.05200 Y0.31014
X1.05200 Y0.30814
X1.05300 Y0.30814
X1.05300 Y0.30714
X1.05400 Y0.30714
X1.05400 Y0.30514
X1.05500 Y0.30514
X1.05500 Y0.30314
X1.05600 Y0.30314
X1.05600 Y0.30014
X1.05700 Y0.30014
X1.05700 Y0.29914
X1.12100 Y0.29914
X1.12100 Y0.30014
X1.12200 Y0.30014
X1.12200 Y0.30114
X1.12300 Y0.30114
X1.12300 Y0.30214
X1.12400 Y0.30214
X1.12400 Y0.30314
X1.12600 Y0.30314
X1.12600 Y0.30214
X1.12700 Y0.30214
X1.12700 Y0.30114
X1.12800 Y0.30114
X1.12800 Y0.30014
X1.12900 Y0.30014
X1.12900 Y0.29914
X1.18500 Y0.29914
X1.18500 Y0.30414
X1.18600 Y0.30414
X1.18600 Y0.30914
X1.18700 Y0.30914
X1.18700 Y0.31014
X1.22800 Y0.31014
X1.22800 Y0.30814
X1.22900 Y0.30814
X1.22900 Y0.26214
X1.22800 Y0.26214
X1.22800 Y0.26014
X1.18700 Y0.26014
X1.18700 Y0.26114
X1.18600 Y0.26114
X1.18600 Y0.26614
X1.18500 Y0.26614
X1.18500 Y0.28214
X1.12900 Y0.28214
X1.12900 Y0.28114
X1.12800 Y0.28114
X1.12800 Y0.28014
X1.12700 Y0.28014
X1.12700 Y0.27914
X1.12600 Y0.27914
X1.12600 Y0.27814
X1.12500 Y0.27814
X1.12500 Y0.27714
X1.11700 Y0.27714
X1.11700 Y0.27814
X1.06000 Y0.27814
X1.06000 Y0.27714
X1.05900 Y0.27714
X1.05900 Y0.27514
X1.05800 Y0.27514
X1.05800 Y0.27314
X1.05700 Y0.27314
X1.05700 Y0.27214
X1.05600 Y0.27214
X1.05600 Y0.27014
X1.05500 Y0.27014
X1.05500 Y0.26814
X1.05400 Y0.26814
X1.05400 Y0.26714
X1.05300 Y0.26714
X1.05300 Y0.26614
X1.05200 Y0.26614
X1.05200 Y0.26514
X1.05100 Y0.26514
X1.05100 Y0.26314
X1.05000 Y0.26314
X1.05000 Y0.26214
X1.04900 Y0.26214
X1.04900 Y0.26114
X1.04800 Y0.26114
X1.04800 Y0.26014
X1.04600 Y0.26014
X1.04600 Y0.25914
X1.04500 Y0.25914
X1.04500 Y0.25814
X1.04300 Y0.25814
X1.04300 Y0.25714
X1.04100 Y0.25714
X1.04100 Y0.25614
X1.03800 Y0.25614
X1.03800 Y0.25514
X1.03400 Y0.25514
X1.03400 Y0.25414
X1.02800 Y0.25414
X1.02800 Y0.25314
X1.02300 Y0.25314
X1.02300 Y0.25414
X1.01700 Y0.25414
X1.01700 Y0.25514
X1.01300 Y0.25514
X1.01300 Y0.25614
X1.01000 Y0.25614
X1.01000 Y0.25714
X1.00800 Y0.25714
X1.00800 Y0.25814
X1.00600 Y0.25814
X1.00600 Y0.25914
X1.00500 Y0.25914
X1.00500 Y0.26014
X1.00300 Y0.26014
X1.00300 Y0.26114
X1.00200 Y0.26114
X1.00200 Y0.26214
X1.00100 Y0.26214
X1.00100 Y0.26314
X1.00000 Y0.26314
X1.00000 Y0.26414
X0.99900 Y0.26414
X0.99900 Y0.26514
X0.99800 Y0.26514
X0.99800 Y0.26614
X0.99700 Y0.26614
X0.99700 Y0.26714
X0.99600 Y0.26714
X0.99600 Y0.26814
X0.99500 Y0.26814
X0.99500 Y0.27014
X0.99400 Y0.27014
X0.99400 Y0.27114
X0.99300 Y0.27114
X0.99300 Y0.27314
X0.99200 Y0.27314
X0.99200 Y0.27514
X0.99100 Y0.27514
X0.99100 Y0.27814
X0.99000 Y0.27814
X0.99000 Y0.28214
X0.98900 Y0.28214
X0.98900 Y0.28814
X0.98800 Y0.28814
X0.98800 Y0.29314
X0.98900 Y0.29314
X0.98900 Y0.29914
X0.99000 Y0.29914
X0.99000 Y0.30314
X0.99100 Y0.30314
X0.99100 Y0.30614
X0.99200 Y0.30614
X0.99200 Y0.30814
X0.99300 Y0.30814
X0.99300 Y0.31014
X0.99400 Y0.31014
X0.99400 Y0.31114
X0.99500 Y0.31114
X0.99500 Y0.31214
X0.99600 Y0.31214
X0.99600 Y0.31314
X0.99700 Y0.31314
X0.99700 Y0.31414
X0.99800 Y0.31414
X0.99800 Y0.31514
X0.99900 Y0.31514
X0.99900 Y0.31614
X1.00000 Y0.31614
X1.00000 Y0.31714
X1.00100 Y0.31714
X1.00100 Y0.31814
X1.00200 Y0.31814
X1.00200 Y0.31914
X1.00300 Y0.31914
X1.00300 Y0.32014
X1.00500 Y0.32014
X1.00500 Y0.32314
X1.00400 Y0.32314
X1.00400 Y0.32414
X1.00300 Y0.32414
X1.00300 Y0.32514
X1.00200 Y0.32514
X1.00200 Y0.32614
X1.00100 Y0.32614
X1.00100 Y0.32714
X1.00000 Y0.32714
X1.00000 Y0.32814
X0.99900 Y0.32814
X0.99900 Y0.32914
X0.99800 Y0.32914
X0.99800 Y0.33014
X0.99700 Y0.33014
X0.99700 Y0.33114
X0.99600 Y0.33114
X0.99600 Y0.33214
X0.99500 Y0.33214
X0.99500 Y0.33314
X0.99400 Y0.33314
X0.99400 Y0.33414
X0.99300 Y0.33414
X0.99300 Y0.33514
X0.99200 Y0.33514
X0.99200 Y0.33614
X0.99100 Y0.33614
X0.99100 Y0.33714
X0.99000 Y0.33714
X0.99000 Y0.33814
X0.98900 Y0.33814
X0.98900 Y0.33914
X0.98800 Y0.33914
X0.98800 Y0.34014
X0.98700 Y0.34014
X0.98700 Y0.34114
X0.98600 Y0.34114
X0.98600 Y0.34214
X0.98500 Y0.34214
X0.98500 Y0.34314
X0.98400 Y0.34314
X0.98400 Y0.34414
X0.98300 Y0.34414
X0.98300 Y0.34514
X0.98200 Y0.34514
X0.98200 Y0.34614
X0.98100 Y0.34614
X0.98100 Y0.34714
X0.98000 Y0.34714
X0.98000 Y0.34814
X0.97900 Y0.34814
X0.97900 Y0.34914
X0.97800 Y0.34914
X0.97800 Y0.35014
X0.97700 Y0.35014
X0.97700 Y0.35114
X0.97600 Y0.35114
X0.97600 Y0.35214
X0.97500 Y0.35214
X0.97500 Y0.35314
X0.97400 Y0.35314
X0.97400 Y0.35414
X0.97300 Y0.35414
X0.97300 Y0.35514
X0.97200 Y0.35514
X0.97200 Y0.35614
X0.97100 Y0.35614
X0.97100 Y0.35714
X0.97000 Y0.35714
X0.97000 Y0.35814
X0.96900 Y0.35814
X0.96900 Y0.35914
X0.96800 Y0.35914
X0.96800 Y0.36014
X0.96700 Y0.36014
X0.96700 Y0.36114
X0.96600 Y0.36114
X0.96600 Y0.36214
X0.96500 Y0.36214
X0.96500 Y0.36314
X0.96400 Y0.36314
X0.96400 Y0.36414
X0.96300 Y0.36414
X0.96300 Y0.36514
X0.96200 Y0.36514
X0.96200 Y0.36614
X0.96100 Y0.36614
X0.96100 Y0.36714
X0.96000 Y0.36714
X0.96000 Y0.36814
X0.95700 Y0.36814
X0.95700 Y0.36914
X0.95600 Y0.36914
X0.95600 Y0.37014
X0.95400 Y0.37014
X0.95400 Y0.37114
X0.95300 Y0.37114
X0.95300 Y0.37214
X0.95100 Y0.37214
X0.95100 Y0.37314
X0.95000 Y0.37314
X0.95000 Y0.37414
X0.94900 Y0.37414
X0.94900 Y0.37514
X0.94800 Y0.37514
X0.94800 Y0.37614
X0.94700 Y0.37614
X0.94700 Y0.37814
X0.94600 Y0.37814
X0.94600 Y0.37914
X0.94500 Y0.37914
X0.94500 Y0.38114
X0.94400 Y0.38114
X0.94400 Y0.38214
X0.94300 Y0.38214
X0.94300 Y0.38514
X0.94200 Y0.38514
X0.94200 Y0.39514
X0.94300 Y0.39514
X0.94300 Y0.39814
X0.94400 Y0.39814
X0.94400 Y0.39914
X0.94500 Y0.39914
X0.94500 Y0.40114
X0.94600 Y0.40114
X0.94600 Y0.40314
X0.94700 Y0.40314
X0.94700 Y0.40414
X0.94800 Y0.40414
X0.94800 Y0.40514
X0.94900 Y0.40514
X0.94900 Y0.40614
X0.95000 Y0.40614
X0.95000 Y0.40714
X0.95100 Y0.40714
X0.95100 Y0.40814
X0.95200 Y0.40814
X0.95200 Y0.40914
X0.95300 Y0.40914
X0.95300 Y0.41014
X0.95400 Y0.41014
X0.95400 Y0.41114
X0.95700 Y0.41114
X0.95700 Y0.41214
X0.96000 Y0.41214
X0.96000 Y0.41314
X0.97000 Y0.41314
X0.97000 Y0.41214
X0.97300 Y0.41214
X0.97300 Y0.41114
X0.97600 Y0.41114
X0.97600 Y0.41014
X0.97800 Y0.41014
X0.97800 Y0.40914
X0.97900 Y0.40914
X0.97900 Y0.40814
X0.98000 Y0.40814
X0.98000 Y0.40714
X0.98100 Y0.40714
X0.98100 Y0.40614
X0.98200 Y0.40614
X0.98200 Y0.40514
X0.98300 Y0.40514
X0.98300 Y0.40414
X0.98400 Y0.40414
X0.98400 Y0.40314
G04 P0 ( dwell for no time -- G64 should not smooth over this point )
G00 Z0.19685 ( retract )

G00 X0.99400 Y0.38314 ( rapid move to begin. )
G01 Z-0.01969 F1.96850 ( plunge. )
G04 P0 ( dwell for no time -- G64 should not smooth over this point )
X0.99400 Y0.38314
X0.99400 Y0.38114
X0.99500 Y0.38114
X0.99500 Y0.37814
X0.99600 Y0.37814
X0.99600 Y0.37714
X0.99700 Y0.37714
X0.99700 Y0.37214
X0.99800 Y0.37214
X0.99800 Y0.36814
X0.99900 Y0.36814
X0.99900 Y0.36514
X0.99600 Y0.36514
X0.99600 Y0.36614
X0.99300 Y0.36614
X0.99300 Y0.36714
X0.99000 Y0.36714
X0.99000 Y0.36814
X0.98800 Y0.36814
X0.98800 Y0.36914
X0.98700 Y0.36914
X0.98700 Y0.37114
X0.98600 Y0.37114
X0.98600 Y0.37214
X0.98500 Y0.37214
X0.98500 Y0.37314
X0.98400 Y0.37314
X0.98400 Y0.37414
X0.98300 Y0.37414
X0.98300 Y0.37514
X0.98200 Y0.37514
X0.98200 Y0.38214
X0.98300 Y0.38214
X0.98300 Y0.38814
X0.98400 Y0.38814
X0.98400 Y0.38914
X0.98500 Y0.38914
X0.98500 Y0.39014
X0.98600 Y0.39014
X0.98600 Y0.39114
X0.98700 Y0.39114
X0.98700 Y0.39214
X0.99000 Y0.39214
X0.99000 Y0.39114
X0.99100 Y0.39114
X0.99100 Y0.39014
X0.99200 Y0.39014
X0.99200 Y0.38914
X0.99300 Y0.38914
X0.99300 Y0.38814
X0.99400 Y0.38814
X0.99400 Y0.38314
G04 P0 ( dwell for no time -- G64 should not smooth over this point )
G00 Z0.19685 ( retract )

G00 X1.12700 Y0.37714 ( rapid move to begin. )
G01 Z-0.01969 F1.96850 ( plunge. )
G04 P0 ( dwell for no time -- G64 should not smooth over this point )
X1.12700 Y0.37714
X1.12700 Y0.37414
X1.12500 Y0.37414
X1.12500 Y0.37314
X1.12400 Y0.37314
X1.12400 Y0.37214
X1.11700 Y0.37214
X1.11700 Y0.37114
X1.11600 Y0.37114
X1.11600 Y0.37014
X1.11100 Y0.37014
X1.11100 Y0.36914
X1.11000 Y0.36914
X1.11000 Y0.36814
X1.10800 Y0.36814
X1.10800 Y0.36714
X1.10600 Y0.36714
X1.10600 Y0.36614
X1.10500 Y0.36614
X1.10500 Y0.36514
X1.10400 Y0.36514
X1.10400 Y0.36414
X1.10300 Y0.36414
X1.10300 Y0.36314
X1.10200 Y0.36314
X1.10200 Y0.36214
X1.10100 Y0.36214
X1.10100 Y0.36114
X1.10000 Y0.36114
X1.10000 Y0.36014
X1.09900 Y0.36014
X1.09900 Y0.35814
X1.09800 Y0.35814
X1.09800 Y0.35714
X1.09700 Y0.35714
X1.09700 Y0.35414
X1.09600 Y0.35414
X1.09600 Y0.35214
X1.09500 Y0.35214
X1.09500 Y0.34914
X1.09400 Y0.34914
X1.09400 Y0.33214
X1.09500 Y0.33214
X1.09500 Y0.32914
X1.09600 Y0.32914
X1.09600 Y0.32714
X1.09700 Y0.32714
X1.09700 Y0.32414
X1.09800 Y0.32414
X1.09800 Y0.32314
X1.09900 Y0.32314
X1.09900 Y0.32114
X1.10000 Y0.32114
X1.10000 Y0.32014
X1.10100 Y0.32014
X1.10100 Y0.31814
X1.10200 Y0.31814
X1.10200 Y0.31714
X1.10300 Y0.31714
X1.10300 Y0.31614
X1.10400 Y0.31614
X1.10400 Y0.31514
X1.10600 Y0.31514
X1.10600 Y0.31414
X1.10800 Y0.31414
X1.10800 Y0.31314
X1.11000 Y0.31314
X1.11000 Y0.31214
X1.11100 Y0.31214
X1.11100 Y0.31114
X1.11400 Y0.31114
X1.11400 Y0.31014
X1.11700 Y0.31014
X1.11700 Y0.30914
X1.12100 Y0.30914
X1.12100 Y0.30814
X1.12200 Y0.30814
X1.12200 Y0.30714
X1.12300 Y0.30714
X1.12300 Y0.30614
X1.12400 Y0.30614
X1.12400 Y0.30514
X1.12500 Y0.30514
X1.12500 Y0.30314
X1.12400 Y0.30314
X1.12400 Y0.30214
X1.12300 Y0.30214
X1.12300 Y0.30114
X1.12200 Y0.30114
X1.12200 Y0.30014
X1.12100 Y0.30014
X1.12100 Y0.29914
X1.05700 Y0.29914
X1.05700 Y0.30014
X1.05600 Y0.30014
X1.05600 Y0.30314
X1.05500 Y0.30314
X1.05500 Y0.30514
X1.05400 Y0.30514
X1.05400 Y0.30714
X1.05300 Y0.30714
X1.05300 Y0.30814
X1.05200 Y0.30814
X1.05200 Y0.31014
X1.05100 Y0.31014
X1.05100 Y0.31114
X1.05000 Y0.31114
X1.05000 Y0.31314
X1.04900 Y0.31314
X1.04900 Y0.31414
X1.04800 Y0.31414
X1.04800 Y0.31514
X1.04700 Y0.31514
X1.04700 Y0.31614
X1.04500 Y0.31614
X1.04500 Y0.31714
X1.04300 Y0.31714
X1.04300 Y0.31814
X1.04100 Y0.31814
X1.04100 Y0.31914
X1.04000 Y0.31914
X1.04000 Y0.32014
X1.03800 Y0.32014
X1.03800 Y0.32114
X1.03600 Y0.32114
X1.03600 Y0.32214
X1.03300 Y0.32214
X1.03300 Y0.32314
X1.03200 Y0.32314
X1.03200 Y0.32514
X1.03100 Y0.32514
X1.03100 Y0.32714
X1.03000 Y0.32714
X1.03000 Y0.32814
X1.02900 Y0.32814
X1.02900 Y0.32914
X1.02800 Y0.32914
X1.02800 Y0.33014
X1.02700 Y0.33014
X1.02700 Y0.33114
X1.02600 Y0.33114
X1.02600 Y0.33214
X1.02500 Y0.33214
X1.02500 Y0.33314
X1.02400 Y0.33314
X1.02400 Y0.33414
X1.02300 Y0.33414
X1.02300 Y0.33514
X1.02200 Y0.33514
X1.02200 Y0.33614
X1.02100 Y0.33614
X1.02100 Y0.33714
X1.02000 Y0.33714
X1.02000 Y0.33814
X1.01900 Y0.33814
X1.01900 Y0.33914
X1.01800 Y0.33914
X1.01800 Y0.34014
X1.01700 Y0.34014
X1.01700 Y0.34114
X1.01600 Y0.34114
X1.01600 Y0.34214
X1.01500 Y0.34214
X1.01500 Y0.34314
X1.01400 Y0.34314
X1.01400 Y0.34414
X1.01300 Y0.34414
X1.01300 Y0.34514
X1.01200 Y0.34514
X1.01200 Y0.34614
X1.01100 Y0.34614
X1.01100 Y0.34714
X1.01000 Y0.34714
X1.01000 Y0.34814
X1.00900 Y0.34814
X1.00900 Y0.34914
X1.00800 Y0.34914
X1.00800 Y0.35014
X1.00700 Y0.35014
X1.00700 Y0.35114
X1.00600 Y0.35114
X1.00600 Y0.35214
X1.00400 Y0.35214
X1.00400 Y0.35314
X1.00300 Y0.35314
X1.00300 Y0.35514
X1.00200 Y0.35514
X1.00200 Y0.35814
X1.00100 Y0.35814
X1.00100 Y0.36114
X1.00000 Y0.36114
X1.00000 Y0.36414
X1.00200 Y0.36414
X1.00200 Y0.36314
X1.00700 Y0.36314
X1.00700 Y0.36214
X1.01100 Y0.36214
X1.01100 Y0.36114
X1.01300 Y0.36114
X1.01300 Y0.36014
X1.01500 Y0.36014
X1.01500 Y0.35914
X1.02100 Y0.35914
X1.02100 Y0.35814
X1.03000 Y0.35814
X1.03000 Y0.35914
X1.03600 Y0.35914
X1.03600 Y0.36014
X1.04000 Y0.36014
X1.04000 Y0.36114
X1.04200 Y0.36114
X1.04200 Y0.36214
X1.04300 Y0.36214
X1.04300 Y0.36314
X1.04500 Y0.36314
X1.04500 Y0.36414
X1.04600 Y0.36414
X1.04600 Y0.36514
X1.04700 Y0.36514
X1.04700 Y0.36614
X1.04800 Y0.36614
X1.04800 Y0.36714
X1.04900 Y0.36714
X1.04900 Y0.36814
X1.05000 Y0.36814
X1.05000 Y0.37014
X1.05100 Y0.37014
X1.05100 Y0.37114
X1.05200 Y0.37114
X1.05200 Y0.37314
X1.05300 Y0.37314
X1.05300 Y0.37414
X1.05400 Y0.37414
X1.05400 Y0.37614
X1.05500 Y0.37614
X1.05500 Y0.37814
X1.05600 Y0.37814
X1.05600 Y0.38114
X1.05700 Y0.38114
X1.05700 Y0.38214
X1.12400 Y0.38214
X1.12400 Y0.38114
X1.12500 Y0.38114
X1.12500 Y0.38014
X1.12700 Y0.38014
X1.12700 Y0.37714
G04 P0 ( dwell for no time -- G64 should not smooth over this point )
G00 Z0.19685 ( retract )

G00 X1.18500 Y0.37714 ( rapid move to begin. )
G01 Z-0.01969 F1.96850 ( plunge. )
G04 P0 ( dwell for no time -- G64 should not smooth over this point )
X1.18500 Y0.37714
X1.18500 Y0.36614
X1.18600 Y0.36614
X1.18600 Y0.36114
X1.18700 Y0.36114
X1.18700 Y0.35514
X1.18600 Y0.35514
X1.18600 Y0.34814
X1.15700 Y0.34814
X1.15700 Y0.34914
X1.15600 Y0.34914
X1.15600 Y0.35014
X1.15500 Y0.35014
X1.15500 Y0.35414
X1.15400 Y0.35414
X1.15400 Y0.35614
X1.15300 Y0.35614
X1.15300 Y0.35814
X1.15200 Y0.35814
X1.15200 Y0.35914
X1.15100 Y0.35914
X1.15100 Y0.36014
X1.15000 Y0.36014
X1.15000 Y0.36114
X1.14900 Y0.36114
X1.14900 Y0.36214
X1.14800 Y0.36214
X1.14800 Y0.36314
X1.14700 Y0.36314
X1.14700 Y0.36414
X1.14600 Y0.36414
X1.14600 Y0.36514
X1.14500 Y0.36514
X1.14500 Y0.36614
X1.14400 Y0.36614
X1.14400 Y0.36714
X1.14300 Y0.36714
X1.14300 Y0.36814
X1.14100 Y0.36814
X1.14100 Y0.36914
X1.14000 Y0.36914
X1.14000 Y0.37014
X1.13500 Y0.37014
X1.13500 Y0.37114
X1.13300 Y0.37114
X1.13300 Y0.37214
X1.12900 Y0.37214
X1.12900 Y0.37314
X1.12800 Y0.37314
X1.12800 Y0.37414
X1.12700 Y0.37414
X1.12700 Y0.38014
X1.12800 Y0.38014
X1.12800 Y0.38114
X1.12900 Y0.38114
X1.12900 Y0.38214
X1.18500 Y0.38214
X1.18500 Y0.37714
G04 P0 ( dwell for no time -- G64 should not smooth over this point )
G00 Z0.19685 ( retract )

G00 X0.12300 Y0.37014 ( rapid move to begin. )
G01 Z-0.01969 F1.96850 ( plunge. )
G04 P0 ( dwell for no time -- G64 should not smooth over this point )
X0.12300 Y0.37014
X0.12400 Y0.37014
X0.12400 Y0.36814
X0.12500 Y0.36814
X0.12500 Y0.36714
X0.12600 Y0.36714
X0.12600 Y0.36514
X0.12700 Y0.36514
X0.12700 Y0.36414
X0.12800 Y0.36414
X0.12800 Y0.36214
X0.12900 Y0.36214
X0.12900 Y0.35914
X0.13000 Y0.35914
X0.13000 Y0.35414
X0.13100 Y0.35414
X0.13100 Y0.32714
X0.13000 Y0.32714
X0.13000 Y0.32214
X0.12900 Y0.32214
X0.12900 Y0.31814
X0.12800 Y0.31814
X0.12800 Y0.31614
X0.12700 Y0.31614
X0.12700 Y0.31514
X0.12600 Y0.31514
X0.12600 Y0.31314
X0.12500 Y0.31314
X0.12500 Y0.31214
X0.12400 Y0.31214
X0.12400 Y0.31114
X0.12300 Y0.31114
X0.12300 Y0.31014
X0.12200 Y0.31014
X0.12200 Y0.30914
X0.12100 Y0.30914
X0.12100 Y0.30814
X0.12000 Y0.30814
X0.12000 Y0.30714
X0.11900 Y0.30714
X0.11900 Y0.30614
X0.11800 Y0.30614
X0.11800 Y0.30514
X0.11700 Y0.30514
X0.11700 Y0.30414
X0.11500 Y0.30414
X0.11500 Y0.30314
X0.11300 Y0.30314
X0.11300 Y0.30214
X0.11000 Y0.30214
X0.11000 Y0.30114
X0.10400 Y0.30114
X0.10400 Y0.30014
X0.07700 Y0.30014
X0.07700 Y0.30114
X0.07100 Y0.30114
X0.07100 Y0.30214
X0.06800 Y0.30214
X0.06800 Y0.30314
X0.06600 Y0.30314
X0.06600 Y0.30414
X0.06400 Y0.30414
X0.06400 Y0.30514
X0.06300 Y0.30514
X0.06300 Y0.30614
X0.06100 Y0.30614
X0.06100 Y0.30714
X0.06000 Y0.30714
X0.06000 Y0.30814
X0.05900 Y0.30814
X0.05900 Y0.30914
X0.05800 Y0.30914
X0.05800 Y0.31014
X0.05700 Y0.31014
X0.05700 Y0.31114
X0.05600 Y0.31114
X0.05600 Y0.31314
X0.05500 Y0.31314
X0.05500 Y0.31414
X0.05400 Y0.31414
X0.05400 Y0.31614
X0.05300 Y0.31614
X0.05300 Y0.31714
X0.05200 Y0.31714
X0.05200 Y0.32214
X0.05100 Y0.32214
X0.05100 Y0.32714
X0.05000 Y0.32714
X0.05000 Y0.35414
X0.05100 Y0.35414
X0.05100 Y0.35914
X0.05200 Y0.35914
X0.05200 Y0.36314
X0.05300 Y0.36314
X0.05300 Y0.36514
X0.05400 Y0.36514
X0.05400 Y0.36714
X0.05500 Y0.36714
X0.05500 Y0.36814
X0.05600 Y0.36814
X0.05600 Y0.36914
X0.05700 Y0.36914
X0.05700 Y0.37014
X0.05800 Y0.37014
X0.05800 Y0.37114
X0.05900 Y0.37114
X0.05900 Y0.37214
X0.06000 Y0.37214
X0.06000 Y0.37314
X0.06100 Y0.37314
X0.06100 Y0.37414
X0.06200 Y0.37414
X0.06200 Y0.37514
X0.06300 Y0.37514
X0.06300 Y0.37614
X0.06500 Y0.37614
X0.06500 Y0.37714
X0.06600 Y0.37714
X0.06600 Y0.37814
X0.06800 Y0.37814
X0.06800 Y0.37914
X0.07100 Y0.37914
X0.07100 Y0.38014
X0.07700 Y0.38014
X0.07700 Y0.38114
X0.10400 Y0.38114
X0.10400 Y0.38014
X0.11000 Y0.38014
X0.11000 Y0.37914
X0.11200 Y0.37914
X0.11200 Y0.37814
X0.11400 Y0.37814
X0.11400 Y0.37714
X0.11500 Y0.37714
X0.11500 Y0.37614
X0.11700 Y0.37614
X0.11700 Y0.37514
X0.11800 Y0.37514
X0.11800 Y0.37414
X0.12000 Y0.37414
X0.12000 Y0.37314
X0.12100 Y0.37314
X0.12100 Y0.37214
X0.12200 Y0.37214
X0.12200 Y0.37114
X0.12300 Y0.37114
X0.12300 Y0.37014
G04 P0 ( dwell for no time -- G64 should not smooth over this point )
G00 Z0.19685 ( retract )

G00 X0.22300 Y0.37014 ( rapid move to begin. )
G01 Z-0.01969 F1.96850 ( plunge. )
G04 P0 ( dwell for no time -- G64 should not smooth over this point )
X0.22300 Y0.37014
X0.22400 Y0.37014
X0.22400 Y0.36814
X0.22500 Y0.36814
X0.22500 Y0.36714
X0.22600 Y0.36714
X0.22600 Y0.36514
X0.22700 Y0.36514
X0.22700 Y0.36414
X0.22800 Y0.36414
X0.22800 Y0.36214
X0.22900 Y0.36214
X0.22900 Y0.35914
X0.23000 Y0.35914
X0.23000 Y0.35414
X0.23100 Y0.35414
X0.23100 Y0.32714
X0.23000 Y0.32714
X0.23000 Y0.32214
X0.22900 Y0.32214
X0.22900 Y0.31814
X0.22800 Y0.31814
X0.22800 Y0.31614
X0.22700 Y0.31614
X0.22700 Y0.31514
X0.22600 Y0.31514
X0.22600 Y0.31314
X0.22500 Y0.31314
X0.22500 Y0.31214
X0.22400 Y0.31214
X0.22400 Y0.31114
X0.22300 Y0.31114
X0.22300 Y0.31014
X0.22200 Y0.31014
X0.22200 Y0.30914
X0.22100 Y0.30914
X0.22100 Y0.30814
X0.22000 Y0.30814
X0.22000 Y0.30714
X0.21900 Y0.30714
X0.21900 Y0.30614
X0.21800 Y0.30614
X0.21800 Y0.30514
X0.21700 Y0.30514
X0.21700 Y0.30414
X0.21500 Y0.30414
X0.21500 Y0.30314
X0.21300 Y0.30314
X0.21300 Y0.30214
X0.21000 Y0.30214
X0.21000 Y0.30114
X0.20400 Y0.30114
X0.20400 Y0.30014
X0.17700 Y0.30014
X0.17700 Y0.30114
X0.17100 Y0.30114
X0.17100 Y0.30214
X0.16800 Y0.30214
X0.16800 Y0.30314
X0.16600 Y0.30314
X0.16600 Y0.30414
X0.16400 Y0.30414
X0.16400 Y0.30514
X0.16300 Y0.30514
X0.16300 Y0.30614
X0.16100 Y0.30614
X0.16100 Y0.30714
X0.16000 Y0.30714
X0.16000 Y0.30814
X0.15900 Y0.30814
X0.15900 Y0.30914
X0.15800 Y0.30914
X0.15800 Y0.31014
X0.15700 Y0.31014
X0.15700 Y0.31114
X0.15600 Y0.31114
X0.15600 Y0.31314
X0.15500 Y0.31314
X0.15500 Y0.31414
X0.15400 Y0.31414
X0.15400 Y0.31614
X0.15300 Y0.31614
X0.15300 Y0.31714
X0.15200 Y0.31714
X0.15200 Y0.32214
X0.15100 Y0.32214
X0.15100 Y0.32714
X0.15000 Y0.32714
X0.15000 Y0.35414
X0.15100 Y0.35414
X0.15100 Y0.35914
X0.15200 Y0.35914
X0.15200 Y0.36314
X0.15300 Y0.36314
X0.15300 Y0.36514
X0.15400 Y0.36514
X0.15400 Y0.36714
X0.15500 Y0.36714
X0.15500 Y0.36814
X0.15600 Y0.36814
X0.15600 Y0.36914
X0.15700 Y0.36914
X0.15700 Y0.37014
X0.15800 Y0.37014
X0.15800 Y0.37114
X0.15900 Y0.37114
X0.15900 Y0.37214
X0.16000 Y0.37214
X0.16000 Y0.37314
X0.16100 Y0.37314
X0.16100 Y0.37414
X0.16200 Y0.37414
X0.16200 Y0.37514
X0.16300 Y0.37514
X0.16300 Y0.37614
X0.16500 Y0.37614
X0.16500 Y0.37714
X0.16600 Y0.37714
X0.16600 Y0.37814
X0.16800 Y0.37814
X0.16800 Y0.37914
X0.17100 Y0.37914
X0.17100 Y0.38014
X0.17700 Y0.38014
X0.17700 Y0.38114
X0.20400 Y0.38114
X0.20400 Y0.38014
X0.21000 Y0.38014
X0.21000 Y0.37914
X0.21200 Y0.37914
X0.21200 Y0.37814
X0.21400 Y0.37814
X0.21400 Y0.37714
X0.21500 Y0.37714
X0.21500 Y0.37614
X0.21700 Y0.37614
X0.21700 Y0.37514
X0.21800 Y0.37514
X0.21800 Y0.37414
X0.22000 Y0.37414
X0.22000 Y0.37314
X0.22100 Y0.37314
X0.22100 Y0.37214
X0.22200 Y0.37214
X0.22200 Y0.37114
X0.22300 Y0.37114
X0.22300 Y0.37014
G04 P0 ( dwell for no time -- G64 should not smooth over this point )
G00 Z0.19685 ( retract )

G00 X0.59900 Y0.36714 ( rapid move to begin. )
G01 Z-0.01969 F1.96850 ( plunge. )
G04 P0 ( dwell for no time -- G64 should not smooth over this point )
X0.59900 Y0.36714
X0.60000 Y0.36714
X0.60000 Y0.36614
X0.60100 Y0.36614
X0.60100 Y0.36514
X0.60200 Y0.36514
X0.60200 Y0.36414
X0.60300 Y0.36414
X0.60300 Y0.36314
X0.60400 Y0.36314
X0.60400 Y0.36214
X0.60500 Y0.36214
X0.60500 Y0.36114
X0.60600 Y0.36114
X0.60600 Y0.35914
X0.60700 Y0.35914
X0.60700 Y0.35814
X0.60800 Y0.35814
X0.60800 Y0.35614
X0.60900 Y0.35614
X0.60900 Y0.35414
X0.61000 Y0.35414
X0.61000 Y0.35214
X0.61100 Y0.35214
X0.61100 Y0.34814
X0.61200 Y0.34814
X0.61200 Y0.33214
X0.61100 Y0.33214
X0.61100 Y0.32814
X0.61000 Y0.32814
X0.61000 Y0.32714
X0.60900 Y0.32714
X0.60900 Y0.32514
X0.60800 Y0.32514
X0.60800 Y0.32314
X0.60700 Y0.32314
X0.60700 Y0.32214
X0.60600 Y0.32214
X0.60600 Y0.32014
X0.60500 Y0.32014
X0.60500 Y0.31814
X0.60400 Y0.31814
X0.60400 Y0.31714
X0.60300 Y0.31714
X0.60300 Y0.31614
X0.60200 Y0.31614
X0.60200 Y0.31514
X0.60100 Y0.31514
X0.60100 Y0.31314
X0.60000 Y0.31314
X0.60000 Y0.31214
X0.59900 Y0.31214
X0.59900 Y0.31114
X0.59800 Y0.31114
X0.59800 Y0.31014
X0.59600 Y0.31014
X0.59600 Y0.30914
X0.59500 Y0.30914
X0.59500 Y0.30814
X0.59300 Y0.30814
X0.59300 Y0.30714
X0.59100 Y0.30714
X0.59100 Y0.30614
X0.58800 Y0.30614
X0.58800 Y0.30514
X0.58400 Y0.30514
X0.58400 Y0.30414
X0.57800 Y0.30414
X0.57800 Y0.30314
X0.57300 Y0.30314
X0.57300 Y0.30414
X0.56700 Y0.30414
X0.56700 Y0.30514
X0.56300 Y0.30514
X0.56300 Y0.30614
X0.56000 Y0.30614
X0.56000 Y0.30714
X0.55800 Y0.30714
X0.55800 Y0.30814
X0.55600 Y0.30814
X0.55600 Y0.30914
X0.55500 Y0.30914
X0.55500 Y0.31014
X0.55300 Y0.31014
X0.55300 Y0.31114
X0.55200 Y0.31114
X0.55200 Y0.31214
X0.55100 Y0.31214
X0.55100 Y0.31314
X0.55000 Y0.31314
X0.55000 Y0.31414
X0.54900 Y0.31414
X0.54900 Y0.31514
X0.54800 Y0.31514
X0.54800 Y0.31614
X0.54700 Y0.31614
X0.54700 Y0.31714
X0.54600 Y0.31714
X0.54600 Y0.31814
X0.54500 Y0.31814
X0.54500 Y0.32014
X0.54400 Y0.32014
X0.54400 Y0.32114
X0.54300 Y0.32114
X0.54300 Y0.32314
X0.54200 Y0.32314
X0.54200 Y0.32514
X0.54100 Y0.32514
X0.54100 Y0.32814
X0.54000 Y0.32814
X0.54000 Y0.33214
X0.53900 Y0.33214
X0.53900 Y0.33814
X0.53800 Y0.33814
X0.53800 Y0.34314
X0.53900 Y0.34314
X0.53900 Y0.34914
X0.54000 Y0.34914
X0.54000 Y0.35314
X0.54100 Y0.35314
X0.54100 Y0.35614
X0.54200 Y0.35614
X0.54200 Y0.35814
X0.54300 Y0.35814
X0.54300 Y0.36014
X0.54400 Y0.36014
X0.54400 Y0.36114
X0.54500 Y0.36114
X0.54500 Y0.36214
X0.54600 Y0.36214
X0.54600 Y0.36314
X0.54700 Y0.36314
X0.54700 Y0.36414
X0.54800 Y0.36414
X0.54800 Y0.36514
X0.54900 Y0.36514
X0.54900 Y0.36614
X0.55000 Y0.36614
X0.55000 Y0.36714
X0.55100 Y0.36714
X0.55100 Y0.36814
X0.55200 Y0.36814
X0.55200 Y0.36914
X0.55300 Y0.36914
X0.55300 Y0.37014
X0.55500 Y0.37014
X0.55500 Y0.37114
X0.55700 Y0.37114
X0.55700 Y0.37214
X0.55800 Y0.37214
X0.55800 Y0.37314
X0.56000 Y0.37314
X0.56000 Y0.37414
X0.56200 Y0.37414
X0.56200 Y0.37514
X0.56300 Y0.37514
X0.56300 Y0.37614
X0.56700 Y0.37614
X0.56700 Y0.37714
X0.58300 Y0.37714
X0.58300 Y0.37614
X0.58700 Y0.37614
X0.58700 Y0.37514
X0.58900 Y0.37514
X0.58900 Y0.37414
X0.59100 Y0.37414
X0.59100 Y0.37314
X0.59300 Y0.37314
X0.59300 Y0.37214
X0.59400 Y0.37214
X0.59400 Y0.37114
X0.59600 Y0.37114
X0.59600 Y0.37014
X0.59700 Y0.37014
X0.59700 Y0.36914
X0.59800 Y0.36914
X0.59800 Y0.36814
X0.59900 Y0.36814
X0.59900 Y0.36714
G04 P0 ( dwell for no time -- G64 should not smooth over this point )
G00 Z0.19685 ( retract )

G00 X1.14300 Y0.36714 ( rapid move to begin. )
G01 Z-0.01969 F1.96850 ( plunge. )
G04 P0 ( dwell for no time -- G64 should not smooth over this point )
X1.14300 Y0.36714
X1.14400 Y0.36714
X1.14400 Y0.36614
X1.14500 Y0.36614
X1.14500 Y0.36514
X1.14600 Y0.36514
X1.14600 Y0.36414
X1.14700 Y0.36414
X1.14700 Y0.36314
X1.14800 Y0.36314
X1.14800 Y0.36214
X1.14900 Y0.36214
X1.14900 Y0.36114
X1.15000 Y0.36114
X1.15000 Y0.36014
X1.15100 Y0.36014
X1.15100 Y0.35914
X1.15200 Y0.35914
X1.15200 Y0.35814
X1.15300 Y0.35814
X1.15300 Y0.35614
X1.15400 Y0.35614
X1.15400 Y0.35414
X1.15500 Y0.35414
X1.15500 Y0.35014
X1.15600 Y0.35014
X1.15600 Y0.34914
X1.15700 Y0.34914
X1.15700 Y0.34814
X1.18600 Y0.34814
X1.18600 Y0.35514
X1.18700 Y0.35514
X1.18700 Y0.36014
X1.22800 Y0.36014
X1.22800 Y0.35814
X1.22900 Y0.35814
X1.22900 Y0.31214
X1.22800 Y0.31214
X1.22800 Y0.31014
X1.18700 Y0.31014
X1.18700 Y0.31114
X1.18600 Y0.31114
X1.18600 Y0.31614
X1.18500 Y0.31614
X1.18500 Y0.33214
X1.15700 Y0.33214
X1.15700 Y0.33114
X1.15600 Y0.33114
X1.15600 Y0.32814
X1.15500 Y0.32814
X1.15500 Y0.32614
X1.15400 Y0.32614
X1.15400 Y0.32414
X1.15300 Y0.32414
X1.15300 Y0.32314
X1.15200 Y0.32314
X1.15200 Y0.32114
X1.15100 Y0.32114
X1.15100 Y0.32014
X1.15000 Y0.32014
X1.15000 Y0.31814
X1.14900 Y0.31814
X1.14900 Y0.31714
X1.14800 Y0.31714
X1.14800 Y0.31614
X1.14700 Y0.31614
X1.14700 Y0.31514
X1.14600 Y0.31514
X1.14600 Y0.31414
X1.14500 Y0.31414
X1.14500 Y0.31314
X1.14300 Y0.31314
X1.14300 Y0.31214
X1.14200 Y0.31214
X1.14200 Y0.31114
X1.14000 Y0.31114
X1.14000 Y0.31014
X1.13600 Y0.31014
X1.13600 Y0.30914
X1.13000 Y0.30914
X1.13000 Y0.30814
X1.12900 Y0.30814
X1.12900 Y0.30714
X1.12800 Y0.30714
X1.12800 Y0.30614
X1.12700 Y0.30614
X1.12700 Y0.30514
X1.12400 Y0.30514
X1.12400 Y0.30614
X1.12300 Y0.30614
X1.12300 Y0.30714
X1.12200 Y0.30714
X1.12200 Y0.30814
X1.12100 Y0.30814
X1.12100 Y0.30914
X1.11700 Y0.30914
X1.11700 Y0.31014
X1.11400 Y0.31014
X1.11400 Y0.31114
X1.11100 Y0.31114
X1.11100 Y0.31214
X1.11000 Y0.31214
X1.11000 Y0.31314
X1.10800 Y0.31314
X1.10800 Y0.31414
X1.10600 Y0.31414
X1.10600 Y0.31514
X1.10400 Y0.31514
X1.10400 Y0.31614
X1.10300 Y0.31614
X1.10300 Y0.31714
X1.10200 Y0.31714
X1.10200 Y0.31814
X1.10100 Y0.31814
X1.10100 Y0.32014
X1.10000 Y0.32014
X1.10000 Y0.32114
X1.09900 Y0.32114
X1.09900 Y0.32314
X1.09800 Y0.32314
X1.09800 Y0.32414
X1.09700 Y0.32414
X1.09700 Y0.32714
X1.09600 Y0.32714
X1.09600 Y0.32914
X1.09500 Y0.32914
X1.09500 Y0.33214
X1.09400 Y0.33214
X1.09400 Y0.34914
X1.09500 Y0.34914
X1.09500 Y0.35214
X1.09600 Y0.35214
X1.09600 Y0.35414
X1.09700 Y0.35414
X1.09700 Y0.35714
X1.09800 Y0.35714
X1.09800 Y0.35814
X1.09900 Y0.35814
X1.09900 Y0.36014
X1.10000 Y0.36014
X1.10000 Y0.36114
X1.10100 Y0.36114
X1.10100 Y0.36214
X1.10200 Y0.36214
X1.10200 Y0.36314
X1.10300 Y0.36314
X1.10300 Y0.36414
X1.10400 Y0.36414
X1.10400 Y0.36514
X1.10500 Y0.36514
X1.10500 Y0.36614
X1.10600 Y0.36614
X1.10600 Y0.36714
X1.10800 Y0.36714
X1.10800 Y0.36814
X1.11000 Y0.36814
X1.11000 Y0.36914
X1.11100 Y0.36914
X1.11100 Y0.37014
X1.11600 Y0.37014
X1.11600 Y0.37114
X1.11700 Y0.37114
X1.11700 Y0.37214
X1.12400 Y0.37214
X1.12400 Y0.37314
X1.12500 Y0.37314
X1.12500 Y0.37414
X1.12800 Y0.37414
X1.12800 Y0.37314
X1.12900 Y0.37314
X1.12900 Y0.37214
X1.13300 Y0.37214
X1.13300 Y0.37114
X1.13500 Y0.37114
X1.13500 Y0.37014
X1.14000 Y0.37014
X1.14000 Y0.36914
X1.14100 Y0.36914
X1.14100 Y0.36814
X1.14300 Y0.36814
X1.14300 Y0.36714
G04 P0 ( dwell for no time -- G64 should not smooth over this point )
G00 Z0.19685 ( retract )

G00 X0.83900 Y0.35314 ( rapid move to begin. )
G01 Z-0.01969 F1.96850 ( plunge. )
G04 P0 ( dwell for no time -- G64 should not smooth over this point )
X0.83900 Y0.35314
X0.85800 Y0.35314
X0.85800 Y0.35214
X0.86000 Y0.35214
X0.86000 Y0.35114
X0.86100 Y0.35114
X0.86100 Y0.35014
X0.86300 Y0.35014
X0.86300 Y0.34914
X0.86400 Y0.34914
X0.86400 Y0.34814
X0.86500 Y0.34814
X0.86500 Y0.34714
X0.86600 Y0.34714
X0.86600 Y0.34614
X0.86700 Y0.34614
X0.86700 Y0.34514
X0.86800 Y0.34514
X0.86800 Y0.34414
X0.86900 Y0.34414
X0.86900 Y0.34314
X0.87000 Y0.34314
X0.87000 Y0.34214
X0.87100 Y0.34214
X0.87100 Y0.34114
X0.87200 Y0.34114
X0.87200 Y0.34014
X0.87300 Y0.34014
X0.87300 Y0.33914
X0.87400 Y0.33914
X0.87400 Y0.33814
X0.87500 Y0.33814
X0.87500 Y0.33714
X0.87600 Y0.33714
X0.87600 Y0.33614
X0.87700 Y0.33614
X0.87700 Y0.33514
X0.87800 Y0.33514
X0.87800 Y0.33414
X0.87900 Y0.33414
X0.87900 Y0.33314
X0.88000 Y0.33314
X0.88000 Y0.33114
X0.88100 Y0.33114
X0.88100 Y0.33014
X0.88200 Y0.33014
X0.88200 Y0.32714
X0.88300 Y0.32714
X0.88300 Y0.31914
X0.88400 Y0.31914
X0.88400 Y0.31414
X0.88300 Y0.31414
X0.88300 Y0.31314
X0.88200 Y0.31314
X0.88200 Y0.31214
X0.88100 Y0.31214
X0.88100 Y0.26214
X0.86000 Y0.26214
X0.86000 Y0.26314
X0.85900 Y0.26314
X0.85900 Y0.26414
X0.85800 Y0.26414
X0.85800 Y0.26514
X0.85700 Y0.26514
X0.85700 Y0.30514
X0.85400 Y0.30514
X0.85400 Y0.31514
X0.85500 Y0.31514
X0.85500 Y0.31614
X0.85400 Y0.31614
X0.85400 Y0.31714
X0.85300 Y0.31714
X0.85300 Y0.31814
X0.85200 Y0.31814
X0.85200 Y0.31914
X0.85100 Y0.31914
X0.85100 Y0.32014
X0.85000 Y0.32014
X0.85000 Y0.32114
X0.84900 Y0.32114
X0.84900 Y0.32214
X0.84800 Y0.32214
X0.84800 Y0.32314
X0.84700 Y0.32314
X0.84700 Y0.32414
X0.84600 Y0.32414
X0.84600 Y0.32514
X0.84500 Y0.32514
X0.84500 Y0.32614
X0.84400 Y0.32614
X0.84400 Y0.32514
X0.84300 Y0.32514
X0.84300 Y0.32314
X0.84200 Y0.32314
X0.84200 Y0.32214
X0.84100 Y0.32214
X0.84100 Y0.32014
X0.84000 Y0.32014
X0.84000 Y0.31914
X0.83400 Y0.31914
X0.83400 Y0.32114
X0.83200 Y0.32114
X0.83200 Y0.32014
X0.82900 Y0.32014
X0.82900 Y0.31914
X0.81100 Y0.31914
X0.81100 Y0.32014
X0.80900 Y0.32014
X0.80900 Y0.32114
X0.80800 Y0.32114
X0.80800 Y0.32214
X0.80600 Y0.32214
X0.80600 Y0.32314
X0.80500 Y0.32314
X0.80500 Y0.32414
X0.80400 Y0.32414
X0.80400 Y0.32514
X0.80300 Y0.32514
X0.80300 Y0.32614
X0.80200 Y0.32614
X0.80200 Y0.32814
X0.80100 Y0.32814
X0.80100 Y0.32914
X0.80000 Y0.32914
X0.80000 Y0.33114
X0.79900 Y0.33114
X0.79900 Y0.33214
X0.79800 Y0.33214
X0.79800 Y0.33514
X0.79700 Y0.33514
X0.79700 Y0.34514
X0.79800 Y0.34514
X0.79800 Y0.34814
X0.79900 Y0.34814
X0.79900 Y0.34914
X0.80000 Y0.34914
X0.80000 Y0.35114
X0.80100 Y0.35114
X0.80100 Y0.35314
X0.80200 Y0.35314
X0.80200 Y0.35414
X0.80300 Y0.35414
X0.80300 Y0.35514
X0.80400 Y0.35514
X0.80400 Y0.35614
X0.80500 Y0.35614
X0.80500 Y0.35714
X0.80600 Y0.35714
X0.80600 Y0.35814
X0.80700 Y0.35814
X0.80700 Y0.35914
X0.80800 Y0.35914
X0.80800 Y0.36014
X0.80900 Y0.36014
X0.80900 Y0.36114
X0.81200 Y0.36114
X0.81200 Y0.36214
X0.81500 Y0.36214
X0.81500 Y0.36314
X0.82500 Y0.36314
X0.82500 Y0.36214
X0.82800 Y0.36214
X0.82800 Y0.36114
X0.83100 Y0.36114
X0.83100 Y0.36014
X0.83300 Y0.36014
X0.83300 Y0.35914
X0.83400 Y0.35914
X0.83400 Y0.35814
X0.83500 Y0.35814
X0.83500 Y0.35714
X0.83600 Y0.35714
X0.83600 Y0.35614
X0.83700 Y0.35614
X0.83700 Y0.35514
X0.83800 Y0.35514
X0.83800 Y0.35414
X0.83900 Y0.35414
X0.83900 Y0.35314
G04 P0 ( dwell for no time -- G64 should not smooth over this point )
G00 Z0.19685 ( retract )

G00 X1.18500 Y0.32714 ( rapid move to begin. )
G01 Z-0.01969 F1.96850 ( plunge. )
G04 P0 ( dwell for no time -- G64 should not smooth over this point )
X1.18500 Y0.32714
X1.18500 Y0.31614
X1.18600 Y0.31614
X1.18600 Y0.31114
X1.18700 Y0.31114
X1.18700 Y0.30914
X1.18600 Y0.30914
X1.18600 Y0.30414
X1.18500 Y0.30414
X1.18500 Y0.29914
X1.12900 Y0.29914
X1.12900 Y0.30014
X1.12800 Y0.30014
X1.12800 Y0.30114
X1.12700 Y0.30114
X1.12700 Y0.30214
X1.12600 Y0.30214
X1.12600 Y0.30314
X1.12500 Y0.30314
X1.12500 Y0.30514
X1.12700 Y0.30514
X1.12700 Y0.30614
X1.12800 Y0.30614
X1.12800 Y0.30714
X1.12900 Y0.30714
X1.12900 Y0.30814
X1.13000 Y0.30814
X1.13000 Y0.30914
X1.13600 Y0.30914
X1.13600 Y0.31014
X1.14000 Y0.31014
X1.14000 Y0.31114
X1.14200 Y0.31114
X1.14200 Y0.31214
X1.14300 Y0.31214
X1.14300 Y0.31314
X1.14500 Y0.31314
X1.14500 Y0.31414
X1.14600 Y0.31414
X1.14600 Y0.31514
X1.14700 Y0.31514
X1.14700 Y0.31614
X1.14800 Y0.31614
X1.14800 Y0.31714
X1.14900 Y0.31714
X1.14900 Y0.31814
X1.15000 Y0.31814
X1.15000 Y0.32014
X1.15100 Y0.32014
X1.15100 Y0.32114
X1.15200 Y0.32114
X1.15200 Y0.32314
X1.15300 Y0.32314
X1.15300 Y0.32414
X1.15400 Y0.32414
X1.15400 Y0.32614
X1.15500 Y0.32614
X1.15500 Y0.32814
X1.15600 Y0.32814
X1.15600 Y0.33114
X1.15700 Y0.33114
X1.15700 Y0.33214
X1.18500 Y0.33214
X1.18500 Y0.32714
G04 P0 ( dwell for no time -- G64 should not smooth over this point )
G00 Z0.19685 ( retract )

G00 X0.90000 Y0.30414 ( rapid move to begin. )
G01 Z-0.01969 F1.96850 ( plunge. )
G04 P0 ( dwell for no time -- G64 should not smooth over this point )
X0.90000 Y0.30414
X0.90000 Y0.25814
X0.89900 Y0.25814
X0.89900 Y0.25614
X0.89800 Y0.25614
X0.89800 Y0.25514
X0.89700 Y0.25514
X0.89700 Y0.25314
X0.89600 Y0.25314
X0.89600 Y0.25214
X0.89500 Y0.25214
X0.89500 Y0.25114
X0.89400 Y0.25114
X0.89400 Y0.25014
X0.89300 Y0.25014
X0.89300 Y0.24814
X0.89200 Y0.24814
X0.89200 Y0.24614
X0.89100 Y0.24614
X0.89100 Y0.24514
X0.89000 Y0.24514
X0.89000 Y0.24414
X0.88900 Y0.24414
X0.88900 Y0.24314
X0.82600 Y0.24314
X0.82600 Y0.24414
X0.82400 Y0.24414
X0.82400 Y0.24514
X0.82300 Y0.24514
X0.82300 Y0.24614
X0.82200 Y0.24614
X0.82200 Y0.24714
X0.82000 Y0.24714
X0.82000 Y0.24814
X0.81900 Y0.24814
X0.81900 Y0.24914
X0.81800 Y0.24914
X0.81800 Y0.25014
X0.81700 Y0.25014
X0.81700 Y0.25114
X0.81600 Y0.25114
X0.81600 Y0.25214
X0.81500 Y0.25214
X0.81500 Y0.25314
X0.81400 Y0.25314
X0.81400 Y0.25414
X0.81300 Y0.25414
X0.81300 Y0.25514
X0.81200 Y0.25514
