( pcb2gcode 1.1.4 )

G94     ( Inches per minute feed rate. )
G20     ( Units == INCHES.             )
G90     ( Absolute coordinates.        )
S10000  ( RPM spindle speed.           )
M3      ( Spindle on clockwise.        )

G64 P0.00500 ( set maximum deviation from commanded toolpath )

G04 P0 ( dwell for no time -- G64 should not smooth over this point )
G00 Z0.19685 ( retract )

G00 X1.70400 Y0.71714 ( rapid move to begin. )
G01 Z0.00000 F0.19685 ( plunge. )
G04 P0 ( dwell for no time -- G64 should not smooth over this point )
X1.70400 Y0.71714
X1.70400 Y0.00414
X1.70300 Y0.00414
X1.70300 Y0.00314
X1.70200 Y0.00314
X1.70200 Y0.00214
X0.00400 Y0.00214
X0.00400 Y0.00314
X0.00300 Y0.00314
X0.00300 Y0.00414
X0.00200 Y0.00414
X0.00200 Y0.73214
X0.00300 Y0.73214
X0.00300 Y0.73314
X0.00400 Y0.73314
X0.00400 Y0.73414
X1.70200 Y0.73414
X1.70200 Y0.73314
X1.70300 Y0.73314
X1.70300 Y0.73214
X1.70400 Y0.73214
X1.70400 Y0.71714

G04 P0 ( dwell for no time -- G64 should not smooth over this point )
G00 Z0.19685 ( retract )

M9 ( Coolant off. )
M2 ( Program end. )

