( pcb2gcode 1.1.4 )

( This file uses a mill head of 0.03 to drill the 6bit sizes. )

G94     ( Inches per minute feed rate. )
G20     ( Units == INCHES.             )
G90     ( Absolute coordinates.        )
S10000  ( RPM spindle speed.           )
M3
G91.1
G0 Z0.10000

F1.00000
#50=-0.10000 ; zwork
#51=0.02000 ; zsafe
#52=0.00800 ; stepsize
G0 X1.13256 Y0.53960
G1 Z[#50+12*#52]
G2 I-0.00250 J0
G1 Z[#50+11*#52]
G2 I-0.00250 J0
G1 Z[#50+10*#52]
G2 I-0.00250 J0
G1 Z[#50+9*#52]
G2 I-0.00250 J0
G1 Z[#50+8*#52]
G2 I-0.00250 J0
G1 Z[#50+7*#52]
G2 I-0.00250 J0
G1 Z[#50+6*#52]
G2 I-0.00250 J0
G1 Z[#50+5*#52]
G2 I-0.00250 J0
G1 Z[#50+4*#52]
G2 I-0.00250 J0
G1 Z[#50+3*#52]
G2 I-0.00250 J0
G1 Z[#50+2*#52]
G2 I-0.00250 J0
G1 Z[#50+1*#52]
G2 I-0.00250 J0
G0 Z0.02000

G0 X1.13256 Y0.43960
G1 Z[#50+12*#52]
G2 I-0.00250 J0
G1 Z[#50+11*#52]
G2 I-0.00250 J0
G1 Z[#50+10*#52]
G2 I-0.00250 J0
G1 Z[#50+9*#52]
G2 I-0.00250 J0
G1 Z[#50+8*#52]
G2 I-0.00250 J0
G1 Z[#50+7*#52]
G2 I-0.00250 J0
G1 Z[#50+6*#52]
G2 I-0.00250 J0
G1 Z[#50+5*#52]
G2 I-0.00250 J0
G1 Z[#50+4*#52]
G2 I-0.00250 J0
G1 Z[#50+3*#52]
G2 I-0.00250 J0
G1 Z[#50+2*#52]
G2 I-0.00250 J0
G1 Z[#50+1*#52]
G2 I-0.00250 J0
G0 Z0.02000

G0 X1.13256 Y0.33960
G1 Z[#50+12*#52]
G2 I-0.00250 J0
G1 Z[#50+11*#52]
G2 I-0.00250 J0
G1 Z[#50+10*#52]
G2 I-0.00250 J0
G1 Z[#50+9*#52]
G2 I-0.00250 J0
G1 Z[#50+8*#52]
G2 I-0.00250 J0
G1 Z[#50+7*#52]
G2 I-0.00250 J0
G1 Z[#50+6*#52]
G2 I-0.00250 J0
G1 Z[#50+5*#52]
G2 I-0.00250 J0
G1 Z[#50+4*#52]
G2 I-0.00250 J0
G1 Z[#50+3*#52]
G2 I-0.00250 J0
G1 Z[#50+2*#52]
G2 I-0.00250 J0
G1 Z[#50+1*#52]
G2 I-0.00250 J0
G0 Z0.02000

G0 X1.13256 Y0.23960
G1 Z[#50+12*#52]
G2 I-0.00250 J0
G1 Z[#50+11*#52]
G2 I-0.00250 J0
G1 Z[#50+10*#52]
G2 I-0.00250 J0
G1 Z[#50+9*#52]
G2 I-0.00250 J0
G1 Z[#50+8*#52]
G2 I-0.00250 J0
G1 Z[#50+7*#52]
G2 I-0.00250 J0
G1 Z[#50+6*#52]
G2 I-0.00250 J0
G1 Z[#50+5*#52]
G2 I-0.00250 J0
G1 Z[#50+4*#52]
G2 I-0.00250 J0
G1 Z[#50+3*#52]
G2 I-0.00250 J0
G1 Z[#50+2*#52]
G2 I-0.00250 J0
G1 Z[#50+1*#52]
G2 I-0.00250 J0
G0 Z0.02000

G0 X1.03256 Y0.48960
G1 Z[#50+12*#52]
G2 I-0.00250 J0
G1 Z[#50+11*#52]
G2 I-0.00250 J0
G1 Z[#50+10*#52]
G2 I-0.00250 J0
G1 Z[#50+9*#52]
G2 I-0.00250 J0
G1 Z[#50+8*#52]
G2 I-0.00250 J0
G1 Z[#50+7*#52]
G2 I-0.00250 J0
G1 Z[#50+6*#52]
G2 I-0.00250 J0
G1 Z[#50+5*#52]
G2 I-0.00250 J0
G1 Z[#50+4*#52]
G2 I-0.00250 J0
G1 Z[#50+3*#52]
G2 I-0.00250 J0
G1 Z[#50+2*#52]
G2 I-0.00250 J0
G1 Z[#50+1*#52]
G2 I-0.00250 J0
G0 Z0.02000

G0 X1.03256 Y0.38960
G1 Z[#50+12*#52]
G2 I-0.00250 J0
G1 Z[#50+11*#52]
G2 I-0.00250 J0
G1 Z[#50+10*#52]
G2 I-0.00250 J0
G1 Z[#50+9*#52]
G2 I-0.00250 J0
G1 Z[#50+8*#52]
G2 I-0.00250 J0
G1 Z[#50+7*#52]
G2 I-0.00250 J0
G1 Z[#50+6*#52]
G2 I-0.00250 J0
G1 Z[#50+5*#52]
G2 I-0.00250 J0
G1 Z[#50+4*#52]
G2 I-0.00250 J0
G1 Z[#50+3*#52]
G2 I-0.00250 J0
G1 Z[#50+2*#52]
G2 I-0.00250 J0
G1 Z[#50+1*#52]
G2 I-0.00250 J0
G0 Z0.02000

G0 X1.03256 Y0.28960
G1 Z[#50+12*#52]
G2 I-0.00250 J0
G1 Z[#50+11*#52]
G2 I-0.00250 J0
G1 Z[#50+10*#52]
G2 I-0.00250 J0
G1 Z[#50+9*#52]
G2 I-0.00250 J0
G1 Z[#50+8*#52]
G2 I-0.00250 J0
G1 Z[#50+7*#52]
G2 I-0.00250 J0
G1 Z[#50+6*#52]
G2 I-0.00250 J0
G1 Z[#50+5*#52]
G2 I-0.00250 J0
G1 Z[#50+4*#52]
G2 I-0.00250 J0
G1 Z[#50+3*#52]
G2 I-0.00250 J0
G1 Z[#50+2*#52]
G2 I-0.00250 J0
G1 Z[#50+1*#52]
G2 I-0.00250 J0
G0 Z0.02000

G0 X1.03256 Y0.18960
G1 Z[#50+12*#52]
G2 I-0.00250 J0
G1 Z[#50+11*#52]
G2 I-0.00250 J0
G1 Z[#50+10*#52]
G2 I-0.00250 J0
G1 Z[#50+9*#52]
G2 I-0.00250 J0
G1 Z[#50+8*#52]
G2 I-0.00250 J0
G1 Z[#50+7*#52]
G2 I-0.00250 J0
G1 Z[#50+6*#52]
G2 I-0.00250 J0
G1 Z[#50+5*#52]
G2 I-0.00250 J0
G1 Z[#50+4*#52]
G2 I-0.00250 J0
G1 Z[#50+3*#52]
G2 I-0.00250 J0
G1 Z[#50+2*#52]
G2 I-0.00250 J0
G1 Z[#50+1*#52]
G2 I-0.00250 J0
G0 Z0.02000

G0 X0.68256 Y0.48960
G1 Z[#50+12*#52]
G2 I-0.00250 J0
G1 Z[#50+11*#52]
G2 I-0.00250 J0
G1 Z[#50+10*#52]
G2 I-0.00250 J0
G1 Z[#50+9*#52]
G2 I-0.00250 J0
G1 Z[#50+8*#52]
G2 I-0.00250 J0
G1 Z[#50+7*#52]
G2 I-0.00250 J0
G1 Z[#50+6*#52]
G2 I-0.00250 J0
G1 Z[#50+5*#52]
G2 I-0.00250 J0
G1 Z[#50+4*#52]
G2 I-0.00250 J0
G1 Z[#50+3*#52]
G2 I-0.00250 J0
G1 Z[#50+2*#52]
G2 I-0.00250 J0
G1 Z[#50+1*#52]
G2 I-0.00250 J0
G0 Z0.02000

G0 X0.68256 Y0.38960
G1 Z[#50+12*#52]
G2 I-0.00250 J0
G1 Z[#50+11*#52]
G2 I-0.00250 J0
G1 Z[#50+10*#52]
G2 I-0.00250 J0
G1 Z[#50+9*#52]
G2 I-0.00250 J0
G1 Z[#50+8*#52]
G2 I-0.00250 J0
G1 Z[#50+7*#52]
G2 I-0.00250 J0
G1 Z[#50+6*#52]
G2 I-0.00250 J0
G1 Z[#50+5*#52]
G2 I-0.00250 J0
G1 Z[#50+4*#52]
G2 I-0.00250 J0
G1 Z[#50+3*#52]
G2 I-0.00250 J0
G1 Z[#50+2*#52]
G2 I-0.00250 J0
G1 Z[#50+1*#52]
G2 I-0.00250 J0
G0 Z0.02000

G0 X0.68256 Y0.28960
G1 Z[#50+12*#52]
G2 I-0.00250 J0
G1 Z[#50+11*#52]
G2 I-0.00250 J0
G1 Z[#50+10*#52]
G2 I-0.00250 J0
G1 Z[#50+9*#52]
G2 I-0.00250 J0
G1 Z[#50+8*#52]
G2 I-0.00250 J0
G1 Z[#50+7*#52]
G2 I-0.00250 J0
G1 Z[#50+6*#52]
G2 I-0.00250 J0
G1 Z[#50+5*#52]
G2 I-0.00250 J0
G1 Z[#50+4*#52]
G2 I-0.00250 J0
G1 Z[#50+3*#52]
G2 I-0.00250 J0
G1 Z[#50+2*#52]
G2 I-0.00250 J0
G1 Z[#50+1*#52]
G2 I-0.00250 J0
G0 Z0.02000

G0 X0.68256 Y0.18960
G1 Z[#50+12*#52]
G2 I-0.00250 J0
G1 Z[#50+11*#52]
G2 I-0.00250 J0
G1 Z[#50+10*#52]
G2 I-0.00250 J0
G1 Z[#50+9*#52]
G2 I-0.00250 J0
G1 Z[#50+8*#52]
G2 I-0.00250 J0
G1 Z[#50+7*#52]
G2 I-0.00250 J0
G1 Z[#50+6*#52]
G2 I-0.00250 J0
G1 Z[#50+5*#52]
G2 I-0.00250 J0
G1 Z[#50+4*#52]
G2 I-0.00250 J0
G1 Z[#50+3*#52]
G2 I-0.00250 J0
G1 Z[#50+2*#52]
G2 I-0.00250 J0
G1 Z[#50+1*#52]
G2 I-0.00250 J0
G0 Z0.02000

G0 X0.58256 Y0.53960
G1 Z[#50+12*#52]
G2 I-0.00250 J0
G1 Z[#50+11*#52]
G2 I-0.00250 J0
G1 Z[#50+10*#52]
G2 I-0.00250 J0
G1 Z[#50+9*#52]
G2 I-0.00250 J0
G1 Z[#50+8*#52]
G2 I-0.00250 J0
G1 Z[#50+7*#52]
G2 I-0.00250 J0
G1 Z[#50+6*#52]
G2 I-0.00250 J0
G1 Z[#50+5*#52]
G2 I-0.00250 J0
G1 Z[#50+4*#52]
G2 I-0.00250 J0
G1 Z[#50+3*#52]
G2 I-0.00250 J0
G1 Z[#50+2*#52]
G2 I-0.00250 J0
G1 Z[#50+1*#52]
G2 I-0.00250 J0
G0 Z0.02000

G0 X0.58256 Y0.43960
G1 Z[#50+12*#52]
G2 I-0.00250 J0
G1 Z[#50+11*#52]
G2 I-0.00250 J0
G1 Z[#50+10*#52]
G2 I-0.00250 J0
G1 Z[#50+9*#52]
G2 I-0.00250 J0
G1 Z[#50+8*#52]
G2 I-0.00250 J0
G1 Z[#50+7*#52]
G2 I-0.00250 J0
G1 Z[#50+6*#52]
G2 I-0.00250 J0
G1 Z[#50+5*#52]
G2 I-0.00250 J0
G1 Z[#50+4*#52]
G2 I-0.00250 J0
G1 Z[#50+3*#52]
G2 I-0.00250 J0
G1 Z[#50+2*#52]
G2 I-0.00250 J0
G1 Z[#50+1*#52]
G2 I-0.00250 J0
G0 Z0.02000

G0 X0.58256 Y0.33960
G1 Z[#50+12*#52]
G2 I-0.00250 J0
G1 Z[#50+11*#52]
G2 I-0.00250 J0
G1 Z[#50+10*#52]
G2 I-0.00250 J0
G1 Z[#50+9*#52]
G2 I-0.00250 J0
G1 Z[#50+8*#52]
G2 I-0.00250 J0
G1 Z[#50+7*#52]
G2 I-0.00250 J0
G1 Z[#50+6*#52]
G2 I-0.00250 J0
G1 Z[#50+5*#52]
G2 I-0.00250 J0
G1 Z[#50+4*#52]
G2 I-0.00250 J0
G1 Z[#50+3*#52]
G2 I-0.00250 J0
G1 Z[#50+2*#52]
G2 I-0.00250 J0
G1 Z[#50+1*#52]
G2 I-0.00250 J0
G0 Z0.02000

G0 X0.58256 Y0.23960
G1 Z[#50+12*#52]
G2 I-0.00250 J0
G1 Z[#50+11*#52]
G2 I-0.00250 J0
G1 Z[#50+10*#52]
G2 I-0.00250 J0
G1 Z[#50+9*#52]
G2 I-0.00250 J0
G1 Z[#50+8*#52]
G2 I-0.00250 J0
G1 Z[#50+7*#52]
G2 I-0.00250 J0
G1 Z[#50+6*#52]
G2 I-0.00250 J0
G1 Z[#50+5*#52]
G2 I-0.00250 J0
G1 Z[#50+4*#52]
G2 I-0.00250 J0
G1 Z[#50+3*#52]
G2 I-0.00250 J0
G1 Z[#50+2*#52]
G2 I-0.00250 J0
G1 Z[#50+1*#52]
G2 I-0.00250 J0
G0 Z0.02000

G0 X1.42906 Y0.58960
G1 Z[#50+12*#52]
G2 I-0.04900 J0
G1 Z[#50+11*#52]
G2 I-0.04900 J0
G1 Z[#50+10*#52]
G2 I-0.04900 J0
G1 Z[#50+9*#52]
G2 I-0.04900 J0
G1 Z[#50+8*#52]
G2 I-0.04900 J0
G1 Z[#50+7*#52]
G2 I-0.04900 J0
G1 Z[#50+6*#52]
G2 I-0.04900 J0
G1 Z[#50+5*#52]
G2 I-0.04900 J0
G1 Z[#50+4*#52]
G2 I-0.04900 J0
G1 Z[#50+3*#52]
G2 I-0.04900 J0
G1 Z[#50+2*#52]
G2 I-0.04900 J0
G1 Z[#50+1*#52]
G2 I-0.04900 J0
G0 Z0.02000

G0 X1.42906 Y0.13960
G1 Z[#50+12*#52]
G2 I-0.04900 J0
G1 Z[#50+11*#52]
G2 I-0.04900 J0
G1 Z[#50+10*#52]
G2 I-0.04900 J0
G1 Z[#50+9*#52]
G2 I-0.04900 J0
G1 Z[#50+8*#52]
G2 I-0.04900 J0
G1 Z[#50+7*#52]
G2 I-0.04900 J0
G1 Z[#50+6*#52]
G2 I-0.04900 J0
G1 Z[#50+5*#52]
G2 I-0.04900 J0
G1 Z[#50+4*#52]
G2 I-0.04900 J0
G1 Z[#50+3*#52]
G2 I-0.04900 J0
G1 Z[#50+2*#52]
G2 I-0.04900 J0
G1 Z[#50+1*#52]
G2 I-0.04900 J0
G0 Z0.02000

G0 X0.37906 Y0.58960
G1 Z[#50+12*#52]
G2 I-0.04900 J0
G1 Z[#50+11*#52]
G2 I-0.04900 J0
G1 Z[#50+10*#52]
G2 I-0.04900 J0
G1 Z[#50+9*#52]
G2 I-0.04900 J0
G1 Z[#50+8*#52]
G2 I-0.04900 J0
G1 Z[#50+7*#52]
G2 I-0.04900 J0
G1 Z[#50+6*#52]
G2 I-0.04900 J0
G1 Z[#50+5*#52]
G2 I-0.04900 J0
G1 Z[#50+4*#52]
G2 I-0.04900 J0
G1 Z[#50+3*#52]
G2 I-0.04900 J0
G1 Z[#50+2*#52]
G2 I-0.04900 J0
G1 Z[#50+1*#52]
G2 I-0.04900 J0
G0 Z0.02000

G0 X0.37906 Y0.13960
G1 Z[#50+12*#52]
G2 I-0.04900 J0
G1 Z[#50+11*#52]
G2 I-0.04900 J0
G1 Z[#50+10*#52]
G2 I-0.04900 J0
G1 Z[#50+9*#52]
G2 I-0.04900 J0
G1 Z[#50+8*#52]
G2 I-0.04900 J0
G1 Z[#50+7*#52]
G2 I-0.04900 J0
G1 Z[#50+6*#52]
G2 I-0.04900 J0
G1 Z[#50+5*#52]
G2 I-0.04900 J0
G1 Z[#50+4*#52]
G2 I-0.04900 J0
G1 Z[#50+3*#52]
G2 I-0.04900 J0
G1 Z[#50+2*#52]
G2 I-0.04900 J0
G1 Z[#50+1*#52]
G2 I-0.04900 J0
G0 Z0.02000

G0 X1.51666 Y0.67500
G1 Z[#50+12*#52]
G2 I-0.01650 J0
G1 Z[#50+11*#52]
G2 I-0.01650 J0
G1 Z[#50+10*#52]
G2 I-0.01650 J0
G1 Z[#50+9*#52]
G2 I-0.01650 J0
G1 Z[#50+8*#52]
G2 I-0.01650 J0
G1 Z[#50+7*#52]
G2 I-0.01650 J0
G1 Z[#50+6*#52]
G2 I-0.01650 J0
G1 Z[#50+5*#52]
G2 I-0.01650 J0
G1 Z[#50+4*#52]
G2 I-0.01650 J0
G1 Z[#50+3*#52]
G2 I-0.01650 J0
G1 Z[#50+2*#52]
G2 I-0.01650 J0
G1 Z[#50+1*#52]
G2 I-0.01650 J0
G0 Z0.02000

G0 X1.51666 Y0.05490
G1 Z[#50+12*#52]
G2 I-0.01650 J0
G1 Z[#50+11*#52]
G2 I-0.01650 J0
G1 Z[#50+10*#52]
G2 I-0.01650 J0
G1 Z[#50+9*#52]
G2 I-0.01650 J0
G1 Z[#50+8*#52]
G2 I-0.01650 J0
G1 Z[#50+7*#52]
G2 I-0.01650 J0
G1 Z[#50+6*#52]
G2 I-0.01650 J0
G1 Z[#50+5*#52]
G2 I-0.01650 J0
G1 Z[#50+4*#52]
G2 I-0.01650 J0
G1 Z[#50+3*#52]
G2 I-0.01650 J0
G1 Z[#50+2*#52]
G2 I-0.01650 J0
G1 Z[#50+1*#52]
G2 I-0.01650 J0
G0 Z0.02000

G0 X0.22646 Y0.67500
G1 Z[#50+12*#52]
G2 I-0.01650 J0
G1 Z[#50+11*#52]
G2 I-0.01650 J0
G1 Z[#50+10*#52]
G2 I-0.01650 J0
G1 Z[#50+9*#52]
G2 I-0.01650 J0
G1 Z[#50+8*#52]
G2 I-0.01650 J0
G1 Z[#50+7*#52]
G2 I-0.01650 J0
G1 Z[#50+6*#52]
G2 I-0.01650 J0
G1 Z[#50+5*#52]
G2 I-0.01650 J0
G1 Z[#50+4*#52]
G2 I-0.01650 J0
G1 Z[#50+3*#52]
G2 I-0.01650 J0
G1 Z[#50+2*#52]
G2 I-0.01650 J0
G1 Z[#50+1*#52]
G2 I-0.01650 J0
G0 Z0.02000

G0 X0.22646 Y0.05490
G1 Z[#50+12*#52]
G2 I-0.01650 J0
G1 Z[#50+11*#52]
G2 I-0.01650 J0
G1 Z[#50+10*#52]
G2 I-0.01650 J0
G1 Z[#50+9*#52]
G2 I-0.01650 J0
G1 Z[#50+8*#52]
G2 I-0.01650 J0
G1 Z[#50+7*#52]
G2 I-0.01650 J0
G1 Z[#50+6*#52]
G2 I-0.01650 J0
G1 Z[#50+5*#52]
G2 I-0.01650 J0
G1 Z[#50+4*#52]
G2 I-0.01650 J0
G1 Z[#50+3*#52]
G2 I-0.01650 J0
G1 Z[#50+2*#52]
G2 I-0.01650 J0
G1 Z[#50+1*#52]
G2 I-0.01650 J0
G0 Z0.02000

G0 X1.62006 Y0.12960
G1 Z#50
G0 Z#51

G0 X0.95516 Y0.66000
G1 Z#50
G0 Z#51

G0 X0.95516 Y0.06500
G1 Z#50
G0 Z#51

G0 X0.85516 Y0.66000
G1 Z#50
G0 Z#51

G0 X0.85516 Y0.06500
G1 Z#50
G0 Z#51

G0 X0.75516 Y0.66000
G1 Z#50
G0 Z#51

G0 X0.75516 Y0.06500
G1 Z#50
G0 Z#51

G0 X1.61906 Y0.53960
G1 Z[#50+12*#52]
G2 I-0.00400 J0
G1 Z[#50+11*#52]
G2 I-0.00400 J0
G1 Z[#50+10*#52]
G2 I-0.00400 J0
G1 Z[#50+9*#52]
G2 I-0.00400 J0
G1 Z[#50+8*#52]
G2 I-0.00400 J0
G1 Z[#50+7*#52]
G2 I-0.00400 J0
G1 Z[#50+6*#52]
G2 I-0.00400 J0
G1 Z[#50+5*#52]
G2 I-0.00400 J0
G1 Z[#50+4*#52]
G2 I-0.00400 J0
G1 Z[#50+3*#52]
G2 I-0.00400 J0
G1 Z[#50+2*#52]
G2 I-0.00400 J0
G1 Z[#50+1*#52]
G2 I-0.00400 J0
G0 Z0.02000

G0 X1.61906 Y0.43960
G1 Z[#50+12*#52]
G2 I-0.00400 J0
G1 Z[#50+11*#52]
G2 I-0.00400 J0
G1 Z[#50+10*#52]
G2 I-0.00400 J0
G1 Z[#50+9*#52]
G2 I-0.00400 J0
G1 Z[#50+8*#52]
G2 I-0.00400 J0
G1 Z[#50+7*#52]
G2 I-0.00400 J0
G1 Z[#50+6*#52]
G2 I-0.00400 J0
G1 Z[#50+5*#52]
G2 I-0.00400 J0
G1 Z[#50+4*#52]
G2 I-0.00400 J0
G1 Z[#50+3*#52]
G2 I-0.00400 J0
G1 Z[#50+2*#52]
G2 I-0.00400 J0
G1 Z[#50+1*#52]
G2 I-0.00400 J0
G0 Z0.02000

G0 X1.61906 Y0.33960
G1 Z[#50+12*#52]
G2 I-0.00400 J0
G1 Z[#50+11*#52]
G2 I-0.00400 J0
G1 Z[#50+10*#52]
G2 I-0.00400 J0
G1 Z[#50+9*#52]
G2 I-0.00400 J0
G1 Z[#50+8*#52]
G2 I-0.00400 J0
G1 Z[#50+7*#52]
G2 I-0.00400 J0
G1 Z[#50+6*#52]
G2 I-0.00400 J0
G1 Z[#50+5*#52]
G2 I-0.00400 J0
G1 Z[#50+4*#52]
G2 I-0.00400 J0
G1 Z[#50+3*#52]
G2 I-0.00400 J0
G1 Z[#50+2*#52]
G2 I-0.00400 J0
G1 Z[#50+1*#52]
G2 I-0.00400 J0
G0 Z0.02000

G0 X1.61906 Y0.23960
G1 Z[#50+12*#52]
G2 I-0.00400 J0
G1 Z[#50+11*#52]
G2 I-0.00400 J0
G1 Z[#50+10*#52]
G2 I-0.00400 J0
G1 Z[#50+9*#52]
G2 I-0.00400 J0
G1 Z[#50+8*#52]
G2 I-0.00400 J0
G1 Z[#50+7*#52]
G2 I-0.00400 J0
G1 Z[#50+6*#52]
G2 I-0.00400 J0
G1 Z[#50+5*#52]
G2 I-0.00400 J0
G1 Z[#50+4*#52]
G2 I-0.00400 J0
G1 Z[#50+3*#52]
G2 I-0.00400 J0
G1 Z[#50+2*#52]
G2 I-0.00400 J0
G1 Z[#50+1*#52]
G2 I-0.00400 J0
G0 Z0.02000

G0 X1.51906 Y0.53960
G1 Z[#50+12*#52]
G2 I-0.00400 J0
G1 Z[#50+11*#52]
G2 I-0.00400 J0
G1 Z[#50+10*#52]
G2 I-0.00400 J0
G1 Z[#50+9*#52]
G2 I-0.00400 J0
G1 Z[#50+8*#52]
G2 I-0.00400 J0
G1 Z[#50+7*#52]
G2 I-0.00400 J0
G1 Z[#50+6*#52]
G2 I-0.00400 J0
G1 Z[#50+5*#52]
G2 I-0.00400 J0
G1 Z[#50+4*#52]
G2 I-0.00400 J0
G1 Z[#50+3*#52]
G2 I-0.00400 J0
G1 Z[#50+2*#52]
G2 I-0.00400 J0
G1 Z[#50+1*#52]
G2 I-0.00400 J0
G0 Z0.02000

G0 X1.51906 Y0.43960
G1 Z[#50+12*#52]
G2 I-0.00400 J0
G1 Z[#50+11*#52]
G2 I-0.00400 J0
G1 Z[#50+10*#52]
G2 I-0.00400 J0
G1 Z[#50+9*#52]
G2 I-0.00400 J0
G1 Z[#50+8*#52]
G2 I-0.00400 J0
G1 Z[#50+7*#52]
G2 I-0.00400 J0
G1 Z[#50+6*#52]
G2 I-0.00400 J0
G1 Z[#50+5*#52]
G2 I-0.00400 J0
G1 Z[#50+4*#52]
G2 I-0.00400 J0
G1 Z[#50+3*#52]
G2 I-0.00400 J0
G1 Z[#50+2*#52]
G2 I-0.00400 J0
G1 Z[#50+1*#52]
G2 I-0.00400 J0
G0 Z0.02000

G0 X1.51906 Y0.33960
G1 Z[#50+12*#52]
G2 I-0.00400 J0
G1 Z[#50+11*#52]
G2 I-0.00400 J0
G1 Z[#50+10*#52]
G2 I-0.00400 J0
G1 Z[#50+9*#52]
G2 I-0.00400 J0
G1 Z[#50+8*#52]
G2 I-0.00400 J0
G1 Z[#50+7*#52]
G2 I-0.00400 J0
G1 Z[#50+6*#52]
G2 I-0.00400 J0
G1 Z[#50+5*#52]
G2 I-0.00400 J0
G1 Z[#50+4*#52]
G2 I-0.00400 J0
G1 Z[#50+3*#52]
G2 I-0.00400 J0
G1 Z[#50+2*#52]
G2 I-0.00400 J0
G1 Z[#50+1*#52]
G2 I-0.00400 J0
G0 Z0.02000

G0 X1.51906 Y0.23960
G1 Z[#50+12*#52]
G2 I-0.00400 J0
G1 Z[#50+11*#52]
G2 I-0.00400 J0
G1 Z[#50+10*#52]
G2 I-0.00400 J0
G1 Z[#50+9*#52]
G2 I-0.00400 J0
G1 Z[#50+8*#52]
G2 I-0.00400 J0
G1 Z[#50+7*#52]
G2 I-0.00400 J0
G1 Z[#50+6*#52]
G2 I-0.00400 J0
G1 Z[#50+5*#52]
G2 I-0.00400 J0
G1 Z[#50+4*#52]
G2 I-0.00400 J0
G1 Z[#50+3*#52]
G2 I-0.00400 J0
G1 Z[#50+2*#52]
G2 I-0.00400 J0
G1 Z[#50+1*#52]
G2 I-0.00400 J0
G0 Z0.02000

G0 X1.07506 Y0.41460
G1 Z#50
G0 Z#51

G0 X0.97006 Y0.56460
G1 Z#50
G0 Z#51

G0 X0.97006 Y0.51460
G1 Z#50
G0 Z#51

G0 X0.97006 Y0.46460
G1 Z#50
G0 Z#51

G0 X0.97006 Y0.41460
G1 Z#50
G0 Z#51

G0 X0.97006 Y0.36460
G1 Z#50
G0 Z#51

G0 X0.97006 Y0.31460
G1 Z#50
G0 Z#51

G0 X0.97006 Y0.26460
G1 Z#50
G0 Z#51

G0 X0.97006 Y0.21460
G1 Z#50
G0 Z#51

G0 X0.88506 Y0.43960
G1 Z#50
G0 Z#51

G0 X0.88506 Y0.38960
G1 Z#50
G0 Z#51

G0 X0.88506 Y0.33960
G1 Z#50
G0 Z#51

G0 X0.88506 Y0.28960
G1 Z#50
G0 Z#51

G0 X0.79506 Y0.48960
G1 Z#50
G0 Z#51

G0 X0.79506 Y0.23960
G1 Z#50
G0 Z#51

G0 X0.74006 Y0.53960
G1 Z#50
G0 Z#51

G0 X0.74006 Y0.38960
G1 Z#50
G0 Z#51

G0 X0.74006 Y0.18960
G1 Z#50
G0 Z#51

G0 X0.42506 Y0.53960
G1 Z#50
G0 Z#51

G0 X0.42506 Y0.48960
G1 Z#50
G0 Z#51

G0 X0.42506 Y0.43960
G1 Z#50
G0 Z#51

G0 X0.42506 Y0.38960
G1 Z#50
G0 Z#51

G0 X0.42506 Y0.33960
G1 Z#50
G0 Z#51

G0 X0.42506 Y0.28960
G1 Z#50
G0 Z#51

G0 X0.42506 Y0.23960
G1 Z#50
G0 Z#51

G0 X0.42506 Y0.18960
G1 Z#50
G0 Z#51

G00 Z0.02000 ( All done -- retract )

M9 ( Coolant off. )
M2 ( Program end. )

